accel=0.5
vel=0.04
round=0.001
f_name=Paint

movel(pose_trans(f_name,p[-0.02000,-0.11736,0.03894,-0.00000,-1.57080,0.00000]), a=accel, v=vel, t=0, r=round)
movel(pose_trans(f_name,p[-0.00200,-0.11736,0.03894,-0.00000,-1.57080,0.00000]), a=accel, v=vel, t=0, r=round)
set_digital_out(0, True)
movel(pose_trans(f_name,p[0.00000,-0.11736,0.03894,-0.00000,-1.57080,0.00000]), a=accel, v=vel, t=0, r=round)
movel(pose_trans(f_name,p[0.00000,-0.11545,0.03733,-0.00000,-1.57080,0.00000]), a=accel, v=vel, t=0, r=round)
movel(pose_trans(f_name,p[0.00000,-0.11460,0.03662,-0.00000,-1.57080,0.00000]), a=accel, v=vel, t=0, r=round)
movel(pose_trans(f_name,p[0.00000,-0.11252,0.03522,-0.00000,-1.57080,0.00000]), a=accel, v=vel, t=0, r=round)
movel(pose_trans(f_name,p[0.00000,-0.11157,0.03459,-0.00000,-1.57080,0.00000]), a=accel, v=vel, t=0, r=round)
movel(pose_trans(f_name,p[0.00000,-0.10935,0.03344,-0.00000,-1.57080,0.00000]), a=accel, v=vel, t=0, r=round)
movel(pose_trans(f_name,p[0.00000,-0.10829,0.03289,-0.00000,-1.57080,0.00000]), a=accel, v=vel, t=0, r=round)
movel(pose_trans(f_name,p[0.00000,-0.10596,0.03199,-0.00000,-1.57080,0.00000]), a=accel, v=vel, t=0, r=round)
movel(pose_trans(f_name,p[0.00000,-0.10478,0.03154,-0.00000,-1.57080,0.00000]), a=accel, v=vel, t=0, r=round)
movel(pose_trans(f_name,p[0.00000,-0.10236,0.03092,-0.00000,-1.57080,0.00000]), a=accel, v=vel, t=0, r=round)
movel(pose_trans(f_name,p[0.00000,-0.10105,0.03058,-0.00000,-1.57080,0.00000]), a=accel, v=vel, t=0, r=round)
movel(pose_trans(f_name,p[0.00000,-0.09857,0.03025,-0.00000,-1.57080,0.00000]), a=accel, v=vel, t=0, r=round)
movel(pose_trans(f_name,p[0.00000,-0.09690,0.03004,-0.00000,-1.57080,0.00000]), a=accel, v=vel, t=0, r=round)
movel(pose_trans(f_name,p[0.00000,-0.09440,0.03003,-0.00000,-1.57080,0.00000]), a=accel, v=vel, t=0, r=round)
movel(pose_trans(f_name,p[0.00000,-0.09273,0.03003,-0.00000,-1.57080,0.00000]), a=accel, v=vel, t=0, r=round)
movel(pose_trans(f_name,p[0.00000,-0.09025,0.03034,-0.00000,-1.57080,0.00000]), a=accel, v=vel, t=0, r=round)
movel(pose_trans(f_name,p[0.00000,-0.08859,0.03054,-0.00000,-1.57080,0.00000]), a=accel, v=vel, t=0, r=round)
movel(pose_trans(f_name,p[0.00000,-0.08617,0.03115,-0.00000,-1.57080,0.00000]), a=accel, v=vel, t=0, r=round)
movel(pose_trans(f_name,p[0.00000,-0.08455,0.03155,-0.00000,-1.57080,0.00000]), a=accel, v=vel, t=0, r=round)
movel(pose_trans(f_name,p[0.00000,-0.08221,0.03245,-0.00000,-1.57080,0.00000]), a=accel, v=vel, t=0, r=round)
movel(pose_trans(f_name,p[0.00000,-0.08066,0.03304,-0.00000,-1.57080,0.00000]), a=accel, v=vel, t=0, r=round)
movel(pose_trans(f_name,p[0.00000,-0.07845,0.03421,-0.00000,-1.57080,0.00000]), a=accel, v=vel, t=0, r=round)
movel(pose_trans(f_name,p[0.00000,-0.07698,0.03499,-0.00000,-1.57080,0.00000]), a=accel, v=vel, t=0, r=round)
movel(pose_trans(f_name,p[0.00000,-0.07494,0.03643,-0.00000,-1.57080,0.00000]), a=accel, v=vel, t=0, r=round)
movel(pose_trans(f_name,p[0.00000,-0.07358,0.03738,-0.00000,-1.57080,0.00000]), a=accel, v=vel, t=0, r=round)
movel(pose_trans(f_name,p[0.00000,-0.07174,0.03907,-0.00000,-1.57080,0.00000]), a=accel, v=vel, t=0, r=round)
movel(pose_trans(f_name,p[0.00000,-0.07053,0.04019,-0.00000,-1.57080,0.00000]), a=accel, v=vel, t=0, r=round)
movel(pose_trans(f_name,p[0.00000,-0.06888,0.04207,-0.00000,-1.57080,0.00000]), a=accel, v=vel, t=0, r=round)
movel(pose_trans(f_name,p[0.00000,-0.06797,0.04318,-0.00000,-1.57080,0.00000]), a=accel, v=vel, t=0, r=round)
movel(pose_trans(f_name,p[0.00000,-0.06649,0.04520,-0.00000,-1.57080,0.00000]), a=accel, v=vel, t=0, r=round)
movel(pose_trans(f_name,p[0.00000,-0.06520,0.04734,-0.00000,-1.57080,0.00000]), a=accel, v=vel, t=0, r=round)
movel(pose_trans(f_name,p[0.00000,-0.06447,0.04866,-0.00000,-1.57080,0.00000]), a=accel, v=vel, t=0, r=round)
movel(pose_trans(f_name,p[0.00000,-0.06343,0.05092,-0.00000,-1.57080,0.00000]), a=accel, v=vel, t=0, r=round)
movel(pose_trans(f_name,p[0.00000,-0.06260,0.05328,-0.00000,-1.57080,0.00000]), a=accel, v=vel, t=0, r=round)
movel(pose_trans(f_name,p[0.00000,-0.06221,0.05457,-0.00000,-1.57080,0.00000]), a=accel, v=vel, t=0, r=round)
movel(pose_trans(f_name,p[0.00000,-0.06165,0.05701,-0.00000,-1.57080,0.00000]), a=accel, v=vel, t=0, r=round)
movel(pose_trans(f_name,p[0.00000,-0.06130,0.05948,-0.00000,-1.57080,0.00000]), a=accel, v=vel, t=0, r=round)
movel(pose_trans(f_name,p[0.00000,-0.06114,0.06112,-0.00000,-1.57080,0.00000]), a=accel, v=vel, t=0, r=round)
movel(pose_trans(f_name,p[0.00000,-0.06104,0.06361,-0.00000,-1.57080,0.00000]), a=accel, v=vel, t=0, r=round)
movel(pose_trans(f_name,p[0.00000,-0.06112,0.06611,-0.00000,-1.57080,0.00000]), a=accel, v=vel, t=0, r=round)
movel(pose_trans(f_name,p[0.00000,-0.06123,0.06739,-0.00000,-1.57080,0.00000]), a=accel, v=vel, t=0, r=round)
movel(pose_trans(f_name,p[0.00000,-0.06159,0.06987,-0.00000,-1.57080,0.00000]), a=accel, v=vel, t=0, r=round)
movel(pose_trans(f_name,p[0.00000,-0.06215,0.07230,-0.00000,-1.57080,0.00000]), a=accel, v=vel, t=0, r=round)
movel(pose_trans(f_name,p[0.00000,-0.06291,0.07469,-0.00000,-1.57080,0.00000]), a=accel, v=vel, t=0, r=round)
movel(pose_trans(f_name,p[0.00000,-0.06384,0.07700,-0.00000,-1.57080,0.00000]), a=accel, v=vel, t=0, r=round)
movel(pose_trans(f_name,p[0.00000,-0.06443,0.07830,-0.00000,-1.57080,0.00000]), a=accel, v=vel, t=0, r=round)
movel(pose_trans(f_name,p[0.00000,-0.06561,0.08050,-0.00000,-1.57080,0.00000]), a=accel, v=vel, t=0, r=round)
movel(pose_trans(f_name,p[0.00000,-0.06695,0.08261,-0.00000,-1.57080,0.00000]), a=accel, v=vel, t=0, r=round)
movel(pose_trans(f_name,p[0.00000,-0.06846,0.08460,-0.00000,-1.57080,0.00000]), a=accel, v=vel, t=0, r=round)
movel(pose_trans(f_name,p[0.00000,-0.07010,0.08649,-0.00000,-1.57080,0.00000]), a=accel, v=vel, t=0, r=round)
movel(pose_trans(f_name,p[0.00000,-0.07104,0.08746,-0.00000,-1.57080,0.00000]), a=accel, v=vel, t=0, r=round)
movel(pose_trans(f_name,p[0.00000,-0.07287,0.08916,-0.00000,-1.57080,0.00000]), a=accel, v=vel, t=0, r=round)
movel(pose_trans(f_name,p[0.00000,-0.07482,0.09072,-0.00000,-1.57080,0.00000]), a=accel, v=vel, t=0, r=round)
movel(pose_trans(f_name,p[0.00000,-0.07689,0.09212,-0.00000,-1.57080,0.00000]), a=accel, v=vel, t=0, r=round)
movel(pose_trans(f_name,p[0.00000,-0.07906,0.09336,-0.00000,-1.57080,0.00000]), a=accel, v=vel, t=0, r=round)
movel(pose_trans(f_name,p[0.00000,-0.08021,0.09393,-0.00000,-1.57080,0.00000]), a=accel, v=vel, t=0, r=round)
movel(pose_trans(f_name,p[0.00000,-0.08250,0.09493,-0.00000,-1.57080,0.00000]), a=accel, v=vel, t=0, r=round)
movel(pose_trans(f_name,p[0.00000,-0.08487,0.09573,-0.00000,-1.57080,0.00000]), a=accel, v=vel, t=0, r=round)
movel(pose_trans(f_name,p[0.00000,-0.08730,0.09632,-0.00000,-1.57080,0.00000]), a=accel, v=vel, t=0, r=round)
movel(pose_trans(f_name,p[0.00000,-0.08784,0.09645,-0.00000,-1.57080,0.00000]), a=accel, v=vel, t=0, r=round)
movel(pose_trans(f_name,p[0.00000,-0.09032,0.09675,-0.00000,-1.57080,0.00000]), a=accel, v=vel, t=0, r=round)
movel(pose_trans(f_name,p[0.00000,-0.09161,0.09686,-0.00000,-1.57080,0.00000]), a=accel, v=vel, t=0, r=round)
movel(pose_trans(f_name,p[0.00000,-0.09411,0.09693,-0.00000,-1.57080,0.00000]), a=accel, v=vel, t=0, r=round)
movel(pose_trans(f_name,p[0.00000,-0.09553,0.09693,-0.00000,-1.57080,0.00000]), a=accel, v=vel, t=0, r=round)
movel(pose_trans(f_name,p[0.00000,-0.09803,0.09682,-0.00000,-1.57080,0.00000]), a=accel, v=vel, t=0, r=round)
movel(pose_trans(f_name,p[0.00000,-0.09907,0.09673,-0.00000,-1.57080,0.00000]), a=accel, v=vel, t=0, r=round)
movel(pose_trans(f_name,p[0.00000,-0.10155,0.09638,-0.00000,-1.57080,0.00000]), a=accel, v=vel, t=0, r=round)
movel(pose_trans(f_name,p[0.00000,-0.10171,0.09636,-0.00000,-1.57080,0.00000]), a=accel, v=vel, t=0, r=round)
movel(pose_trans(f_name,p[0.00000,-0.10411,0.09567,-0.00000,-1.57080,0.00000]), a=accel, v=vel, t=0, r=round)
movel(pose_trans(f_name,p[0.00000,-0.10568,0.09522,-0.00000,-1.57080,0.00000]), a=accel, v=vel, t=0, r=round)
movel(pose_trans(f_name,p[0.00000,-0.10798,0.09423,-0.00000,-1.57080,0.00000]), a=accel, v=vel, t=0, r=round)
movel(pose_trans(f_name,p[0.00000,-0.10947,0.09359,-0.00000,-1.57080,0.00000]), a=accel, v=vel, t=0, r=round)
movel(pose_trans(f_name,p[0.00000,-0.11163,0.09234,-0.00000,-1.57080,0.00000]), a=accel, v=vel, t=0, r=round)
movel(pose_trans(f_name,p[0.00000,-0.11302,0.09153,-0.00000,-1.57080,0.00000]), a=accel, v=vel, t=0, r=round)
movel(pose_trans(f_name,p[0.00000,-0.11502,0.09002,-0.00000,-1.57080,0.00000]), a=accel, v=vel, t=0, r=round)
movel(pose_trans(f_name,p[0.00000,-0.11629,0.08906,-0.00000,-1.57080,0.00000]), a=accel, v=vel, t=0, r=round)
movel(pose_trans(f_name,p[0.00000,-0.11810,0.08733,-0.00000,-1.57080,0.00000]), a=accel, v=vel, t=0, r=round)
movel(pose_trans(f_name,p[0.00000,-0.11925,0.08622,-0.00000,-1.57080,0.00000]), a=accel, v=vel, t=0, r=round)
movel(pose_trans(f_name,p[0.00000,-0.12083,0.08429,-0.00000,-1.57080,0.00000]), a=accel, v=vel, t=0, r=round)
movel(pose_trans(f_name,p[0.00000,-0.12183,0.08306,-0.00000,-1.57080,0.00000]), a=accel, v=vel, t=0, r=round)
movel(pose_trans(f_name,p[0.00000,-0.12316,0.08094,-0.00000,-1.57080,0.00000]), a=accel, v=vel, t=0, r=round)
movel(pose_trans(f_name,p[0.00000,-0.12400,0.07961,-0.00000,-1.57080,0.00000]), a=accel, v=vel, t=0, r=round)
movel(pose_trans(f_name,p[0.00000,-0.12505,0.07734,-0.00000,-1.57080,0.00000]), a=accel, v=vel, t=0, r=round)
movel(pose_trans(f_name,p[0.00000,-0.12572,0.07590,-0.00000,-1.57080,0.00000]), a=accel, v=vel, t=0, r=round)
movel(pose_trans(f_name,p[0.00000,-0.12649,0.07352,-0.00000,-1.57080,0.00000]), a=accel, v=vel, t=0, r=round)
movel(pose_trans(f_name,p[0.00000,-0.12691,0.07220,-0.00000,-1.57080,0.00000]), a=accel, v=vel, t=0, r=round)
movel(pose_trans(f_name,p[0.00000,-0.12741,0.06975,-0.00000,-1.57080,0.00000]), a=accel, v=vel, t=0, r=round)
movel(pose_trans(f_name,p[0.00000,-0.12767,0.06849,-0.00000,-1.57080,0.00000]), a=accel, v=vel, t=0, r=round)
movel(pose_trans(f_name,p[0.00000,-0.12790,0.06600,-0.00000,-1.57080,0.00000]), a=accel, v=vel, t=0, r=round)
movel(pose_trans(f_name,p[0.00000,-0.12801,0.06478,-0.00000,-1.57080,0.00000]), a=accel, v=vel, t=0, r=round)
movel(pose_trans(f_name,p[0.00000,-0.12796,0.06228,-0.00000,-1.57080,0.00000]), a=accel, v=vel, t=0, r=round)
movel(pose_trans(f_name,p[0.00000,-0.12793,0.06111,-0.00000,-1.57080,0.00000]), a=accel, v=vel, t=0, r=round)
movel(pose_trans(f_name,p[0.00000,-0.12762,0.05863,-0.00000,-1.57080,0.00000]), a=accel, v=vel, t=0, r=round)
movel(pose_trans(f_name,p[0.00000,-0.12747,0.05751,-0.00000,-1.57080,0.00000]), a=accel, v=vel, t=0, r=round)
movel(pose_trans(f_name,p[0.00000,-0.12689,0.05508,-0.00000,-1.57080,0.00000]), a=accel, v=vel, t=0, r=round)
movel(pose_trans(f_name,p[0.00000,-0.12663,0.05401,-0.00000,-1.57080,0.00000]), a=accel, v=vel, t=0, r=round)
movel(pose_trans(f_name,p[0.00000,-0.12580,0.05165,-0.00000,-1.57080,0.00000]), a=accel, v=vel, t=0, r=round)
movel(pose_trans(f_name,p[0.00000,-0.12544,0.05063,-0.00000,-1.57080,0.00000]), a=accel, v=vel, t=0, r=round)
movel(pose_trans(f_name,p[0.00000,-0.12436,0.04838,-0.00000,-1.57080,0.00000]), a=accel, v=vel, t=0, r=round)
movel(pose_trans(f_name,p[0.00000,-0.12389,0.04741,-0.00000,-1.57080,0.00000]), a=accel, v=vel, t=0, r=round)
movel(pose_trans(f_name,p[0.00000,-0.12258,0.04528,-0.00000,-1.57080,0.00000]), a=accel, v=vel, t=0, r=round)
movel(pose_trans(f_name,p[0.00000,-0.12202,0.04436,-0.00000,-1.57080,0.00000]), a=accel, v=vel, t=0, r=round)
movel(pose_trans(f_name,p[0.00000,-0.12050,0.04238,-0.00000,-1.57080,0.00000]), a=accel, v=vel, t=0, r=round)
movel(pose_trans(f_name,p[0.00000,-0.11984,0.04153,-0.00000,-1.57080,0.00000]), a=accel, v=vel, t=0, r=round)
movel(pose_trans(f_name,p[0.00000,-0.11811,0.03973,-0.00000,-1.57080,0.00000]), a=accel, v=vel, t=0, r=round)
movel(pose_trans(f_name,p[0.00000,-0.11736,0.03894,-0.00000,-1.57080,0.00000]), a=accel, v=vel, t=0, r=round)
set_digital_out(0, False)
movel(pose_trans(f_name,p[-0.00200,-0.11736,0.03894,-0.00000,-1.57080,0.00000]), a=accel, v=vel, t=0, r=round)
movel(pose_trans(f_name,p[-0.02000,-0.11736,0.03894,-0.00000,-1.57080,0.00000]), a=accel, v=vel, t=0, r=round)
movel(pose_trans(f_name,p[-0.02000,-0.11110,0.04594,-0.00000,-1.57080,0.00000]), a=accel, v=vel, t=0, r=round)
movel(pose_trans(f_name,p[-0.00200,-0.11110,0.04594,-0.00000,-1.57080,0.00000]), a=accel, v=vel, t=0, r=round)
set_digital_out(0, True)
movel(pose_trans(f_name,p[0.00000,-0.11110,0.04594,-0.00000,-1.57080,0.00000]), a=accel, v=vel, t=0, r=round)
movel(pose_trans(f_name,p[0.00000,-0.10917,0.04435,-0.00000,-1.57080,0.00000]), a=accel, v=vel, t=0, r=round)
movel(pose_trans(f_name,p[0.00000,-0.10711,0.04293,-0.00000,-1.57080,0.00000]), a=accel, v=vel, t=0, r=round)
movel(pose_trans(f_name,p[0.00000,-0.10515,0.04181,-0.00000,-1.57080,0.00000]), a=accel, v=vel, t=0, r=round)
movel(pose_trans(f_name,p[0.00000,-0.10309,0.04087,-0.00000,-1.57080,0.00000]), a=accel, v=vel, t=0, r=round)
movel(pose_trans(f_name,p[0.00000,-0.10116,0.04019,-0.00000,-1.57080,0.00000]), a=accel, v=vel, t=0, r=round)
movel(pose_trans(f_name,p[0.00000,-0.09959,0.03978,-0.00000,-1.57080,0.00000]), a=accel, v=vel, t=0, r=round)
movel(pose_trans(f_name,p[0.00000,-0.09710,0.03952,-0.00000,-1.57080,0.00000]), a=accel, v=vel, t=0, r=round)
movel(pose_trans(f_name,p[0.00000,-0.09460,0.03947,-0.00000,-1.57080,0.00000]), a=accel, v=vel, t=0, r=round)
movel(pose_trans(f_name,p[0.00000,-0.09211,0.03958,-0.00000,-1.57080,0.00000]), a=accel, v=vel, t=0, r=round)
movel(pose_trans(f_name,p[0.00000,-0.09087,0.03968,-0.00000,-1.57080,0.00000]), a=accel, v=vel, t=0, r=round)
movel(pose_trans(f_name,p[0.00000,-0.08895,0.03997,-0.00000,-1.57080,0.00000]), a=accel, v=vel, t=0, r=round)
movel(pose_trans(f_name,p[0.00000,-0.08657,0.04070,-0.00000,-1.57080,0.00000]), a=accel, v=vel, t=0, r=round)
movel(pose_trans(f_name,p[0.00000,-0.08604,0.04086,-0.00000,-1.57080,0.00000]), a=accel, v=vel, t=0, r=round)
movel(pose_trans(f_name,p[0.00000,-0.08377,0.04191,-0.00000,-1.57080,0.00000]), a=accel, v=vel, t=0, r=round)
movel(pose_trans(f_name,p[0.00000,-0.08326,0.04215,-0.00000,-1.57080,0.00000]), a=accel, v=vel, t=0, r=round)
movel(pose_trans(f_name,p[0.00000,-0.08115,0.04348,-0.00000,-1.57080,0.00000]), a=accel, v=vel, t=0, r=round)
movel(pose_trans(f_name,p[0.00000,-0.08064,0.04380,-0.00000,-1.57080,0.00000]), a=accel, v=vel, t=0, r=round)
movel(pose_trans(f_name,p[0.00000,-0.07871,0.04539,-0.00000,-1.57080,0.00000]), a=accel, v=vel, t=0, r=round)
movel(pose_trans(f_name,p[0.00000,-0.07787,0.04614,-0.00000,-1.57080,0.00000]), a=accel, v=vel, t=0, r=round)
movel(pose_trans(f_name,p[0.00000,-0.07614,0.04795,-0.00000,-1.57080,0.00000]), a=accel, v=vel, t=0, r=round)
movel(pose_trans(f_name,p[0.00000,-0.07465,0.04980,-0.00000,-1.57080,0.00000]), a=accel, v=vel, t=0, r=round)
movel(pose_trans(f_name,p[0.00000,-0.07347,0.05160,-0.00000,-1.57080,0.00000]), a=accel, v=vel, t=0, r=round)
movel(pose_trans(f_name,p[0.00000,-0.07259,0.05321,-0.00000,-1.57080,0.00000]), a=accel, v=vel, t=0, r=round)
movel(pose_trans(f_name,p[0.00000,-0.07177,0.05524,-0.00000,-1.57080,0.00000]), a=accel, v=vel, t=0, r=round)
movel(pose_trans(f_name,p[0.00000,-0.07110,0.05765,-0.00000,-1.57080,0.00000]), a=accel, v=vel, t=0, r=round)
movel(pose_trans(f_name,p[0.00000,-0.07069,0.06012,-0.00000,-1.57080,0.00000]), a=accel, v=vel, t=0, r=round)
movel(pose_trans(f_name,p[0.00000,-0.07051,0.06261,-0.00000,-1.57080,0.00000]), a=accel, v=vel, t=0, r=round)
movel(pose_trans(f_name,p[0.00000,-0.07048,0.06511,-0.00000,-1.57080,0.00000]), a=accel, v=vel, t=0, r=round)
movel(pose_trans(f_name,p[0.00000,-0.07070,0.06760,-0.00000,-1.57080,0.00000]), a=accel, v=vel, t=0, r=round)
movel(pose_trans(f_name,p[0.00000,-0.07073,0.06796,-0.00000,-1.57080,0.00000]), a=accel, v=vel, t=0, r=round)
movel(pose_trans(f_name,p[0.00000,-0.07128,0.07040,-0.00000,-1.57080,0.00000]), a=accel, v=vel, t=0, r=round)
movel(pose_trans(f_name,p[0.00000,-0.07130,0.07049,-0.00000,-1.57080,0.00000]), a=accel, v=vel, t=0, r=round)
movel(pose_trans(f_name,p[0.00000,-0.07215,0.07284,-0.00000,-1.57080,0.00000]), a=accel, v=vel, t=0, r=round)
movel(pose_trans(f_name,p[0.00000,-0.07222,0.07302,-0.00000,-1.57080,0.00000]), a=accel, v=vel, t=0, r=round)
movel(pose_trans(f_name,p[0.00000,-0.07334,0.07525,-0.00000,-1.57080,0.00000]), a=accel, v=vel, t=0, r=round)
movel(pose_trans(f_name,p[0.00000,-0.07366,0.07588,-0.00000,-1.57080,0.00000]), a=accel, v=vel, t=0, r=round)
movel(pose_trans(f_name,p[0.00000,-0.07506,0.07795,-0.00000,-1.57080,0.00000]), a=accel, v=vel, t=0, r=round)
movel(pose_trans(f_name,p[0.00000,-0.07542,0.07848,-0.00000,-1.57080,0.00000]), a=accel, v=vel, t=0, r=round)
movel(pose_trans(f_name,p[0.00000,-0.07709,0.08035,-0.00000,-1.57080,0.00000]), a=accel, v=vel, t=0, r=round)
movel(pose_trans(f_name,p[0.00000,-0.07749,0.08080,-0.00000,-1.57080,0.00000]), a=accel, v=vel, t=0, r=round)
movel(pose_trans(f_name,p[0.00000,-0.07938,0.08243,-0.00000,-1.57080,0.00000]), a=accel, v=vel, t=0, r=round)
movel(pose_trans(f_name,p[0.00000,-0.07984,0.08282,-0.00000,-1.57080,0.00000]), a=accel, v=vel, t=0, r=round)
movel(pose_trans(f_name,p[0.00000,-0.08192,0.08419,-0.00000,-1.57080,0.00000]), a=accel, v=vel, t=0, r=round)
movel(pose_trans(f_name,p[0.00000,-0.08244,0.08453,-0.00000,-1.57080,0.00000]), a=accel, v=vel, t=0, r=round)
movel(pose_trans(f_name,p[0.00000,-0.08469,0.08563,-0.00000,-1.57080,0.00000]), a=accel, v=vel, t=0, r=round)
movel(pose_trans(f_name,p[0.00000,-0.08528,0.08591,-0.00000,-1.57080,0.00000]), a=accel, v=vel, t=0, r=round)
movel(pose_trans(f_name,p[0.00000,-0.08764,0.08671,-0.00000,-1.57080,0.00000]), a=accel, v=vel, t=0, r=round)
movel(pose_trans(f_name,p[0.00000,-0.08832,0.08694,-0.00000,-1.57080,0.00000]), a=accel, v=vel, t=0, r=round)
movel(pose_trans(f_name,p[0.00000,-0.09077,0.08745,-0.00000,-1.57080,0.00000]), a=accel, v=vel, t=0, r=round)
movel(pose_trans(f_name,p[0.00000,-0.09156,0.08761,-0.00000,-1.57080,0.00000]), a=accel, v=vel, t=0, r=round)
movel(pose_trans(f_name,p[0.00000,-0.09405,0.08777,-0.00000,-1.57080,0.00000]), a=accel, v=vel, t=0, r=round)
movel(pose_trans(f_name,p[0.00000,-0.09491,0.08782,-0.00000,-1.57080,0.00000]), a=accel, v=vel, t=0, r=round)
movel(pose_trans(f_name,p[0.00000,-0.09740,0.08759,-0.00000,-1.57080,0.00000]), a=accel, v=vel, t=0, r=round)
movel(pose_trans(f_name,p[0.00000,-0.09827,0.08752,-0.00000,-1.57080,0.00000]), a=accel, v=vel, t=0, r=round)
movel(pose_trans(f_name,p[0.00000,-0.10070,0.08694,-0.00000,-1.57080,0.00000]), a=accel, v=vel, t=0, r=round)
movel(pose_trans(f_name,p[0.00000,-0.10158,0.08673,-0.00000,-1.57080,0.00000]), a=accel, v=vel, t=0, r=round)
movel(pose_trans(f_name,p[0.00000,-0.10391,0.08582,-0.00000,-1.57080,0.00000]), a=accel, v=vel, t=0, r=round)
movel(pose_trans(f_name,p[0.00000,-0.10476,0.08549,-0.00000,-1.57080,0.00000]), a=accel, v=vel, t=0, r=round)
movel(pose_trans(f_name,p[0.00000,-0.10695,0.08428,-0.00000,-1.57080,0.00000]), a=accel, v=vel, t=0, r=round)
movel(pose_trans(f_name,p[0.00000,-0.10776,0.08383,-0.00000,-1.57080,0.00000]), a=accel, v=vel, t=0, r=round)
movel(pose_trans(f_name,p[0.00000,-0.10976,0.08233,-0.00000,-1.57080,0.00000]), a=accel, v=vel, t=0, r=round)
movel(pose_trans(f_name,p[0.00000,-0.11049,0.08178,-0.00000,-1.57080,0.00000]), a=accel, v=vel, t=0, r=round)
movel(pose_trans(f_name,p[0.00000,-0.11226,0.08002,-0.00000,-1.57080,0.00000]), a=accel, v=vel, t=0, r=round)
movel(pose_trans(f_name,p[0.00000,-0.11290,0.07938,-0.00000,-1.57080,0.00000]), a=accel, v=vel, t=0, r=round)
movel(pose_trans(f_name,p[0.00000,-0.11438,0.07737,-0.00000,-1.57080,0.00000]), a=accel, v=vel, t=0, r=round)
movel(pose_trans(f_name,p[0.00000,-0.11491,0.07665,-0.00000,-1.57080,0.00000]), a=accel, v=vel, t=0, r=round)
movel(pose_trans(f_name,p[0.00000,-0.11608,0.07444,-0.00000,-1.57080,0.00000]), a=accel, v=vel, t=0, r=round)
movel(pose_trans(f_name,p[0.00000,-0.11680,0.07309,-0.00000,-1.57080,0.00000]), a=accel, v=vel, t=0, r=round)
movel(pose_trans(f_name,p[0.00000,-0.11762,0.07086,-0.00000,-1.57080,0.00000]), a=accel, v=vel, t=0, r=round)
movel(pose_trans(f_name,p[0.00000,-0.11812,0.06899,-0.00000,-1.57080,0.00000]), a=accel, v=vel, t=0, r=round)
movel(pose_trans(f_name,p[0.00000,-0.11845,0.06709,-0.00000,-1.57080,0.00000]), a=accel, v=vel, t=0, r=round)
movel(pose_trans(f_name,p[0.00000,-0.11859,0.06574,-0.00000,-1.57080,0.00000]), a=accel, v=vel, t=0, r=round)
movel(pose_trans(f_name,p[0.00000,-0.11857,0.06324,-0.00000,-1.57080,0.00000]), a=accel, v=vel, t=0, r=round)
movel(pose_trans(f_name,p[0.00000,-0.11856,0.06170,-0.00000,-1.57080,0.00000]), a=accel, v=vel, t=0, r=round)
movel(pose_trans(f_name,p[0.00000,-0.11823,0.05922,-0.00000,-1.57080,0.00000]), a=accel, v=vel, t=0, r=round)
movel(pose_trans(f_name,p[0.00000,-0.11809,0.05815,-0.00000,-1.57080,0.00000]), a=accel, v=vel, t=0, r=round)
movel(pose_trans(f_name,p[0.00000,-0.11742,0.05574,-0.00000,-1.57080,0.00000]), a=accel, v=vel, t=0, r=round)
movel(pose_trans(f_name,p[0.00000,-0.11721,0.05499,-0.00000,-1.57080,0.00000]), a=accel, v=vel, t=0, r=round)
movel(pose_trans(f_name,p[0.00000,-0.11618,0.05272,-0.00000,-1.57080,0.00000]), a=accel, v=vel, t=0, r=round)
movel(pose_trans(f_name,p[0.00000,-0.11587,0.05205,-0.00000,-1.57080,0.00000]), a=accel, v=vel, t=0, r=round)
movel(pose_trans(f_name,p[0.00000,-0.11452,0.04995,-0.00000,-1.57080,0.00000]), a=accel, v=vel, t=0, r=round)
movel(pose_trans(f_name,p[0.00000,-0.11401,0.04917,-0.00000,-1.57080,0.00000]), a=accel, v=vel, t=0, r=round)
movel(pose_trans(f_name,p[0.00000,-0.11240,0.04726,-0.00000,-1.57080,0.00000]), a=accel, v=vel, t=0, r=round)
movel(pose_trans(f_name,p[0.00000,-0.11110,0.04594,-0.00000,-1.57080,0.00000]), a=accel, v=vel, t=0, r=round)
movel(pose_trans(f_name,p[0.00000,-0.10974,0.04878,-0.00000,-1.57080,0.00000]), a=accel, v=vel, t=0, r=round)
movel(pose_trans(f_name,p[0.00000,-0.10789,0.04709,-0.00000,-1.57080,0.00000]), a=accel, v=vel, t=0, r=round)
movel(pose_trans(f_name,p[0.00000,-0.10622,0.04583,-0.00000,-1.57080,0.00000]), a=accel, v=vel, t=0, r=round)
movel(pose_trans(f_name,p[0.00000,-0.10416,0.04467,-0.00000,-1.57080,0.00000]), a=accel, v=vel, t=0, r=round)
movel(pose_trans(f_name,p[0.00000,-0.10211,0.04374,-0.00000,-1.57080,0.00000]), a=accel, v=vel, t=0, r=round)
movel(pose_trans(f_name,p[0.00000,-0.10016,0.04303,-0.00000,-1.57080,0.00000]), a=accel, v=vel, t=0, r=round)
movel(pose_trans(f_name,p[0.00000,-0.09884,0.04266,-0.00000,-1.57080,0.00000]), a=accel, v=vel, t=0, r=round)
movel(pose_trans(f_name,p[0.00000,-0.09634,0.04247,-0.00000,-1.57080,0.00000]), a=accel, v=vel, t=0, r=round)
movel(pose_trans(f_name,p[0.00000,-0.09384,0.04249,-0.00000,-1.57080,0.00000]), a=accel, v=vel, t=0, r=round)
movel(pose_trans(f_name,p[0.00000,-0.09135,0.04266,-0.00000,-1.57080,0.00000]), a=accel, v=vel, t=0, r=round)
movel(pose_trans(f_name,p[0.00000,-0.08911,0.04301,-0.00000,-1.57080,0.00000]), a=accel, v=vel, t=0, r=round)
movel(pose_trans(f_name,p[0.00000,-0.08681,0.04376,-0.00000,-1.57080,0.00000]), a=accel, v=vel, t=0, r=round)
movel(pose_trans(f_name,p[0.00000,-0.08459,0.04481,-0.00000,-1.57080,0.00000]), a=accel, v=vel, t=0, r=round)
movel(pose_trans(f_name,p[0.00000,-0.08248,0.04611,-0.00000,-1.57080,0.00000]), a=accel, v=vel, t=0, r=round)
movel(pose_trans(f_name,p[0.00000,-0.08052,0.04765,-0.00000,-1.57080,0.00000]), a=accel, v=vel, t=0, r=round)
movel(pose_trans(f_name,p[0.00000,-0.07874,0.04940,-0.00000,-1.57080,0.00000]), a=accel, v=vel, t=0, r=round)
movel(pose_trans(f_name,p[0.00000,-0.07716,0.05132,-0.00000,-1.57080,0.00000]), a=accel, v=vel, t=0, r=round)
movel(pose_trans(f_name,p[0.00000,-0.07583,0.05339,-0.00000,-1.57080,0.00000]), a=accel, v=vel, t=0, r=round)
movel(pose_trans(f_name,p[0.00000,-0.07478,0.05558,-0.00000,-1.57080,0.00000]), a=accel, v=vel, t=0, r=round)
movel(pose_trans(f_name,p[0.00000,-0.07413,0.05761,-0.00000,-1.57080,0.00000]), a=accel, v=vel, t=0, r=round)
movel(pose_trans(f_name,p[0.00000,-0.07382,0.05888,-0.00000,-1.57080,0.00000]), a=accel, v=vel, t=0, r=round)
movel(pose_trans(f_name,p[0.00000,-0.07353,0.06137,-0.00000,-1.57080,0.00000]), a=accel, v=vel, t=0, r=round)
movel(pose_trans(f_name,p[0.00000,-0.07339,0.06261,-0.00000,-1.57080,0.00000]), a=accel, v=vel, t=0, r=round)
movel(pose_trans(f_name,p[0.00000,-0.07345,0.06510,-0.00000,-1.57080,0.00000]), a=accel, v=vel, t=0, r=round)
movel(pose_trans(f_name,p[0.00000,-0.07348,0.06635,-0.00000,-1.57080,0.00000]), a=accel, v=vel, t=0, r=round)
movel(pose_trans(f_name,p[0.00000,-0.07385,0.06858,-0.00000,-1.57080,0.00000]), a=accel, v=vel, t=0, r=round)
movel(pose_trans(f_name,p[0.00000,-0.07412,0.06970,-0.00000,-1.57080,0.00000]), a=accel, v=vel, t=0, r=round)
movel(pose_trans(f_name,p[0.00000,-0.07504,0.07203,-0.00000,-1.57080,0.00000]), a=accel, v=vel, t=0, r=round)
movel(pose_trans(f_name,p[0.00000,-0.07533,0.07276,-0.00000,-1.57080,0.00000]), a=accel, v=vel, t=0, r=round)
movel(pose_trans(f_name,p[0.00000,-0.07660,0.07491,-0.00000,-1.57080,0.00000]), a=accel, v=vel, t=0, r=round)
movel(pose_trans(f_name,p[0.00000,-0.07701,0.07561,-0.00000,-1.57080,0.00000]), a=accel, v=vel, t=0, r=round)
movel(pose_trans(f_name,p[0.00000,-0.07860,0.07754,-0.00000,-1.57080,0.00000]), a=accel, v=vel, t=0, r=round)
movel(pose_trans(f_name,p[0.00000,-0.07912,0.07817,-0.00000,-1.57080,0.00000]), a=accel, v=vel, t=0, r=round)
movel(pose_trans(f_name,p[0.00000,-0.08099,0.07983,-0.00000,-1.57080,0.00000]), a=accel, v=vel, t=0, r=round)
movel(pose_trans(f_name,p[0.00000,-0.08158,0.08035,-0.00000,-1.57080,0.00000]), a=accel, v=vel, t=0, r=round)
movel(pose_trans(f_name,p[0.00000,-0.08366,0.08173,-0.00000,-1.57080,0.00000]), a=accel, v=vel, t=0, r=round)
movel(pose_trans(f_name,p[0.00000,-0.08577,0.08283,-0.00000,-1.57080,0.00000]), a=accel, v=vel, t=0, r=round)
movel(pose_trans(f_name,p[0.00000,-0.08776,0.08364,-0.00000,-1.57080,0.00000]), a=accel, v=vel, t=0, r=round)
movel(pose_trans(f_name,p[0.00000,-0.08981,0.08426,-0.00000,-1.57080,0.00000]), a=accel, v=vel, t=0, r=round)
movel(pose_trans(f_name,p[0.00000,-0.09192,0.08466,-0.00000,-1.57080,0.00000]), a=accel, v=vel, t=0, r=round)
movel(pose_trans(f_name,p[0.00000,-0.09352,0.08484,-0.00000,-1.57080,0.00000]), a=accel, v=vel, t=0, r=round)
movel(pose_trans(f_name,p[0.00000,-0.09556,0.08485,-0.00000,-1.57080,0.00000]), a=accel, v=vel, t=0, r=round)
movel(pose_trans(f_name,p[0.00000,-0.09756,0.08463,-0.00000,-1.57080,0.00000]), a=accel, v=vel, t=0, r=round)
movel(pose_trans(f_name,p[0.00000,-0.09999,0.08405,-0.00000,-1.57080,0.00000]), a=accel, v=vel, t=0, r=round)
movel(pose_trans(f_name,p[0.00000,-0.10202,0.08337,-0.00000,-1.57080,0.00000]), a=accel, v=vel, t=0, r=round)
movel(pose_trans(f_name,p[0.00000,-0.10389,0.08255,-0.00000,-1.57080,0.00000]), a=accel, v=vel, t=0, r=round)
movel(pose_trans(f_name,p[0.00000,-0.10568,0.08158,-0.00000,-1.57080,0.00000]), a=accel, v=vel, t=0, r=round)
movel(pose_trans(f_name,p[0.00000,-0.10738,0.08044,-0.00000,-1.57080,0.00000]), a=accel, v=vel, t=0, r=round)
movel(pose_trans(f_name,p[0.00000,-0.10890,0.07922,-0.00000,-1.57080,0.00000]), a=accel, v=vel, t=0, r=round)
movel(pose_trans(f_name,p[0.00000,-0.10996,0.07823,-0.00000,-1.57080,0.00000]), a=accel, v=vel, t=0, r=round)
movel(pose_trans(f_name,p[0.00000,-0.11117,0.07682,-0.00000,-1.57080,0.00000]), a=accel, v=vel, t=0, r=round)
movel(pose_trans(f_name,p[0.00000,-0.11258,0.07475,-0.00000,-1.57080,0.00000]), a=accel, v=vel, t=0, r=round)
movel(pose_trans(f_name,p[0.00000,-0.11374,0.07254,-0.00000,-1.57080,0.00000]), a=accel, v=vel, t=0, r=round)
movel(pose_trans(f_name,p[0.00000,-0.11458,0.07045,-0.00000,-1.57080,0.00000]), a=accel, v=vel, t=0, r=round)
movel(pose_trans(f_name,p[0.00000,-0.11520,0.06827,-0.00000,-1.57080,0.00000]), a=accel, v=vel, t=0, r=round)
movel(pose_trans(f_name,p[0.00000,-0.11557,0.06616,-0.00000,-1.57080,0.00000]), a=accel, v=vel, t=0, r=round)
movel(pose_trans(f_name,p[0.00000,-0.11573,0.06402,-0.00000,-1.57080,0.00000]), a=accel, v=vel, t=0, r=round)
movel(pose_trans(f_name,p[0.00000,-0.11567,0.06188,-0.00000,-1.57080,0.00000]), a=accel, v=vel, t=0, r=round)
movel(pose_trans(f_name,p[0.00000,-0.11540,0.05975,-0.00000,-1.57080,0.00000]), a=accel, v=vel, t=0, r=round)
movel(pose_trans(f_name,p[0.00000,-0.11490,0.05767,-0.00000,-1.57080,0.00000]), a=accel, v=vel, t=0, r=round)
movel(pose_trans(f_name,p[0.00000,-0.11420,0.05564,-0.00000,-1.57080,0.00000]), a=accel, v=vel, t=0, r=round)
movel(pose_trans(f_name,p[0.00000,-0.11330,0.05370,-0.00000,-1.57080,0.00000]), a=accel, v=vel, t=0, r=round)
movel(pose_trans(f_name,p[0.00000,-0.11221,0.05186,-0.00000,-1.57080,0.00000]), a=accel, v=vel, t=0, r=round)
movel(pose_trans(f_name,p[0.00000,-0.11093,0.05014,-0.00000,-1.57080,0.00000]), a=accel, v=vel, t=0, r=round)
movel(pose_trans(f_name,p[0.00000,-0.10974,0.04878,-0.00000,-1.57080,0.00000]), a=accel, v=vel, t=0, r=round)
set_digital_out(0, False)
movel(pose_trans(f_name,p[-0.00200,-0.10974,0.04878,-0.00000,-1.57080,0.00000]), a=accel, v=vel, t=0, r=round)
movel(pose_trans(f_name,p[-0.02000,-0.10974,0.04878,-0.00000,-1.57080,0.00000]), a=accel, v=vel, t=0, r=round)
movel(pose_trans(f_name,p[-0.02000,-0.09578,0.02686,-0.00000,-1.57080,0.00000]), a=accel, v=vel, t=0, r=round)
movel(pose_trans(f_name,p[-0.00200,-0.09578,0.02686,-0.00000,-1.57080,0.00000]), a=accel, v=vel, t=0, r=round)
set_digital_out(0, True)
movel(pose_trans(f_name,p[0.00000,-0.09578,0.02686,-0.00000,-1.57080,0.00000]), a=accel, v=vel, t=0, r=round)
movel(pose_trans(f_name,p[0.00000,-0.09445,0.02474,-0.00000,-1.57080,0.00000]), a=accel, v=vel, t=0, r=round)
movel(pose_trans(f_name,p[0.00000,-0.09311,0.02263,-0.00000,-1.57080,0.00000]), a=accel, v=vel, t=0, r=round)
movel(pose_trans(f_name,p[0.00000,-0.09178,0.02052,-0.00000,-1.57080,0.00000]), a=accel, v=vel, t=0, r=round)
movel(pose_trans(f_name,p[0.00000,-0.09045,0.01840,-0.00000,-1.57080,0.00000]), a=accel, v=vel, t=0, r=round)
movel(pose_trans(f_name,p[0.00000,-0.08911,0.01629,-0.00000,-1.57080,0.00000]), a=accel, v=vel, t=0, r=round)
movel(pose_trans(f_name,p[0.00000,-0.08778,0.01417,-0.00000,-1.57080,0.00000]), a=accel, v=vel, t=0, r=round)
movel(pose_trans(f_name,p[0.00000,-0.08645,0.01206,-0.00000,-1.57080,0.00000]), a=accel, v=vel, t=0, r=round)
movel(pose_trans(f_name,p[0.00000,-0.08511,0.00995,-0.00000,-1.57080,0.00000]), a=accel, v=vel, t=0, r=round)
movel(pose_trans(f_name,p[0.00000,-0.08378,0.00783,-0.00000,-1.57080,0.00000]), a=accel, v=vel, t=0, r=round)
movel(pose_trans(f_name,p[0.00000,-0.08244,0.00572,-0.00000,-1.57080,0.00000]), a=accel, v=vel, t=0, r=round)
movel(pose_trans(f_name,p[0.00000,-0.08111,0.00360,-0.00000,-1.57080,0.00000]), a=accel, v=vel, t=0, r=round)
movel(pose_trans(f_name,p[0.00000,-0.07978,0.00149,-0.00000,-1.57080,0.00000]), a=accel, v=vel, t=0, r=round)
movel(pose_trans(f_name,p[0.00000,-0.07844,-0.00062,-0.00000,-1.57080,0.00000]), a=accel, v=vel, t=0, r=round)
movel(pose_trans(f_name,p[0.00000,-0.07711,-0.00274,-0.00000,-1.57080,0.00000]), a=accel, v=vel, t=0, r=round)
movel(pose_trans(f_name,p[0.00000,-0.07578,-0.00485,-0.00000,-1.57080,0.00000]), a=accel, v=vel, t=0, r=round)
movel(pose_trans(f_name,p[0.00000,-0.07444,-0.00697,-0.00000,-1.57080,0.00000]), a=accel, v=vel, t=0, r=round)
movel(pose_trans(f_name,p[0.00000,-0.07311,-0.00908,-0.00000,-1.57080,0.00000]), a=accel, v=vel, t=0, r=round)
movel(pose_trans(f_name,p[0.00000,-0.07178,-0.01119,-0.00000,-1.57080,0.00000]), a=accel, v=vel, t=0, r=round)
movel(pose_trans(f_name,p[0.00000,-0.07044,-0.01331,-0.00000,-1.57080,0.00000]), a=accel, v=vel, t=0, r=round)
movel(pose_trans(f_name,p[0.00000,-0.06911,-0.01542,-0.00000,-1.57080,0.00000]), a=accel, v=vel, t=0, r=round)
movel(pose_trans(f_name,p[0.00000,-0.06778,-0.01754,-0.00000,-1.57080,0.00000]), a=accel, v=vel, t=0, r=round)
movel(pose_trans(f_name,p[0.00000,-0.06644,-0.01965,-0.00000,-1.57080,0.00000]), a=accel, v=vel, t=0, r=round)
movel(pose_trans(f_name,p[0.00000,-0.06511,-0.02176,-0.00000,-1.57080,0.00000]), a=accel, v=vel, t=0, r=round)
movel(pose_trans(f_name,p[0.00000,-0.06378,-0.02388,-0.00000,-1.57080,0.00000]), a=accel, v=vel, t=0, r=round)
movel(pose_trans(f_name,p[0.00000,-0.06285,-0.02534,-0.00000,-1.57080,0.00000]), a=accel, v=vel, t=0, r=round)
movel(pose_trans(f_name,p[0.00000,-0.06151,-0.02745,-0.00000,-1.57080,0.00000]), a=accel, v=vel, t=0, r=round)
movel(pose_trans(f_name,p[0.00000,-0.06017,-0.02956,-0.00000,-1.57080,0.00000]), a=accel, v=vel, t=0, r=round)
movel(pose_trans(f_name,p[0.00000,-0.05883,-0.03166,-0.00000,-1.57080,0.00000]), a=accel, v=vel, t=0, r=round)
movel(pose_trans(f_name,p[0.00000,-0.05748,-0.03377,-0.00000,-1.57080,0.00000]), a=accel, v=vel, t=0, r=round)
movel(pose_trans(f_name,p[0.00000,-0.05614,-0.03588,-0.00000,-1.57080,0.00000]), a=accel, v=vel, t=0, r=round)
movel(pose_trans(f_name,p[0.00000,-0.05480,-0.03799,-0.00000,-1.57080,0.00000]), a=accel, v=vel, t=0, r=round)
movel(pose_trans(f_name,p[0.00000,-0.05345,-0.04009,-0.00000,-1.57080,0.00000]), a=accel, v=vel, t=0, r=round)
movel(pose_trans(f_name,p[0.00000,-0.05211,-0.04220,-0.00000,-1.57080,0.00000]), a=accel, v=vel, t=0, r=round)
movel(pose_trans(f_name,p[0.00000,-0.05077,-0.04431,-0.00000,-1.57080,0.00000]), a=accel, v=vel, t=0, r=round)
movel(pose_trans(f_name,p[0.00000,-0.04942,-0.04642,-0.00000,-1.57080,0.00000]), a=accel, v=vel, t=0, r=round)
movel(pose_trans(f_name,p[0.00000,-0.04808,-0.04853,-0.00000,-1.57080,0.00000]), a=accel, v=vel, t=0, r=round)
movel(pose_trans(f_name,p[0.00000,-0.04674,-0.05063,-0.00000,-1.57080,0.00000]), a=accel, v=vel, t=0, r=round)
movel(pose_trans(f_name,p[0.00000,-0.04539,-0.05274,-0.00000,-1.57080,0.00000]), a=accel, v=vel, t=0, r=round)
movel(pose_trans(f_name,p[0.00000,-0.04405,-0.05485,-0.00000,-1.57080,0.00000]), a=accel, v=vel, t=0, r=round)
movel(pose_trans(f_name,p[0.00000,-0.04271,-0.05696,-0.00000,-1.57080,0.00000]), a=accel, v=vel, t=0, r=round)
movel(pose_trans(f_name,p[0.00000,-0.04136,-0.05906,-0.00000,-1.57080,0.00000]), a=accel, v=vel, t=0, r=round)
movel(pose_trans(f_name,p[0.00000,-0.04002,-0.06117,-0.00000,-1.57080,0.00000]), a=accel, v=vel, t=0, r=round)
movel(pose_trans(f_name,p[0.00000,-0.03868,-0.06328,-0.00000,-1.57080,0.00000]), a=accel, v=vel, t=0, r=round)
movel(pose_trans(f_name,p[0.00000,-0.03733,-0.06539,-0.00000,-1.57080,0.00000]), a=accel, v=vel, t=0, r=round)
movel(pose_trans(f_name,p[0.00000,-0.03599,-0.06750,-0.00000,-1.57080,0.00000]), a=accel, v=vel, t=0, r=round)
movel(pose_trans(f_name,p[0.00000,-0.03465,-0.06960,-0.00000,-1.57080,0.00000]), a=accel, v=vel, t=0, r=round)
movel(pose_trans(f_name,p[0.00000,-0.03331,-0.07171,-0.00000,-1.57080,0.00000]), a=accel, v=vel, t=0, r=round)
movel(pose_trans(f_name,p[0.00000,-0.03196,-0.07382,-0.00000,-1.57080,0.00000]), a=accel, v=vel, t=0, r=round)
movel(pose_trans(f_name,p[0.00000,-0.03062,-0.07593,-0.00000,-1.57080,0.00000]), a=accel, v=vel, t=0, r=round)
movel(pose_trans(f_name,p[0.00000,-0.02978,-0.07723,-0.00000,-1.57080,0.00000]), a=accel, v=vel, t=0, r=round)
movel(pose_trans(f_name,p[0.00000,-0.02846,-0.07512,-0.00000,-1.57080,0.00000]), a=accel, v=vel, t=0, r=round)
movel(pose_trans(f_name,p[0.00000,-0.02711,-0.07301,-0.00000,-1.57080,0.00000]), a=accel, v=vel, t=0, r=round)
movel(pose_trans(f_name,p[0.00000,-0.02574,-0.07093,-0.00000,-1.57080,0.00000]), a=accel, v=vel, t=0, r=round)
movel(pose_trans(f_name,p[0.00000,-0.02530,-0.07026,-0.00000,-1.57080,0.00000]), a=accel, v=vel, t=0, r=round)
movel(pose_trans(f_name,p[0.00000,-0.02368,-0.06836,-0.00000,-1.57080,0.00000]), a=accel, v=vel, t=0, r=round)
movel(pose_trans(f_name,p[0.00000,-0.02237,-0.06683,-0.00000,-1.57080,0.00000]), a=accel, v=vel, t=0, r=round)
movel(pose_trans(f_name,p[0.00000,-0.02053,-0.06514,-0.00000,-1.57080,0.00000]), a=accel, v=vel, t=0, r=round)
movel(pose_trans(f_name,p[0.00000,-0.01905,-0.06377,-0.00000,-1.57080,0.00000]), a=accel, v=vel, t=0, r=round)
movel(pose_trans(f_name,p[0.00000,-0.01702,-0.06230,-0.00000,-1.57080,0.00000]), a=accel, v=vel, t=0, r=round)
movel(pose_trans(f_name,p[0.00000,-0.01540,-0.06112,-0.00000,-1.57080,0.00000]), a=accel, v=vel, t=0, r=round)
movel(pose_trans(f_name,p[0.00000,-0.01322,-0.05990,-0.00000,-1.57080,0.00000]), a=accel, v=vel, t=0, r=round)
movel(pose_trans(f_name,p[0.00000,-0.01149,-0.05893,-0.00000,-1.57080,0.00000]), a=accel, v=vel, t=0, r=round)
movel(pose_trans(f_name,p[0.00000,-0.00918,-0.05797,-0.00000,-1.57080,0.00000]), a=accel, v=vel, t=0, r=round)
movel(pose_trans(f_name,p[0.00000,-0.00739,-0.05724,-0.00000,-1.57080,0.00000]), a=accel, v=vel, t=0, r=round)
movel(pose_trans(f_name,p[0.00000,-0.00497,-0.05658,-0.00000,-1.57080,0.00000]), a=accel, v=vel, t=0, r=round)
movel(pose_trans(f_name,p[0.00000,-0.00277,-0.05602,-0.00000,-1.57080,0.00000]), a=accel, v=vel, t=0, r=round)
movel(pose_trans(f_name,p[0.00000,-0.00042,-0.05567,-0.00000,-1.57080,0.00000]), a=accel, v=vel, t=0, r=round)
movel(pose_trans(f_name,p[0.00000,0.00207,-0.05544,-0.00000,-1.57080,0.00000]), a=accel, v=vel, t=0, r=round)
movel(pose_trans(f_name,p[0.00000,0.00396,-0.05523,-0.00000,-1.57080,0.00000]), a=accel, v=vel, t=0, r=round)
movel(pose_trans(f_name,p[0.00000,0.00482,-0.05506,-0.00000,-1.57080,0.00000]), a=accel, v=vel, t=0, r=round)
movel(pose_trans(f_name,p[0.00000,0.00359,-0.05288,-0.00000,-1.57080,0.00000]), a=accel, v=vel, t=0, r=round)
movel(pose_trans(f_name,p[0.00000,0.00233,-0.05072,-0.00000,-1.57080,0.00000]), a=accel, v=vel, t=0, r=round)
movel(pose_trans(f_name,p[0.00000,0.00102,-0.04859,-0.00000,-1.57080,0.00000]), a=accel, v=vel, t=0, r=round)
movel(pose_trans(f_name,p[0.00000,-0.00029,-0.04647,-0.00000,-1.57080,0.00000]), a=accel, v=vel, t=0, r=round)
movel(pose_trans(f_name,p[0.00000,-0.00160,-0.04434,-0.00000,-1.57080,0.00000]), a=accel, v=vel, t=0, r=round)
movel(pose_trans(f_name,p[0.00000,-0.00291,-0.04221,-0.00000,-1.57080,0.00000]), a=accel, v=vel, t=0, r=round)
movel(pose_trans(f_name,p[0.00000,-0.00423,-0.04009,-0.00000,-1.57080,0.00000]), a=accel, v=vel, t=0, r=round)
movel(pose_trans(f_name,p[0.00000,-0.00557,-0.03798,-0.00000,-1.57080,0.00000]), a=accel, v=vel, t=0, r=round)
movel(pose_trans(f_name,p[0.00000,-0.00690,-0.03586,-0.00000,-1.57080,0.00000]), a=accel, v=vel, t=0, r=round)
movel(pose_trans(f_name,p[0.00000,-0.00823,-0.03375,-0.00000,-1.57080,0.00000]), a=accel, v=vel, t=0, r=round)
movel(pose_trans(f_name,p[0.00000,-0.00956,-0.03163,-0.00000,-1.57080,0.00000]), a=accel, v=vel, t=0, r=round)
movel(pose_trans(f_name,p[0.00000,-0.01090,-0.02952,-0.00000,-1.57080,0.00000]), a=accel, v=vel, t=0, r=round)
movel(pose_trans(f_name,p[0.00000,-0.01223,-0.02740,-0.00000,-1.57080,0.00000]), a=accel, v=vel, t=0, r=round)
movel(pose_trans(f_name,p[0.00000,-0.01356,-0.02529,-0.00000,-1.57080,0.00000]), a=accel, v=vel, t=0, r=round)
movel(pose_trans(f_name,p[0.00000,-0.01490,-0.02318,-0.00000,-1.57080,0.00000]), a=accel, v=vel, t=0, r=round)
movel(pose_trans(f_name,p[0.00000,-0.01623,-0.02106,-0.00000,-1.57080,0.00000]), a=accel, v=vel, t=0, r=round)
movel(pose_trans(f_name,p[0.00000,-0.01756,-0.01895,-0.00000,-1.57080,0.00000]), a=accel, v=vel, t=0, r=round)
movel(pose_trans(f_name,p[0.00000,-0.01889,-0.01683,-0.00000,-1.57080,0.00000]), a=accel, v=vel, t=0, r=round)
movel(pose_trans(f_name,p[0.00000,-0.02023,-0.01472,-0.00000,-1.57080,0.00000]), a=accel, v=vel, t=0, r=round)
movel(pose_trans(f_name,p[0.00000,-0.02156,-0.01260,-0.00000,-1.57080,0.00000]), a=accel, v=vel, t=0, r=round)
movel(pose_trans(f_name,p[0.00000,-0.02289,-0.01049,-0.00000,-1.57080,0.00000]), a=accel, v=vel, t=0, r=round)
movel(pose_trans(f_name,p[0.00000,-0.02423,-0.00837,-0.00000,-1.57080,0.00000]), a=accel, v=vel, t=0, r=round)
movel(pose_trans(f_name,p[0.00000,-0.02556,-0.00626,-0.00000,-1.57080,0.00000]), a=accel, v=vel, t=0, r=round)
movel(pose_trans(f_name,p[0.00000,-0.02689,-0.00415,-0.00000,-1.57080,0.00000]), a=accel, v=vel, t=0, r=round)
movel(pose_trans(f_name,p[0.00000,-0.02823,-0.00203,-0.00000,-1.57080,0.00000]), a=accel, v=vel, t=0, r=round)
movel(pose_trans(f_name,p[0.00000,-0.02957,0.00007,-0.00000,-1.57080,0.00000]), a=accel, v=vel, t=0, r=round)
movel(pose_trans(f_name,p[0.00000,-0.03092,0.00218,-0.00000,-1.57080,0.00000]), a=accel, v=vel, t=0, r=round)
movel(pose_trans(f_name,p[0.00000,-0.03226,0.00429,-0.00000,-1.57080,0.00000]), a=accel, v=vel, t=0, r=round)
movel(pose_trans(f_name,p[0.00000,-0.03360,0.00639,-0.00000,-1.57080,0.00000]), a=accel, v=vel, t=0, r=round)
movel(pose_trans(f_name,p[0.00000,-0.03495,0.00850,-0.00000,-1.57080,0.00000]), a=accel, v=vel, t=0, r=round)
movel(pose_trans(f_name,p[0.00000,-0.03629,0.01061,-0.00000,-1.57080,0.00000]), a=accel, v=vel, t=0, r=round)
movel(pose_trans(f_name,p[0.00000,-0.03764,0.01272,-0.00000,-1.57080,0.00000]), a=accel, v=vel, t=0, r=round)
movel(pose_trans(f_name,p[0.00000,-0.03898,0.01482,-0.00000,-1.57080,0.00000]), a=accel, v=vel, t=0, r=round)
movel(pose_trans(f_name,p[0.00000,-0.04032,0.01693,-0.00000,-1.57080,0.00000]), a=accel, v=vel, t=0, r=round)
movel(pose_trans(f_name,p[0.00000,-0.04167,0.01904,-0.00000,-1.57080,0.00000]), a=accel, v=vel, t=0, r=round)
movel(pose_trans(f_name,p[0.00000,-0.04301,0.02115,-0.00000,-1.57080,0.00000]), a=accel, v=vel, t=0, r=round)
movel(pose_trans(f_name,p[0.00000,-0.04436,0.02325,-0.00000,-1.57080,0.00000]), a=accel, v=vel, t=0, r=round)
movel(pose_trans(f_name,p[0.00000,-0.04570,0.02536,-0.00000,-1.57080,0.00000]), a=accel, v=vel, t=0, r=round)
movel(pose_trans(f_name,p[0.00000,-0.04704,0.02747,-0.00000,-1.57080,0.00000]), a=accel, v=vel, t=0, r=round)
movel(pose_trans(f_name,p[0.00000,-0.04839,0.02958,-0.00000,-1.57080,0.00000]), a=accel, v=vel, t=0, r=round)
movel(pose_trans(f_name,p[0.00000,-0.04973,0.03168,-0.00000,-1.57080,0.00000]), a=accel, v=vel, t=0, r=round)
movel(pose_trans(f_name,p[0.00000,-0.05108,0.03379,-0.00000,-1.57080,0.00000]), a=accel, v=vel, t=0, r=round)
movel(pose_trans(f_name,p[0.00000,-0.05244,0.03588,-0.00000,-1.57080,0.00000]), a=accel, v=vel, t=0, r=round)
movel(pose_trans(f_name,p[0.00000,-0.05381,0.03797,-0.00000,-1.57080,0.00000]), a=accel, v=vel, t=0, r=round)
movel(pose_trans(f_name,p[0.00000,-0.05518,0.04006,-0.00000,-1.57080,0.00000]), a=accel, v=vel, t=0, r=round)
movel(pose_trans(f_name,p[0.00000,-0.05655,0.04216,-0.00000,-1.57080,0.00000]), a=accel, v=vel, t=0, r=round)
movel(pose_trans(f_name,p[0.00000,-0.05792,0.04425,-0.00000,-1.57080,0.00000]), a=accel, v=vel, t=0, r=round)
movel(pose_trans(f_name,p[0.00000,-0.05928,0.04634,-0.00000,-1.57080,0.00000]), a=accel, v=vel, t=0, r=round)
movel(pose_trans(f_name,p[0.00000,-0.06065,0.04843,-0.00000,-1.57080,0.00000]), a=accel, v=vel, t=0, r=round)
movel(pose_trans(f_name,p[0.00000,-0.06102,0.04899,-0.00000,-1.57080,0.00000]), a=accel, v=vel, t=0, r=round)
movel(pose_trans(f_name,p[0.00000,-0.06233,0.04686,-0.00000,-1.57080,0.00000]), a=accel, v=vel, t=0, r=round)
movel(pose_trans(f_name,p[0.00000,-0.06362,0.04472,-0.00000,-1.57080,0.00000]), a=accel, v=vel, t=0, r=round)
movel(pose_trans(f_name,p[0.00000,-0.06442,0.04346,-0.00000,-1.57080,0.00000]), a=accel, v=vel, t=0, r=round)
movel(pose_trans(f_name,p[0.00000,-0.06567,0.04177,-0.00000,-1.57080,0.00000]), a=accel, v=vel, t=0, r=round)
movel(pose_trans(f_name,p[0.00000,-0.06729,0.03986,-0.00000,-1.57080,0.00000]), a=accel, v=vel, t=0, r=round)
movel(pose_trans(f_name,p[0.00000,-0.06817,0.03883,-0.00000,-1.57080,0.00000]), a=accel, v=vel, t=0, r=round)
movel(pose_trans(f_name,p[0.00000,-0.07002,0.03714,-0.00000,-1.57080,0.00000]), a=accel, v=vel, t=0, r=round)
movel(pose_trans(f_name,p[0.00000,-0.07149,0.03580,-0.00000,-1.57080,0.00000]), a=accel, v=vel, t=0, r=round)
movel(pose_trans(f_name,p[0.00000,-0.07352,0.03434,-0.00000,-1.57080,0.00000]), a=accel, v=vel, t=0, r=round)
movel(pose_trans(f_name,p[0.00000,-0.07517,0.03316,-0.00000,-1.57080,0.00000]), a=accel, v=vel, t=0, r=round)
movel(pose_trans(f_name,p[0.00000,-0.07735,0.03195,-0.00000,-1.57080,0.00000]), a=accel, v=vel, t=0, r=round)
movel(pose_trans(f_name,p[0.00000,-0.07914,0.03096,-0.00000,-1.57080,0.00000]), a=accel, v=vel, t=0, r=round)
movel(pose_trans(f_name,p[0.00000,-0.08145,0.03001,-0.00000,-1.57080,0.00000]), a=accel, v=vel, t=0, r=round)
movel(pose_trans(f_name,p[0.00000,-0.08334,0.02924,-0.00000,-1.57080,0.00000]), a=accel, v=vel, t=0, r=round)
movel(pose_trans(f_name,p[0.00000,-0.08575,0.02858,-0.00000,-1.57080,0.00000]), a=accel, v=vel, t=0, r=round)
movel(pose_trans(f_name,p[0.00000,-0.08810,0.02798,-0.00000,-1.57080,0.00000]), a=accel, v=vel, t=0, r=round)
movel(pose_trans(f_name,p[0.00000,-0.09057,0.02760,-0.00000,-1.57080,0.00000]), a=accel, v=vel, t=0, r=round)
movel(pose_trans(f_name,p[0.00000,-0.09305,0.02734,-0.00000,-1.57080,0.00000]), a=accel, v=vel, t=0, r=round)
movel(pose_trans(f_name,p[0.00000,-0.09473,0.02716,-0.00000,-1.57080,0.00000]), a=accel, v=vel, t=0, r=round)
movel(pose_trans(f_name,p[0.00000,-0.09578,0.02686,-0.00000,-1.57080,0.00000]), a=accel, v=vel, t=0, r=round)
set_digital_out(0, False)
movel(pose_trans(f_name,p[-0.00200,-0.09578,0.02686,-0.00000,-1.57080,0.00000]), a=accel, v=vel, t=0, r=round)
movel(pose_trans(f_name,p[-0.02000,-0.09578,0.02686,-0.00000,-1.57080,0.00000]), a=accel, v=vel, t=0, r=round)
movel(pose_trans(f_name,p[-0.02000,-0.05937,0.05315,-0.00000,-1.57080,0.00000]), a=accel, v=vel, t=0, r=round)
movel(pose_trans(f_name,p[-0.00200,-0.05937,0.05315,-0.00000,-1.57080,0.00000]), a=accel, v=vel, t=0, r=round)
set_digital_out(0, True)
movel(pose_trans(f_name,p[0.00000,-0.05937,0.05315,-0.00000,-1.57080,0.00000]), a=accel, v=vel, t=0, r=round)
movel(pose_trans(f_name,p[0.00000,-0.05904,0.05313,-0.00000,-1.57080,0.00000]), a=accel, v=vel, t=0, r=round)
movel(pose_trans(f_name,p[0.00000,-0.05666,0.05390,-0.00000,-1.57080,0.00000]), a=accel, v=vel, t=0, r=round)
movel(pose_trans(f_name,p[0.00000,-0.05428,0.05467,-0.00000,-1.57080,0.00000]), a=accel, v=vel, t=0, r=round)
movel(pose_trans(f_name,p[0.00000,-0.05191,0.05543,-0.00000,-1.57080,0.00000]), a=accel, v=vel, t=0, r=round)
movel(pose_trans(f_name,p[0.00000,-0.04953,0.05620,-0.00000,-1.57080,0.00000]), a=accel, v=vel, t=0, r=round)
movel(pose_trans(f_name,p[0.00000,-0.04715,0.05697,-0.00000,-1.57080,0.00000]), a=accel, v=vel, t=0, r=round)
movel(pose_trans(f_name,p[0.00000,-0.04477,0.05774,-0.00000,-1.57080,0.00000]), a=accel, v=vel, t=0, r=round)
movel(pose_trans(f_name,p[0.00000,-0.04239,0.05850,-0.00000,-1.57080,0.00000]), a=accel, v=vel, t=0, r=round)
movel(pose_trans(f_name,p[0.00000,-0.04001,0.05927,-0.00000,-1.57080,0.00000]), a=accel, v=vel, t=0, r=round)
movel(pose_trans(f_name,p[0.00000,-0.03763,0.06004,-0.00000,-1.57080,0.00000]), a=accel, v=vel, t=0, r=round)
movel(pose_trans(f_name,p[0.00000,-0.03526,0.06081,-0.00000,-1.57080,0.00000]), a=accel, v=vel, t=0, r=round)
movel(pose_trans(f_name,p[0.00000,-0.03288,0.06157,-0.00000,-1.57080,0.00000]), a=accel, v=vel, t=0, r=round)
movel(pose_trans(f_name,p[0.00000,-0.03050,0.06234,-0.00000,-1.57080,0.00000]), a=accel, v=vel, t=0, r=round)
movel(pose_trans(f_name,p[0.00000,-0.02812,0.06311,-0.00000,-1.57080,0.00000]), a=accel, v=vel, t=0, r=round)
movel(pose_trans(f_name,p[0.00000,-0.02574,0.06388,-0.00000,-1.57080,0.00000]), a=accel, v=vel, t=0, r=round)
movel(pose_trans(f_name,p[0.00000,-0.02336,0.06464,-0.00000,-1.57080,0.00000]), a=accel, v=vel, t=0, r=round)
movel(pose_trans(f_name,p[0.00000,-0.02099,0.06541,-0.00000,-1.57080,0.00000]), a=accel, v=vel, t=0, r=round)
movel(pose_trans(f_name,p[0.00000,-0.01861,0.06618,-0.00000,-1.57080,0.00000]), a=accel, v=vel, t=0, r=round)
movel(pose_trans(f_name,p[0.00000,-0.01623,0.06695,-0.00000,-1.57080,0.00000]), a=accel, v=vel, t=0, r=round)
movel(pose_trans(f_name,p[0.00000,-0.01385,0.06771,-0.00000,-1.57080,0.00000]), a=accel, v=vel, t=0, r=round)
movel(pose_trans(f_name,p[0.00000,-0.01147,0.06848,-0.00000,-1.57080,0.00000]), a=accel, v=vel, t=0, r=round)
movel(pose_trans(f_name,p[0.00000,-0.00909,0.06925,-0.00000,-1.57080,0.00000]), a=accel, v=vel, t=0, r=round)
movel(pose_trans(f_name,p[0.00000,-0.00671,0.07002,-0.00000,-1.57080,0.00000]), a=accel, v=vel, t=0, r=round)
movel(pose_trans(f_name,p[0.00000,-0.00433,0.07078,-0.00000,-1.57080,0.00000]), a=accel, v=vel, t=0, r=round)
movel(pose_trans(f_name,p[0.00000,-0.00196,0.07155,-0.00000,-1.57080,0.00000]), a=accel, v=vel, t=0, r=round)
movel(pose_trans(f_name,p[0.00000,0.00042,0.07232,-0.00000,-1.57080,0.00000]), a=accel, v=vel, t=0, r=round)
movel(pose_trans(f_name,p[0.00000,0.00280,0.07309,-0.00000,-1.57080,0.00000]), a=accel, v=vel, t=0, r=round)
movel(pose_trans(f_name,p[0.00000,0.00518,0.07386,-0.00000,-1.57080,0.00000]), a=accel, v=vel, t=0, r=round)
movel(pose_trans(f_name,p[0.00000,0.00756,0.07462,-0.00000,-1.57080,0.00000]), a=accel, v=vel, t=0, r=round)
movel(pose_trans(f_name,p[0.00000,0.00994,0.07539,-0.00000,-1.57080,0.00000]), a=accel, v=vel, t=0, r=round)
movel(pose_trans(f_name,p[0.00000,0.01231,0.07616,-0.00000,-1.57080,0.00000]), a=accel, v=vel, t=0, r=round)
movel(pose_trans(f_name,p[0.00000,0.01469,0.07693,-0.00000,-1.57080,0.00000]), a=accel, v=vel, t=0, r=round)
movel(pose_trans(f_name,p[0.00000,0.01707,0.07770,-0.00000,-1.57080,0.00000]), a=accel, v=vel, t=0, r=round)
movel(pose_trans(f_name,p[0.00000,0.01945,0.07847,-0.00000,-1.57080,0.00000]), a=accel, v=vel, t=0, r=round)
movel(pose_trans(f_name,p[0.00000,0.02183,0.07923,-0.00000,-1.57080,0.00000]), a=accel, v=vel, t=0, r=round)
movel(pose_trans(f_name,p[0.00000,0.02421,0.08000,-0.00000,-1.57080,0.00000]), a=accel, v=vel, t=0, r=round)
movel(pose_trans(f_name,p[0.00000,0.02659,0.08077,-0.00000,-1.57080,0.00000]), a=accel, v=vel, t=0, r=round)
movel(pose_trans(f_name,p[0.00000,0.02896,0.08154,-0.00000,-1.57080,0.00000]), a=accel, v=vel, t=0, r=round)
movel(pose_trans(f_name,p[0.00000,0.03134,0.08231,-0.00000,-1.57080,0.00000]), a=accel, v=vel, t=0, r=round)
movel(pose_trans(f_name,p[0.00000,0.03372,0.08307,-0.00000,-1.57080,0.00000]), a=accel, v=vel, t=0, r=round)
movel(pose_trans(f_name,p[0.00000,0.03610,0.08384,-0.00000,-1.57080,0.00000]), a=accel, v=vel, t=0, r=round)
movel(pose_trans(f_name,p[0.00000,0.03848,0.08461,-0.00000,-1.57080,0.00000]), a=accel, v=vel, t=0, r=round)
movel(pose_trans(f_name,p[0.00000,0.04086,0.08538,-0.00000,-1.57080,0.00000]), a=accel, v=vel, t=0, r=round)
movel(pose_trans(f_name,p[0.00000,0.04323,0.08615,-0.00000,-1.57080,0.00000]), a=accel, v=vel, t=0, r=round)
movel(pose_trans(f_name,p[0.00000,0.04561,0.08692,-0.00000,-1.57080,0.00000]), a=accel, v=vel, t=0, r=round)
movel(pose_trans(f_name,p[0.00000,0.04799,0.08768,-0.00000,-1.57080,0.00000]), a=accel, v=vel, t=0, r=round)
movel(pose_trans(f_name,p[0.00000,0.05037,0.08845,-0.00000,-1.57080,0.00000]), a=accel, v=vel, t=0, r=round)
movel(pose_trans(f_name,p[0.00000,0.05275,0.08922,-0.00000,-1.57080,0.00000]), a=accel, v=vel, t=0, r=round)
movel(pose_trans(f_name,p[0.00000,0.05513,0.08999,-0.00000,-1.57080,0.00000]), a=accel, v=vel, t=0, r=round)
movel(pose_trans(f_name,p[0.00000,0.05750,0.09077,-0.00000,-1.57080,0.00000]), a=accel, v=vel, t=0, r=round)
movel(pose_trans(f_name,p[0.00000,0.05948,0.09142,-0.00000,-1.57080,0.00000]), a=accel, v=vel, t=0, r=round)
movel(pose_trans(f_name,p[0.00000,0.05773,0.09320,-0.00000,-1.57080,0.00000]), a=accel, v=vel, t=0, r=round)
movel(pose_trans(f_name,p[0.00000,0.05600,0.09501,-0.00000,-1.57080,0.00000]), a=accel, v=vel, t=0, r=round)
movel(pose_trans(f_name,p[0.00000,0.05432,0.09686,-0.00000,-1.57080,0.00000]), a=accel, v=vel, t=0, r=round)
movel(pose_trans(f_name,p[0.00000,0.05278,0.09882,-0.00000,-1.57080,0.00000]), a=accel, v=vel, t=0, r=round)
movel(pose_trans(f_name,p[0.00000,0.05169,0.10032,-0.00000,-1.57080,0.00000]), a=accel, v=vel, t=0, r=round)
movel(pose_trans(f_name,p[0.00000,0.05037,0.10244,-0.00000,-1.57080,0.00000]), a=accel, v=vel, t=0, r=round)
movel(pose_trans(f_name,p[0.00000,0.04989,0.10331,-0.00000,-1.57080,0.00000]), a=accel, v=vel, t=0, r=round)
movel(pose_trans(f_name,p[0.00000,0.04879,0.10556,-0.00000,-1.57080,0.00000]), a=accel, v=vel, t=0, r=round)
movel(pose_trans(f_name,p[0.00000,0.04784,0.10787,-0.00000,-1.57080,0.00000]), a=accel, v=vel, t=0, r=round)
movel(pose_trans(f_name,p[0.00000,0.04737,0.10921,-0.00000,-1.57080,0.00000]), a=accel, v=vel, t=0, r=round)
movel(pose_trans(f_name,p[0.00000,0.04666,0.11161,-0.00000,-1.57080,0.00000]), a=accel, v=vel, t=0, r=round)
movel(pose_trans(f_name,p[0.00000,0.04612,0.11405,-0.00000,-1.57080,0.00000]), a=accel, v=vel, t=0, r=round)
movel(pose_trans(f_name,p[0.00000,0.04574,0.11652,-0.00000,-1.57080,0.00000]), a=accel, v=vel, t=0, r=round)
movel(pose_trans(f_name,p[0.00000,0.04554,0.11901,-0.00000,-1.57080,0.00000]), a=accel, v=vel, t=0, r=round)
movel(pose_trans(f_name,p[0.00000,0.04551,0.12151,-0.00000,-1.57080,0.00000]), a=accel, v=vel, t=0, r=round)
movel(pose_trans(f_name,p[0.00000,0.04566,0.12400,-0.00000,-1.57080,0.00000]), a=accel, v=vel, t=0, r=round)
movel(pose_trans(f_name,p[0.00000,0.04598,0.12648,-0.00000,-1.57080,0.00000]), a=accel, v=vel, t=0, r=round)
movel(pose_trans(f_name,p[0.00000,0.04635,0.12895,-0.00000,-1.57080,0.00000]), a=accel, v=vel, t=0, r=round)
movel(pose_trans(f_name,p[0.00000,0.04644,0.12960,-0.00000,-1.57080,0.00000]), a=accel, v=vel, t=0, r=round)
movel(pose_trans(f_name,p[0.00000,0.04646,0.13073,-0.00000,-1.57080,0.00000]), a=accel, v=vel, t=0, r=round)
movel(pose_trans(f_name,p[0.00000,0.04408,0.12998,-0.00000,-1.57080,0.00000]), a=accel, v=vel, t=0, r=round)
movel(pose_trans(f_name,p[0.00000,0.04170,0.12923,-0.00000,-1.57080,0.00000]), a=accel, v=vel, t=0, r=round)
movel(pose_trans(f_name,p[0.00000,0.03931,0.12848,-0.00000,-1.57080,0.00000]), a=accel, v=vel, t=0, r=round)
movel(pose_trans(f_name,p[0.00000,0.03692,0.12773,-0.00000,-1.57080,0.00000]), a=accel, v=vel, t=0, r=round)
movel(pose_trans(f_name,p[0.00000,0.03454,0.12699,-0.00000,-1.57080,0.00000]), a=accel, v=vel, t=0, r=round)
movel(pose_trans(f_name,p[0.00000,0.03216,0.12624,-0.00000,-1.57080,0.00000]), a=accel, v=vel, t=0, r=round)
movel(pose_trans(f_name,p[0.00000,0.02977,0.12549,-0.00000,-1.57080,0.00000]), a=accel, v=vel, t=0, r=round)
movel(pose_trans(f_name,p[0.00000,0.02739,0.12474,-0.00000,-1.57080,0.00000]), a=accel, v=vel, t=0, r=round)
movel(pose_trans(f_name,p[0.00000,0.02501,0.12398,-0.00000,-1.57080,0.00000]), a=accel, v=vel, t=0, r=round)
movel(pose_trans(f_name,p[0.00000,0.02263,0.12322,-0.00000,-1.57080,0.00000]), a=accel, v=vel, t=0, r=round)
movel(pose_trans(f_name,p[0.00000,0.02025,0.12245,-0.00000,-1.57080,0.00000]), a=accel, v=vel, t=0, r=round)
movel(pose_trans(f_name,p[0.00000,0.01786,0.12169,-0.00000,-1.57080,0.00000]), a=accel, v=vel, t=0, r=round)
movel(pose_trans(f_name,p[0.00000,0.01548,0.12093,-0.00000,-1.57080,0.00000]), a=accel, v=vel, t=0, r=round)
movel(pose_trans(f_name,p[0.00000,0.01310,0.12017,-0.00000,-1.57080,0.00000]), a=accel, v=vel, t=0, r=round)
movel(pose_trans(f_name,p[0.00000,0.01072,0.11941,-0.00000,-1.57080,0.00000]), a=accel, v=vel, t=0, r=round)
movel(pose_trans(f_name,p[0.00000,0.00834,0.11865,-0.00000,-1.57080,0.00000]), a=accel, v=vel, t=0, r=round)
movel(pose_trans(f_name,p[0.00000,0.00596,0.11788,-0.00000,-1.57080,0.00000]), a=accel, v=vel, t=0, r=round)
movel(pose_trans(f_name,p[0.00000,0.00358,0.11712,-0.00000,-1.57080,0.00000]), a=accel, v=vel, t=0, r=round)
movel(pose_trans(f_name,p[0.00000,0.00120,0.11636,-0.00000,-1.57080,0.00000]), a=accel, v=vel, t=0, r=round)
movel(pose_trans(f_name,p[0.00000,-0.00118,0.11560,-0.00000,-1.57080,0.00000]), a=accel, v=vel, t=0, r=round)
movel(pose_trans(f_name,p[0.00000,-0.00356,0.11484,-0.00000,-1.57080,0.00000]), a=accel, v=vel, t=0, r=round)
movel(pose_trans(f_name,p[0.00000,-0.00594,0.11408,-0.00000,-1.57080,0.00000]), a=accel, v=vel, t=0, r=round)
movel(pose_trans(f_name,p[0.00000,-0.00832,0.11331,-0.00000,-1.57080,0.00000]), a=accel, v=vel, t=0, r=round)
movel(pose_trans(f_name,p[0.00000,-0.01070,0.11255,-0.00000,-1.57080,0.00000]), a=accel, v=vel, t=0, r=round)
movel(pose_trans(f_name,p[0.00000,-0.01308,0.11179,-0.00000,-1.57080,0.00000]), a=accel, v=vel, t=0, r=round)
movel(pose_trans(f_name,p[0.00000,-0.01546,0.11103,-0.00000,-1.57080,0.00000]), a=accel, v=vel, t=0, r=round)
movel(pose_trans(f_name,p[0.00000,-0.01784,0.11026,-0.00000,-1.57080,0.00000]), a=accel, v=vel, t=0, r=round)
movel(pose_trans(f_name,p[0.00000,-0.02022,0.10949,-0.00000,-1.57080,0.00000]), a=accel, v=vel, t=0, r=round)
movel(pose_trans(f_name,p[0.00000,-0.02260,0.10873,-0.00000,-1.57080,0.00000]), a=accel, v=vel, t=0, r=round)
movel(pose_trans(f_name,p[0.00000,-0.02498,0.10796,-0.00000,-1.57080,0.00000]), a=accel, v=vel, t=0, r=round)
movel(pose_trans(f_name,p[0.00000,-0.02736,0.10719,-0.00000,-1.57080,0.00000]), a=accel, v=vel, t=0, r=round)
movel(pose_trans(f_name,p[0.00000,-0.02974,0.10643,-0.00000,-1.57080,0.00000]), a=accel, v=vel, t=0, r=round)
movel(pose_trans(f_name,p[0.00000,-0.03211,0.10566,-0.00000,-1.57080,0.00000]), a=accel, v=vel, t=0, r=round)
movel(pose_trans(f_name,p[0.00000,-0.03449,0.10489,-0.00000,-1.57080,0.00000]), a=accel, v=vel, t=0, r=round)
movel(pose_trans(f_name,p[0.00000,-0.03687,0.10413,-0.00000,-1.57080,0.00000]), a=accel, v=vel, t=0, r=round)
movel(pose_trans(f_name,p[0.00000,-0.03925,0.10336,-0.00000,-1.57080,0.00000]), a=accel, v=vel, t=0, r=round)
movel(pose_trans(f_name,p[0.00000,-0.04163,0.10260,-0.00000,-1.57080,0.00000]), a=accel, v=vel, t=0, r=round)
movel(pose_trans(f_name,p[0.00000,-0.04401,0.10183,-0.00000,-1.57080,0.00000]), a=accel, v=vel, t=0, r=round)
movel(pose_trans(f_name,p[0.00000,-0.04639,0.10106,-0.00000,-1.57080,0.00000]), a=accel, v=vel, t=0, r=round)
movel(pose_trans(f_name,p[0.00000,-0.04877,0.10030,-0.00000,-1.57080,0.00000]), a=accel, v=vel, t=0, r=round)
movel(pose_trans(f_name,p[0.00000,-0.05115,0.09953,-0.00000,-1.57080,0.00000]), a=accel, v=vel, t=0, r=round)
movel(pose_trans(f_name,p[0.00000,-0.05352,0.09876,-0.00000,-1.57080,0.00000]), a=accel, v=vel, t=0, r=round)
movel(pose_trans(f_name,p[0.00000,-0.05590,0.09798,-0.00000,-1.57080,0.00000]), a=accel, v=vel, t=0, r=round)
movel(pose_trans(f_name,p[0.00000,-0.05828,0.09720,-0.00000,-1.57080,0.00000]), a=accel, v=vel, t=0, r=round)
movel(pose_trans(f_name,p[0.00000,-0.06065,0.09642,-0.00000,-1.57080,0.00000]), a=accel, v=vel, t=0, r=round)
movel(pose_trans(f_name,p[0.00000,-0.06302,0.09565,-0.00000,-1.57080,0.00000]), a=accel, v=vel, t=0, r=round)
movel(pose_trans(f_name,p[0.00000,-0.06540,0.09487,-0.00000,-1.57080,0.00000]), a=accel, v=vel, t=0, r=round)
movel(pose_trans(f_name,p[0.00000,-0.06777,0.09409,-0.00000,-1.57080,0.00000]), a=accel, v=vel, t=0, r=round)
movel(pose_trans(f_name,p[0.00000,-0.07015,0.09331,-0.00000,-1.57080,0.00000]), a=accel, v=vel, t=0, r=round)
movel(pose_trans(f_name,p[0.00000,-0.07225,0.09262,-0.00000,-1.57080,0.00000]), a=accel, v=vel, t=0, r=round)
movel(pose_trans(f_name,p[0.00000,-0.07052,0.09082,-0.00000,-1.57080,0.00000]), a=accel, v=vel, t=0, r=round)
movel(pose_trans(f_name,p[0.00000,-0.06876,0.08904,-0.00000,-1.57080,0.00000]), a=accel, v=vel, t=0, r=round)
movel(pose_trans(f_name,p[0.00000,-0.06709,0.08718,-0.00000,-1.57080,0.00000]), a=accel, v=vel, t=0, r=round)
movel(pose_trans(f_name,p[0.00000,-0.06561,0.08517,-0.00000,-1.57080,0.00000]), a=accel, v=vel, t=0, r=round)
movel(pose_trans(f_name,p[0.00000,-0.06417,0.08315,-0.00000,-1.57080,0.00000]), a=accel, v=vel, t=0, r=round)
movel(pose_trans(f_name,p[0.00000,-0.06298,0.08095,-0.00000,-1.57080,0.00000]), a=accel, v=vel, t=0, r=round)
movel(pose_trans(f_name,p[0.00000,-0.06198,0.07911,-0.00000,-1.57080,0.00000]), a=accel, v=vel, t=0, r=round)
movel(pose_trans(f_name,p[0.00000,-0.06107,0.07678,-0.00000,-1.57080,0.00000]), a=accel, v=vel, t=0, r=round)
movel(pose_trans(f_name,p[0.00000,-0.06029,0.07482,-0.00000,-1.57080,0.00000]), a=accel, v=vel, t=0, r=round)
movel(pose_trans(f_name,p[0.00000,-0.05965,0.07240,-0.00000,-1.57080,0.00000]), a=accel, v=vel, t=0, r=round)
movel(pose_trans(f_name,p[0.00000,-0.05911,0.07036,-0.00000,-1.57080,0.00000]), a=accel, v=vel, t=0, r=round)
movel(pose_trans(f_name,p[0.00000,-0.05877,0.06789,-0.00000,-1.57080,0.00000]), a=accel, v=vel, t=0, r=round)
movel(pose_trans(f_name,p[0.00000,-0.05848,0.06583,-0.00000,-1.57080,0.00000]), a=accel, v=vel, t=0, r=round)
movel(pose_trans(f_name,p[0.00000,-0.05844,0.06333,-0.00000,-1.57080,0.00000]), a=accel, v=vel, t=0, r=round)
movel(pose_trans(f_name,p[0.00000,-0.05845,0.06091,-0.00000,-1.57080,0.00000]), a=accel, v=vel, t=0, r=round)
movel(pose_trans(f_name,p[0.00000,-0.05870,0.05842,-0.00000,-1.57080,0.00000]), a=accel, v=vel, t=0, r=round)
movel(pose_trans(f_name,p[0.00000,-0.05910,0.05595,-0.00000,-1.57080,0.00000]), a=accel, v=vel, t=0, r=round)
movel(pose_trans(f_name,p[0.00000,-0.05950,0.05348,-0.00000,-1.57080,0.00000]), a=accel, v=vel, t=0, r=round)
movel(pose_trans(f_name,p[0.00000,-0.05951,0.05343,-0.00000,-1.57080,0.00000]), a=accel, v=vel, t=0, r=round)
movel(pose_trans(f_name,p[0.00000,-0.05937,0.05315,-0.00000,-1.57080,0.00000]), a=accel, v=vel, t=0, r=round)
set_digital_out(0, False)
movel(pose_trans(f_name,p[-0.00200,-0.05937,0.05315,-0.00000,-1.57080,0.00000]), a=accel, v=vel, t=0, r=round)
movel(pose_trans(f_name,p[-0.02000,-0.05937,0.05315,-0.00000,-1.57080,0.00000]), a=accel, v=vel, t=0, r=round)
movel(pose_trans(f_name,p[-0.02000,0.05135,0.10608,-0.00000,-1.57080,0.00000]), a=accel, v=vel, t=0, r=round)
movel(pose_trans(f_name,p[-0.00200,0.05135,0.10608,-0.00000,-1.57080,0.00000]), a=accel, v=vel, t=0, r=round)
set_digital_out(0, True)
movel(pose_trans(f_name,p[0.00000,0.05135,0.10608,-0.00000,-1.57080,0.00000]), a=accel, v=vel, t=0, r=round)
movel(pose_trans(f_name,p[0.00000,0.05251,0.10386,-0.00000,-1.57080,0.00000]), a=accel, v=vel, t=0, r=round)
movel(pose_trans(f_name,p[0.00000,0.05382,0.10174,-0.00000,-1.57080,0.00000]), a=accel, v=vel, t=0, r=round)
movel(pose_trans(f_name,p[0.00000,0.05529,0.09971,-0.00000,-1.57080,0.00000]), a=accel, v=vel, t=0, r=round)
movel(pose_trans(f_name,p[0.00000,0.05690,0.09781,-0.00000,-1.57080,0.00000]), a=accel, v=vel, t=0, r=round)
movel(pose_trans(f_name,p[0.00000,0.05866,0.09602,-0.00000,-1.57080,0.00000]), a=accel, v=vel, t=0, r=round)
movel(pose_trans(f_name,p[0.00000,0.06054,0.09438,-0.00000,-1.57080,0.00000]), a=accel, v=vel, t=0, r=round)
movel(pose_trans(f_name,p[0.00000,0.06245,0.09297,-0.00000,-1.57080,0.00000]), a=accel, v=vel, t=0, r=round)
movel(pose_trans(f_name,p[0.00000,0.06456,0.09164,-0.00000,-1.57080,0.00000]), a=accel, v=vel, t=0, r=round)
movel(pose_trans(f_name,p[0.00000,0.06665,0.09051,-0.00000,-1.57080,0.00000]), a=accel, v=vel, t=0, r=round)
movel(pose_trans(f_name,p[0.00000,0.06880,0.08951,-0.00000,-1.57080,0.00000]), a=accel, v=vel, t=0, r=round)
movel(pose_trans(f_name,p[0.00000,0.07102,0.08864,-0.00000,-1.57080,0.00000]), a=accel, v=vel, t=0, r=round)
movel(pose_trans(f_name,p[0.00000,0.07317,0.08796,-0.00000,-1.57080,0.00000]), a=accel, v=vel, t=0, r=round)
movel(pose_trans(f_name,p[0.00000,0.07537,0.08743,-0.00000,-1.57080,0.00000]), a=accel, v=vel, t=0, r=round)
movel(pose_trans(f_name,p[0.00000,0.07689,0.08716,-0.00000,-1.57080,0.00000]), a=accel, v=vel, t=0, r=round)
movel(pose_trans(f_name,p[0.00000,0.07939,0.08702,-0.00000,-1.57080,0.00000]), a=accel, v=vel, t=0, r=round)
movel(pose_trans(f_name,p[0.00000,0.08189,0.08703,-0.00000,-1.57080,0.00000]), a=accel, v=vel, t=0, r=round)
movel(pose_trans(f_name,p[0.00000,0.08392,0.08709,-0.00000,-1.57080,0.00000]), a=accel, v=vel, t=0, r=round)
movel(pose_trans(f_name,p[0.00000,0.08641,0.08733,-0.00000,-1.57080,0.00000]), a=accel, v=vel, t=0, r=round)
movel(pose_trans(f_name,p[0.00000,0.08887,0.08775,-0.00000,-1.57080,0.00000]), a=accel, v=vel, t=0, r=round)
movel(pose_trans(f_name,p[0.00000,0.09129,0.08837,-0.00000,-1.57080,0.00000]), a=accel, v=vel, t=0, r=round)
movel(pose_trans(f_name,p[0.00000,0.09366,0.08917,-0.00000,-1.57080,0.00000]), a=accel, v=vel, t=0, r=round)
movel(pose_trans(f_name,p[0.00000,0.09596,0.09015,-0.00000,-1.57080,0.00000]), a=accel, v=vel, t=0, r=round)
movel(pose_trans(f_name,p[0.00000,0.09818,0.09129,-0.00000,-1.57080,0.00000]), a=accel, v=vel, t=0, r=round)
movel(pose_trans(f_name,p[0.00000,0.10031,0.09260,-0.00000,-1.57080,0.00000]), a=accel, v=vel, t=0, r=round)
movel(pose_trans(f_name,p[0.00000,0.10234,0.09406,-0.00000,-1.57080,0.00000]), a=accel, v=vel, t=0, r=round)
movel(pose_trans(f_name,p[0.00000,0.10425,0.09567,-0.00000,-1.57080,0.00000]), a=accel, v=vel, t=0, r=round)
movel(pose_trans(f_name,p[0.00000,0.10604,0.09742,-0.00000,-1.57080,0.00000]), a=accel, v=vel, t=0, r=round)
movel(pose_trans(f_name,p[0.00000,0.10769,0.09930,-0.00000,-1.57080,0.00000]), a=accel, v=vel, t=0, r=round)
movel(pose_trans(f_name,p[0.00000,0.10919,0.10129,-0.00000,-1.57080,0.00000]), a=accel, v=vel, t=0, r=round)
movel(pose_trans(f_name,p[0.00000,0.11055,0.10339,-0.00000,-1.57080,0.00000]), a=accel, v=vel, t=0, r=round)
movel(pose_trans(f_name,p[0.00000,0.11173,0.10559,-0.00000,-1.57080,0.00000]), a=accel, v=vel, t=0, r=round)
movel(pose_trans(f_name,p[0.00000,0.11275,0.10787,-0.00000,-1.57080,0.00000]), a=accel, v=vel, t=0, r=round)
movel(pose_trans(f_name,p[0.00000,0.11360,0.11022,-0.00000,-1.57080,0.00000]), a=accel, v=vel, t=0, r=round)
movel(pose_trans(f_name,p[0.00000,0.11424,0.11264,-0.00000,-1.57080,0.00000]), a=accel, v=vel, t=0, r=round)
movel(pose_trans(f_name,p[0.00000,0.11464,0.11444,-0.00000,-1.57080,0.00000]), a=accel, v=vel, t=0, r=round)
movel(pose_trans(f_name,p[0.00000,0.11499,0.11692,-0.00000,-1.57080,0.00000]), a=accel, v=vel, t=0, r=round)
movel(pose_trans(f_name,p[0.00000,0.11514,0.11941,-0.00000,-1.57080,0.00000]), a=accel, v=vel, t=0, r=round)
movel(pose_trans(f_name,p[0.00000,0.11517,0.12116,-0.00000,-1.57080,0.00000]), a=accel, v=vel, t=0, r=round)
movel(pose_trans(f_name,p[0.00000,0.11502,0.12366,-0.00000,-1.57080,0.00000]), a=accel, v=vel, t=0, r=round)
movel(pose_trans(f_name,p[0.00000,0.11467,0.12613,-0.00000,-1.57080,0.00000]), a=accel, v=vel, t=0, r=round)
movel(pose_trans(f_name,p[0.00000,0.11438,0.12768,-0.00000,-1.57080,0.00000]), a=accel, v=vel, t=0, r=round)
movel(pose_trans(f_name,p[0.00000,0.11375,0.13010,-0.00000,-1.57080,0.00000]), a=accel, v=vel, t=0, r=round)
movel(pose_trans(f_name,p[0.00000,0.11293,0.13246,-0.00000,-1.57080,0.00000]), a=accel, v=vel, t=0, r=round)
movel(pose_trans(f_name,p[0.00000,0.11235,0.13392,-0.00000,-1.57080,0.00000]), a=accel, v=vel, t=0, r=round)
movel(pose_trans(f_name,p[0.00000,0.11127,0.13618,-0.00000,-1.57080,0.00000]), a=accel, v=vel, t=0, r=round)
movel(pose_trans(f_name,p[0.00000,0.11000,0.13833,-0.00000,-1.57080,0.00000]), a=accel, v=vel, t=0, r=round)
movel(pose_trans(f_name,p[0.00000,0.10919,0.13959,-0.00000,-1.57080,0.00000]), a=accel, v=vel, t=0, r=round)
movel(pose_trans(f_name,p[0.00000,0.10770,0.14160,-0.00000,-1.57080,0.00000]), a=accel, v=vel, t=0, r=round)
movel(pose_trans(f_name,p[0.00000,0.10605,0.14347,-0.00000,-1.57080,0.00000]), a=accel, v=vel, t=0, r=round)
movel(pose_trans(f_name,p[0.00000,0.10501,0.14455,-0.00000,-1.57080,0.00000]), a=accel, v=vel, t=0, r=round)
movel(pose_trans(f_name,p[0.00000,0.10316,0.14623,-0.00000,-1.57080,0.00000]), a=accel, v=vel, t=0, r=round)
movel(pose_trans(f_name,p[0.00000,0.10117,0.14774,-0.00000,-1.57080,0.00000]), a=accel, v=vel, t=0, r=round)
movel(pose_trans(f_name,p[0.00000,0.09988,0.14864,-0.00000,-1.57080,0.00000]), a=accel, v=vel, t=0, r=round)
movel(pose_trans(f_name,p[0.00000,0.09773,0.14992,-0.00000,-1.57080,0.00000]), a=accel, v=vel, t=0, r=round)
movel(pose_trans(f_name,p[0.00000,0.09548,0.15101,-0.00000,-1.57080,0.00000]), a=accel, v=vel, t=0, r=round)
movel(pose_trans(f_name,p[0.00000,0.09388,0.15169,-0.00000,-1.57080,0.00000]), a=accel, v=vel, t=0, r=round)
movel(pose_trans(f_name,p[0.00000,0.09152,0.15250,-0.00000,-1.57080,0.00000]), a=accel, v=vel, t=0, r=round)
movel(pose_trans(f_name,p[0.00000,0.08910,0.15312,-0.00000,-1.57080,0.00000]), a=accel, v=vel, t=0, r=round)
movel(pose_trans(f_name,p[0.00000,0.08729,0.15350,-0.00000,-1.57080,0.00000]), a=accel, v=vel, t=0, r=round)
movel(pose_trans(f_name,p[0.00000,0.08482,0.15384,-0.00000,-1.57080,0.00000]), a=accel, v=vel, t=0, r=round)
movel(pose_trans(f_name,p[0.00000,0.08232,0.15397,-0.00000,-1.57080,0.00000]), a=accel, v=vel, t=0, r=round)
movel(pose_trans(f_name,p[0.00000,0.08066,0.15399,-0.00000,-1.57080,0.00000]), a=accel, v=vel, t=0, r=round)
movel(pose_trans(f_name,p[0.00000,0.07816,0.15384,-0.00000,-1.57080,0.00000]), a=accel, v=vel, t=0, r=round)
movel(pose_trans(f_name,p[0.00000,0.07569,0.15348,-0.00000,-1.57080,0.00000]), a=accel, v=vel, t=0, r=round)
movel(pose_trans(f_name,p[0.00000,0.07421,0.15320,-0.00000,-1.57080,0.00000]), a=accel, v=vel, t=0, r=round)
movel(pose_trans(f_name,p[0.00000,0.07179,0.15257,-0.00000,-1.57080,0.00000]), a=accel, v=vel, t=0, r=round)
movel(pose_trans(f_name,p[0.00000,0.06944,0.15173,-0.00000,-1.57080,0.00000]), a=accel, v=vel, t=0, r=round)
movel(pose_trans(f_name,p[0.00000,0.06819,0.15123,-0.00000,-1.57080,0.00000]), a=accel, v=vel, t=0, r=round)
movel(pose_trans(f_name,p[0.00000,0.06593,0.15015,-0.00000,-1.57080,0.00000]), a=accel, v=vel, t=0, r=round)
movel(pose_trans(f_name,p[0.00000,0.06378,0.14888,-0.00000,-1.57080,0.00000]), a=accel, v=vel, t=0, r=round)
movel(pose_trans(f_name,p[0.00000,0.06265,0.14814,-0.00000,-1.57080,0.00000]), a=accel, v=vel, t=0, r=round)
movel(pose_trans(f_name,p[0.00000,0.06064,0.14665,-0.00000,-1.57080,0.00000]), a=accel, v=vel, t=0, r=round)
movel(pose_trans(f_name,p[0.00000,0.05877,0.14499,-0.00000,-1.57080,0.00000]), a=accel, v=vel, t=0, r=round)
movel(pose_trans(f_name,p[0.00000,0.05780,0.14406,-0.00000,-1.57080,0.00000]), a=accel, v=vel, t=0, r=round)
movel(pose_trans(f_name,p[0.00000,0.05612,0.14221,-0.00000,-1.57080,0.00000]), a=accel, v=vel, t=0, r=round)
movel(pose_trans(f_name,p[0.00000,0.05459,0.14023,-0.00000,-1.57080,0.00000]), a=accel, v=vel, t=0, r=round)
movel(pose_trans(f_name,p[0.00000,0.05373,0.13901,-0.00000,-1.57080,0.00000]), a=accel, v=vel, t=0, r=round)
movel(pose_trans(f_name,p[0.00000,0.05243,0.13688,-0.00000,-1.57080,0.00000]), a=accel, v=vel, t=0, r=round)
movel(pose_trans(f_name,p[0.00000,0.05130,0.13465,-0.00000,-1.57080,0.00000]), a=accel, v=vel, t=0, r=round)
movel(pose_trans(f_name,p[0.00000,0.05058,0.13307,-0.00000,-1.57080,0.00000]), a=accel, v=vel, t=0, r=round)
movel(pose_trans(f_name,p[0.00000,0.04970,0.13073,-0.00000,-1.57080,0.00000]), a=accel, v=vel, t=0, r=round)
movel(pose_trans(f_name,p[0.00000,0.04895,0.12835,-0.00000,-1.57080,0.00000]), a=accel, v=vel, t=0, r=round)
movel(pose_trans(f_name,p[0.00000,0.04849,0.12619,-0.00000,-1.57080,0.00000]), a=accel, v=vel, t=0, r=round)
movel(pose_trans(f_name,p[0.00000,0.04834,0.12370,-0.00000,-1.57080,0.00000]), a=accel, v=vel, t=0, r=round)
movel(pose_trans(f_name,p[0.00000,0.04833,0.12120,-0.00000,-1.57080,0.00000]), a=accel, v=vel, t=0, r=round)
movel(pose_trans(f_name,p[0.00000,0.04833,0.11870,-0.00000,-1.57080,0.00000]), a=accel, v=vel, t=0, r=round)
movel(pose_trans(f_name,p[0.00000,0.04840,0.11630,-0.00000,-1.57080,0.00000]), a=accel, v=vel, t=0, r=round)
movel(pose_trans(f_name,p[0.00000,0.04849,0.11479,-0.00000,-1.57080,0.00000]), a=accel, v=vel, t=0, r=round)
movel(pose_trans(f_name,p[0.00000,0.04899,0.11249,-0.00000,-1.57080,0.00000]), a=accel, v=vel, t=0, r=round)
movel(pose_trans(f_name,p[0.00000,0.04974,0.11011,-0.00000,-1.57080,0.00000]), a=accel, v=vel, t=0, r=round)
movel(pose_trans(f_name,p[0.00000,0.05062,0.10777,-0.00000,-1.57080,0.00000]), a=accel, v=vel, t=0, r=round)
movel(pose_trans(f_name,p[0.00000,0.05135,0.10608,-0.00000,-1.57080,0.00000]), a=accel, v=vel, t=0, r=round)
set_digital_out(0, False)
movel(pose_trans(f_name,p[-0.00200,0.05135,0.10608,-0.00000,-1.57080,0.00000]), a=accel, v=vel, t=0, r=round)
movel(pose_trans(f_name,p[-0.02000,0.05135,0.10608,-0.00000,-1.57080,0.00000]), a=accel, v=vel, t=0, r=round)
movel(pose_trans(f_name,p[-0.02000,0.05951,0.11066,-0.00000,-1.57080,0.00000]), a=accel, v=vel, t=0, r=round)
movel(pose_trans(f_name,p[-0.00200,0.05951,0.11066,-0.00000,-1.57080,0.00000]), a=accel, v=vel, t=0, r=round)
set_digital_out(0, True)
movel(pose_trans(f_name,p[0.00000,0.05951,0.11066,-0.00000,-1.57080,0.00000]), a=accel, v=vel, t=0, r=round)
movel(pose_trans(f_name,p[0.00000,0.06064,0.10843,-0.00000,-1.57080,0.00000]), a=accel, v=vel, t=0, r=round)
movel(pose_trans(f_name,p[0.00000,0.06161,0.10689,-0.00000,-1.57080,0.00000]), a=accel, v=vel, t=0, r=round)
movel(pose_trans(f_name,p[0.00000,0.06235,0.10587,-0.00000,-1.57080,0.00000]), a=accel, v=vel, t=0, r=round)
movel(pose_trans(f_name,p[0.00000,0.06402,0.10402,-0.00000,-1.57080,0.00000]), a=accel, v=vel, t=0, r=round)
movel(pose_trans(f_name,p[0.00000,0.06488,0.10307,-0.00000,-1.57080,0.00000]), a=accel, v=vel, t=0, r=round)
movel(pose_trans(f_name,p[0.00000,0.06680,0.10146,-0.00000,-1.57080,0.00000]), a=accel, v=vel, t=0, r=round)
movel(pose_trans(f_name,p[0.00000,0.06777,0.10065,-0.00000,-1.57080,0.00000]), a=accel, v=vel, t=0, r=round)
movel(pose_trans(f_name,p[0.00000,0.06968,0.09943,-0.00000,-1.57080,0.00000]), a=accel, v=vel, t=0, r=round)
movel(pose_trans(f_name,p[0.00000,0.07119,0.09866,-0.00000,-1.57080,0.00000]), a=accel, v=vel, t=0, r=round)
movel(pose_trans(f_name,p[0.00000,0.07350,0.09770,-0.00000,-1.57080,0.00000]), a=accel, v=vel, t=0, r=round)
movel(pose_trans(f_name,p[0.00000,0.07588,0.09693,-0.00000,-1.57080,0.00000]), a=accel, v=vel, t=0, r=round)
movel(pose_trans(f_name,p[0.00000,0.07634,0.09678,-0.00000,-1.57080,0.00000]), a=accel, v=vel, t=0, r=round)
movel(pose_trans(f_name,p[0.00000,0.07882,0.09646,-0.00000,-1.57080,0.00000]), a=accel, v=vel, t=0, r=round)
movel(pose_trans(f_name,p[0.00000,0.07926,0.09641,-0.00000,-1.57080,0.00000]), a=accel, v=vel, t=0, r=round)
movel(pose_trans(f_name,p[0.00000,0.08176,0.09639,-0.00000,-1.57080,0.00000]), a=accel, v=vel, t=0, r=round)
movel(pose_trans(f_name,p[0.00000,0.08319,0.09642,-0.00000,-1.57080,0.00000]), a=accel, v=vel, t=0, r=round)
movel(pose_trans(f_name,p[0.00000,0.08568,0.09664,-0.00000,-1.57080,0.00000]), a=accel, v=vel, t=0, r=round)
movel(pose_trans(f_name,p[0.00000,0.08608,0.09668,-0.00000,-1.57080,0.00000]), a=accel, v=vel, t=0, r=round)
movel(pose_trans(f_name,p[0.00000,0.08852,0.09722,-0.00000,-1.57080,0.00000]), a=accel, v=vel, t=0, r=round)
movel(pose_trans(f_name,p[0.00000,0.08875,0.09728,-0.00000,-1.57080,0.00000]), a=accel, v=vel, t=0, r=round)
movel(pose_trans(f_name,p[0.00000,0.09106,0.09822,-0.00000,-1.57080,0.00000]), a=accel, v=vel, t=0, r=round)
movel(pose_trans(f_name,p[0.00000,0.09178,0.09851,-0.00000,-1.57080,0.00000]), a=accel, v=vel, t=0, r=round)
movel(pose_trans(f_name,p[0.00000,0.09397,0.09971,-0.00000,-1.57080,0.00000]), a=accel, v=vel, t=0, r=round)
movel(pose_trans(f_name,p[0.00000,0.09454,0.10002,-0.00000,-1.57080,0.00000]), a=accel, v=vel, t=0, r=round)
movel(pose_trans(f_name,p[0.00000,0.09657,0.10147,-0.00000,-1.57080,0.00000]), a=accel, v=vel, t=0, r=round)
movel(pose_trans(f_name,p[0.00000,0.09702,0.10179,-0.00000,-1.57080,0.00000]), a=accel, v=vel, t=0, r=round)
movel(pose_trans(f_name,p[0.00000,0.09887,0.10347,-0.00000,-1.57080,0.00000]), a=accel, v=vel, t=0, r=round)
movel(pose_trans(f_name,p[0.00000,0.09923,0.10381,-0.00000,-1.57080,0.00000]), a=accel, v=vel, t=0, r=round)
movel(pose_trans(f_name,p[0.00000,0.10085,0.10572,-0.00000,-1.57080,0.00000]), a=accel, v=vel, t=0, r=round)
movel(pose_trans(f_name,p[0.00000,0.10115,0.10608,-0.00000,-1.57080,0.00000]), a=accel, v=vel, t=0, r=round)
movel(pose_trans(f_name,p[0.00000,0.10251,0.10817,-0.00000,-1.57080,0.00000]), a=accel, v=vel, t=0, r=round)
movel(pose_trans(f_name,p[0.00000,0.10278,0.10858,-0.00000,-1.57080,0.00000]), a=accel, v=vel, t=0, r=round)
movel(pose_trans(f_name,p[0.00000,0.10386,0.11083,-0.00000,-1.57080,0.00000]), a=accel, v=vel, t=0, r=round)
movel(pose_trans(f_name,p[0.00000,0.10410,0.11132,-0.00000,-1.57080,0.00000]), a=accel, v=vel, t=0, r=round)
movel(pose_trans(f_name,p[0.00000,0.10491,0.11369,-0.00000,-1.57080,0.00000]), a=accel, v=vel, t=0, r=round)
movel(pose_trans(f_name,p[0.00000,0.10512,0.11428,-0.00000,-1.57080,0.00000]), a=accel, v=vel, t=0, r=round)
movel(pose_trans(f_name,p[0.00000,0.10555,0.11674,-0.00000,-1.57080,0.00000]), a=accel, v=vel, t=0, r=round)
movel(pose_trans(f_name,p[0.00000,0.10568,0.11749,-0.00000,-1.57080,0.00000]), a=accel, v=vel, t=0, r=round)
movel(pose_trans(f_name,p[0.00000,0.10577,0.11998,-0.00000,-1.57080,0.00000]), a=accel, v=vel, t=0, r=round)
movel(pose_trans(f_name,p[0.00000,0.10581,0.12111,-0.00000,-1.57080,0.00000]), a=accel, v=vel, t=0, r=round)
movel(pose_trans(f_name,p[0.00000,0.10559,0.12360,-0.00000,-1.57080,0.00000]), a=accel, v=vel, t=0, r=round)
movel(pose_trans(f_name,p[0.00000,0.10550,0.12469,-0.00000,-1.57080,0.00000]), a=accel, v=vel, t=0, r=round)
movel(pose_trans(f_name,p[0.00000,0.10493,0.12713,-0.00000,-1.57080,0.00000]), a=accel, v=vel, t=0, r=round)
movel(pose_trans(f_name,p[0.00000,0.10477,0.12779,-0.00000,-1.57080,0.00000]), a=accel, v=vel, t=0, r=round)
movel(pose_trans(f_name,p[0.00000,0.10383,0.13010,-0.00000,-1.57080,0.00000]), a=accel, v=vel, t=0, r=round)
movel(pose_trans(f_name,p[0.00000,0.10359,0.13069,-0.00000,-1.57080,0.00000]), a=accel, v=vel, t=0, r=round)
movel(pose_trans(f_name,p[0.00000,0.10239,0.13288,-0.00000,-1.57080,0.00000]), a=accel, v=vel, t=0, r=round)
movel(pose_trans(f_name,p[0.00000,0.10214,0.13335,-0.00000,-1.57080,0.00000]), a=accel, v=vel, t=0, r=round)
movel(pose_trans(f_name,p[0.00000,0.10069,0.13539,-0.00000,-1.57080,0.00000]), a=accel, v=vel, t=0, r=round)
movel(pose_trans(f_name,p[0.00000,0.10042,0.13576,-0.00000,-1.57080,0.00000]), a=accel, v=vel, t=0, r=round)
movel(pose_trans(f_name,p[0.00000,0.09873,0.13761,-0.00000,-1.57080,0.00000]), a=accel, v=vel, t=0, r=round)
movel(pose_trans(f_name,p[0.00000,0.09845,0.13792,-0.00000,-1.57080,0.00000]), a=accel, v=vel, t=0, r=round)
movel(pose_trans(f_name,p[0.00000,0.09655,0.13954,-0.00000,-1.57080,0.00000]), a=accel, v=vel, t=0, r=round)
movel(pose_trans(f_name,p[0.00000,0.09623,0.13981,-0.00000,-1.57080,0.00000]), a=accel, v=vel, t=0, r=round)
movel(pose_trans(f_name,p[0.00000,0.09415,0.14119,-0.00000,-1.57080,0.00000]), a=accel, v=vel, t=0, r=round)
movel(pose_trans(f_name,p[0.00000,0.09378,0.14144,-0.00000,-1.57080,0.00000]), a=accel, v=vel, t=0, r=round)
movel(pose_trans(f_name,p[0.00000,0.09155,0.14256,-0.00000,-1.57080,0.00000]), a=accel, v=vel, t=0, r=round)
movel(pose_trans(f_name,p[0.00000,0.09109,0.14278,-0.00000,-1.57080,0.00000]), a=accel, v=vel, t=0, r=round)
movel(pose_trans(f_name,p[0.00000,0.08875,0.14364,-0.00000,-1.57080,0.00000]), a=accel, v=vel, t=0, r=round)
movel(pose_trans(f_name,p[0.00000,0.08818,0.14385,-0.00000,-1.57080,0.00000]), a=accel, v=vel, t=0, r=round)
movel(pose_trans(f_name,p[0.00000,0.08573,0.14430,-0.00000,-1.57080,0.00000]), a=accel, v=vel, t=0, r=round)
movel(pose_trans(f_name,p[0.00000,0.08513,0.14441,-0.00000,-1.57080,0.00000]), a=accel, v=vel, t=0, r=round)
movel(pose_trans(f_name,p[0.00000,0.08263,0.14452,-0.00000,-1.57080,0.00000]), a=accel, v=vel, t=0, r=round)
movel(pose_trans(f_name,p[0.00000,0.08145,0.14457,-0.00000,-1.57080,0.00000]), a=accel, v=vel, t=0, r=round)
movel(pose_trans(f_name,p[0.00000,0.07895,0.14441,-0.00000,-1.57080,0.00000]), a=accel, v=vel, t=0, r=round)
movel(pose_trans(f_name,p[0.00000,0.07776,0.14434,-0.00000,-1.57080,0.00000]), a=accel, v=vel, t=0, r=round)
movel(pose_trans(f_name,p[0.00000,0.07531,0.14384,-0.00000,-1.57080,0.00000]), a=accel, v=vel, t=0, r=round)
movel(pose_trans(f_name,p[0.00000,0.07469,0.14371,-0.00000,-1.57080,0.00000]), a=accel, v=vel, t=0, r=round)
movel(pose_trans(f_name,p[0.00000,0.07235,0.14283,-0.00000,-1.57080,0.00000]), a=accel, v=vel, t=0, r=round)
movel(pose_trans(f_name,p[0.00000,0.07182,0.14263,-0.00000,-1.57080,0.00000]), a=accel, v=vel, t=0, r=round)
movel(pose_trans(f_name,p[0.00000,0.06960,0.14147,-0.00000,-1.57080,0.00000]), a=accel, v=vel, t=0, r=round)
movel(pose_trans(f_name,p[0.00000,0.06928,0.14131,-0.00000,-1.57080,0.00000]), a=accel, v=vel, t=0, r=round)
movel(pose_trans(f_name,p[0.00000,0.06723,0.13987,-0.00000,-1.57080,0.00000]), a=accel, v=vel, t=0, r=round)
movel(pose_trans(f_name,p[0.00000,0.06693,0.13966,-0.00000,-1.57080,0.00000]), a=accel, v=vel, t=0, r=round)
movel(pose_trans(f_name,p[0.00000,0.06507,0.13799,-0.00000,-1.57080,0.00000]), a=accel, v=vel, t=0, r=round)
movel(pose_trans(f_name,p[0.00000,0.06332,0.13620,-0.00000,-1.57080,0.00000]), a=accel, v=vel, t=0, r=round)
movel(pose_trans(f_name,p[0.00000,0.06179,0.13422,-0.00000,-1.57080,0.00000]), a=accel, v=vel, t=0, r=round)
movel(pose_trans(f_name,p[0.00000,0.06064,0.13242,-0.00000,-1.57080,0.00000]), a=accel, v=vel, t=0, r=round)
movel(pose_trans(f_name,p[0.00000,0.05974,0.13070,-0.00000,-1.57080,0.00000]), a=accel, v=vel, t=0, r=round)
movel(pose_trans(f_name,p[0.00000,0.05901,0.12901,-0.00000,-1.57080,0.00000]), a=accel, v=vel, t=0, r=round)
movel(pose_trans(f_name,p[0.00000,0.05840,0.12718,-0.00000,-1.57080,0.00000]), a=accel, v=vel, t=0, r=round)
movel(pose_trans(f_name,p[0.00000,0.05793,0.12530,-0.00000,-1.57080,0.00000]), a=accel, v=vel, t=0, r=round)
movel(pose_trans(f_name,p[0.00000,0.05762,0.12339,-0.00000,-1.57080,0.00000]), a=accel, v=vel, t=0, r=round)
movel(pose_trans(f_name,p[0.00000,0.05747,0.12156,-0.00000,-1.57080,0.00000]), a=accel, v=vel, t=0, r=round)
movel(pose_trans(f_name,p[0.00000,0.05747,0.11962,-0.00000,-1.57080,0.00000]), a=accel, v=vel, t=0, r=round)
movel(pose_trans(f_name,p[0.00000,0.05761,0.11770,-0.00000,-1.57080,0.00000]), a=accel, v=vel, t=0, r=round)
movel(pose_trans(f_name,p[0.00000,0.05792,0.11579,-0.00000,-1.57080,0.00000]), a=accel, v=vel, t=0, r=round)
movel(pose_trans(f_name,p[0.00000,0.05837,0.11391,-0.00000,-1.57080,0.00000]), a=accel, v=vel, t=0, r=round)
movel(pose_trans(f_name,p[0.00000,0.05899,0.11198,-0.00000,-1.57080,0.00000]), a=accel, v=vel, t=0, r=round)
movel(pose_trans(f_name,p[0.00000,0.05951,0.11066,-0.00000,-1.57080,0.00000]), a=accel, v=vel, t=0, r=round)
movel(pose_trans(f_name,p[0.00000,0.06200,0.11232,-0.00000,-1.57080,0.00000]), a=accel, v=vel, t=0, r=round)
movel(pose_trans(f_name,p[0.00000,0.06313,0.11009,-0.00000,-1.57080,0.00000]), a=accel, v=vel, t=0, r=round)
movel(pose_trans(f_name,p[0.00000,0.06422,0.10839,-0.00000,-1.57080,0.00000]), a=accel, v=vel, t=0, r=round)
movel(pose_trans(f_name,p[0.00000,0.06555,0.10671,-0.00000,-1.57080,0.00000]), a=accel, v=vel, t=0, r=round)
movel(pose_trans(f_name,p[0.00000,0.06709,0.10511,-0.00000,-1.57080,0.00000]), a=accel, v=vel, t=0, r=round)
movel(pose_trans(f_name,p[0.00000,0.06876,0.10363,-0.00000,-1.57080,0.00000]), a=accel, v=vel, t=0, r=round)
movel(pose_trans(f_name,p[0.00000,0.07083,0.10222,-0.00000,-1.57080,0.00000]), a=accel, v=vel, t=0, r=round)
movel(pose_trans(f_name,p[0.00000,0.07097,0.10212,-0.00000,-1.57080,0.00000]), a=accel, v=vel, t=0, r=round)
movel(pose_trans(f_name,p[0.00000,0.07319,0.10099,-0.00000,-1.57080,0.00000]), a=accel, v=vel, t=0, r=round)
movel(pose_trans(f_name,p[0.00000,0.07336,0.10090,-0.00000,-1.57080,0.00000]), a=accel, v=vel, t=0, r=round)
movel(pose_trans(f_name,p[0.00000,0.07571,0.10005,-0.00000,-1.57080,0.00000]), a=accel, v=vel, t=0, r=round)
movel(pose_trans(f_name,p[0.00000,0.07595,0.09996,-0.00000,-1.57080,0.00000]), a=accel, v=vel, t=0, r=round)
movel(pose_trans(f_name,p[0.00000,0.07841,0.09952,-0.00000,-1.57080,0.00000]), a=accel, v=vel, t=0, r=round)
movel(pose_trans(f_name,p[0.00000,0.07894,0.09942,-0.00000,-1.57080,0.00000]), a=accel, v=vel, t=0, r=round)
movel(pose_trans(f_name,p[0.00000,0.08144,0.09936,-0.00000,-1.57080,0.00000]), a=accel, v=vel, t=0, r=round)
movel(pose_trans(f_name,p[0.00000,0.08238,0.09933,-0.00000,-1.57080,0.00000]), a=accel, v=vel, t=0, r=round)
movel(pose_trans(f_name,p[0.00000,0.08486,0.09959,-0.00000,-1.57080,0.00000]), a=accel, v=vel, t=0, r=round)
movel(pose_trans(f_name,p[0.00000,0.08584,0.09969,-0.00000,-1.57080,0.00000]), a=accel, v=vel, t=0, r=round)
movel(pose_trans(f_name,p[0.00000,0.08826,0.10032,-0.00000,-1.57080,0.00000]), a=accel, v=vel, t=0, r=round)
movel(pose_trans(f_name,p[0.00000,0.08889,0.10048,-0.00000,-1.57080,0.00000]), a=accel, v=vel, t=0, r=round)
movel(pose_trans(f_name,p[0.00000,0.09118,0.10147,-0.00000,-1.57080,0.00000]), a=accel, v=vel, t=0, r=round)
movel(pose_trans(f_name,p[0.00000,0.09331,0.10270,-0.00000,-1.57080,0.00000]), a=accel, v=vel, t=0, r=round)
movel(pose_trans(f_name,p[0.00000,0.09525,0.10416,-0.00000,-1.57080,0.00000]), a=accel, v=vel, t=0, r=round)
movel(pose_trans(f_name,p[0.00000,0.09702,0.10585,-0.00000,-1.57080,0.00000]), a=accel, v=vel, t=0, r=round)
movel(pose_trans(f_name,p[0.00000,0.09860,0.10774,-0.00000,-1.57080,0.00000]), a=accel, v=vel, t=0, r=round)
movel(pose_trans(f_name,p[0.00000,0.09997,0.10983,-0.00000,-1.57080,0.00000]), a=accel, v=vel, t=0, r=round)
movel(pose_trans(f_name,p[0.00000,0.10111,0.11208,-0.00000,-1.57080,0.00000]), a=accel, v=vel, t=0, r=round)
movel(pose_trans(f_name,p[0.00000,0.10203,0.11440,-0.00000,-1.57080,0.00000]), a=accel, v=vel, t=0, r=round)
movel(pose_trans(f_name,p[0.00000,0.10212,0.11466,-0.00000,-1.57080,0.00000]), a=accel, v=vel, t=0, r=round)
movel(pose_trans(f_name,p[0.00000,0.10264,0.11710,-0.00000,-1.57080,0.00000]), a=accel, v=vel, t=0, r=round)
movel(pose_trans(f_name,p[0.00000,0.10265,0.11713,-0.00000,-1.57080,0.00000]), a=accel, v=vel, t=0, r=round)
movel(pose_trans(f_name,p[0.00000,0.10277,0.11963,-0.00000,-1.57080,0.00000]), a=accel, v=vel, t=0, r=round)
movel(pose_trans(f_name,p[0.00000,0.10279,0.12098,-0.00000,-1.57080,0.00000]), a=accel, v=vel, t=0, r=round)
movel(pose_trans(f_name,p[0.00000,0.10267,0.12347,-0.00000,-1.57080,0.00000]), a=accel, v=vel, t=0, r=round)
movel(pose_trans(f_name,p[0.00000,0.10265,0.12385,-0.00000,-1.57080,0.00000]), a=accel, v=vel, t=0, r=round)
movel(pose_trans(f_name,p[0.00000,0.10213,0.12630,-0.00000,-1.57080,0.00000]), a=accel, v=vel, t=0, r=round)
movel(pose_trans(f_name,p[0.00000,0.10212,0.12632,-0.00000,-1.57080,0.00000]), a=accel, v=vel, t=0, r=round)
movel(pose_trans(f_name,p[0.00000,0.10116,0.12863,-0.00000,-1.57080,0.00000]), a=accel, v=vel, t=0, r=round)
movel(pose_trans(f_name,p[0.00000,0.10065,0.12984,-0.00000,-1.57080,0.00000]), a=accel, v=vel, t=0, r=round)
movel(pose_trans(f_name,p[0.00000,0.09934,0.13197,-0.00000,-1.57080,0.00000]), a=accel, v=vel, t=0, r=round)
movel(pose_trans(f_name,p[0.00000,0.09872,0.13297,-0.00000,-1.57080,0.00000]), a=accel, v=vel, t=0, r=round)
movel(pose_trans(f_name,p[0.00000,0.09709,0.13486,-0.00000,-1.57080,0.00000]), a=accel, v=vel, t=0, r=round)
movel(pose_trans(f_name,p[0.00000,0.09639,0.13568,-0.00000,-1.57080,0.00000]), a=accel, v=vel, t=0, r=round)
movel(pose_trans(f_name,p[0.00000,0.09448,0.13728,-0.00000,-1.57080,0.00000]), a=accel, v=vel, t=0, r=round)
movel(pose_trans(f_name,p[0.00000,0.09371,0.13793,-0.00000,-1.57080,0.00000]), a=accel, v=vel, t=0, r=round)
movel(pose_trans(f_name,p[0.00000,0.09156,0.13919,-0.00000,-1.57080,0.00000]), a=accel, v=vel, t=0, r=round)
movel(pose_trans(f_name,p[0.00000,0.09072,0.13968,-0.00000,-1.57080,0.00000]), a=accel, v=vel, t=0, r=round)
movel(pose_trans(f_name,p[0.00000,0.08839,0.14057,-0.00000,-1.57080,0.00000]), a=accel, v=vel, t=0, r=round)
movel(pose_trans(f_name,p[0.00000,0.08749,0.14091,-0.00000,-1.57080,0.00000]), a=accel, v=vel, t=0, r=round)
movel(pose_trans(f_name,p[0.00000,0.08528,0.14139,-0.00000,-1.57080,0.00000]), a=accel, v=vel, t=0, r=round)
movel(pose_trans(f_name,p[0.00000,0.08356,0.14160,-0.00000,-1.57080,0.00000]), a=accel, v=vel, t=0, r=round)
movel(pose_trans(f_name,p[0.00000,0.08173,0.14166,-0.00000,-1.57080,0.00000]), a=accel, v=vel, t=0, r=round)
movel(pose_trans(f_name,p[0.00000,0.07983,0.14156,-0.00000,-1.57080,0.00000]), a=accel, v=vel, t=0, r=round)
movel(pose_trans(f_name,p[0.00000,0.07790,0.14131,-0.00000,-1.57080,0.00000]), a=accel, v=vel, t=0, r=round)
movel(pose_trans(f_name,p[0.00000,0.07600,0.14090,-0.00000,-1.57080,0.00000]), a=accel, v=vel, t=0, r=round)
movel(pose_trans(f_name,p[0.00000,0.07423,0.14036,-0.00000,-1.57080,0.00000]), a=accel, v=vel, t=0, r=round)
movel(pose_trans(f_name,p[0.00000,0.07253,0.13967,-0.00000,-1.57080,0.00000]), a=accel, v=vel, t=0, r=round)
movel(pose_trans(f_name,p[0.00000,0.07082,0.13876,-0.00000,-1.57080,0.00000]), a=accel, v=vel, t=0, r=round)
movel(pose_trans(f_name,p[0.00000,0.06929,0.13775,-0.00000,-1.57080,0.00000]), a=accel, v=vel, t=0, r=round)
movel(pose_trans(f_name,p[0.00000,0.06780,0.13654,-0.00000,-1.57080,0.00000]), a=accel, v=vel, t=0, r=round)
movel(pose_trans(f_name,p[0.00000,0.06644,0.13523,-0.00000,-1.57080,0.00000]), a=accel, v=vel, t=0, r=round)
movel(pose_trans(f_name,p[0.00000,0.06501,0.13362,-0.00000,-1.57080,0.00000]), a=accel, v=vel, t=0, r=round)
movel(pose_trans(f_name,p[0.00000,0.06374,0.13188,-0.00000,-1.57080,0.00000]), a=accel, v=vel, t=0, r=round)
movel(pose_trans(f_name,p[0.00000,0.06270,0.13012,-0.00000,-1.57080,0.00000]), a=accel, v=vel, t=0, r=round)
movel(pose_trans(f_name,p[0.00000,0.06201,0.12868,-0.00000,-1.57080,0.00000]), a=accel, v=vel, t=0, r=round)
movel(pose_trans(f_name,p[0.00000,0.06132,0.12677,-0.00000,-1.57080,0.00000]), a=accel, v=vel, t=0, r=round)
movel(pose_trans(f_name,p[0.00000,0.06078,0.12433,-0.00000,-1.57080,0.00000]), a=accel, v=vel, t=0, r=round)
movel(pose_trans(f_name,p[0.00000,0.06053,0.12221,-0.00000,-1.57080,0.00000]), a=accel, v=vel, t=0, r=round)
movel(pose_trans(f_name,p[0.00000,0.06048,0.11995,-0.00000,-1.57080,0.00000]), a=accel, v=vel, t=0, r=round)
movel(pose_trans(f_name,p[0.00000,0.06062,0.11781,-0.00000,-1.57080,0.00000]), a=accel, v=vel, t=0, r=round)
movel(pose_trans(f_name,p[0.00000,0.06094,0.11579,-0.00000,-1.57080,0.00000]), a=accel, v=vel, t=0, r=round)
movel(pose_trans(f_name,p[0.00000,0.06147,0.11381,-0.00000,-1.57080,0.00000]), a=accel, v=vel, t=0, r=round)
movel(pose_trans(f_name,p[0.00000,0.06200,0.11232,-0.00000,-1.57080,0.00000]), a=accel, v=vel, t=0, r=round)
set_digital_out(0, False)
movel(pose_trans(f_name,p[-0.00200,0.06200,0.11232,-0.00000,-1.57080,0.00000]), a=accel, v=vel, t=0, r=round)
movel(pose_trans(f_name,p[-0.02000,0.06200,0.11232,-0.00000,-1.57080,0.00000]), a=accel, v=vel, t=0, r=round)
movel(pose_trans(f_name,p[-0.02000,0.08861,0.08465,-0.00000,-1.57080,0.00000]), a=accel, v=vel, t=0, r=round)
movel(pose_trans(f_name,p[-0.00200,0.08861,0.08465,-0.00000,-1.57080,0.00000]), a=accel, v=vel, t=0, r=round)
set_digital_out(0, True)
movel(pose_trans(f_name,p[0.00000,0.08861,0.08465,-0.00000,-1.57080,0.00000]), a=accel, v=vel, t=0, r=round)
movel(pose_trans(f_name,p[0.00000,0.08888,0.08418,-0.00000,-1.57080,0.00000]), a=accel, v=vel, t=0, r=round)
movel(pose_trans(f_name,p[0.00000,0.09055,0.08231,-0.00000,-1.57080,0.00000]), a=accel, v=vel, t=0, r=round)
movel(pose_trans(f_name,p[0.00000,0.09228,0.08051,-0.00000,-1.57080,0.00000]), a=accel, v=vel, t=0, r=round)
movel(pose_trans(f_name,p[0.00000,0.09403,0.07873,-0.00000,-1.57080,0.00000]), a=accel, v=vel, t=0, r=round)
movel(pose_trans(f_name,p[0.00000,0.09584,0.07700,-0.00000,-1.57080,0.00000]), a=accel, v=vel, t=0, r=round)
movel(pose_trans(f_name,p[0.00000,0.09727,0.07567,-0.00000,-1.57080,0.00000]), a=accel, v=vel, t=0, r=round)
movel(pose_trans(f_name,p[0.00000,0.09879,0.07448,-0.00000,-1.57080,0.00000]), a=accel, v=vel, t=0, r=round)
movel(pose_trans(f_name,p[0.00000,0.10059,0.07621,-0.00000,-1.57080,0.00000]), a=accel, v=vel, t=0, r=round)
movel(pose_trans(f_name,p[0.00000,0.10239,0.07794,-0.00000,-1.57080,0.00000]), a=accel, v=vel, t=0, r=round)
movel(pose_trans(f_name,p[0.00000,0.10418,0.07970,-0.00000,-1.57080,0.00000]), a=accel, v=vel, t=0, r=round)
movel(pose_trans(f_name,p[0.00000,0.10594,0.08147,-0.00000,-1.57080,0.00000]), a=accel, v=vel, t=0, r=round)
movel(pose_trans(f_name,p[0.00000,0.10770,0.08324,-0.00000,-1.57080,0.00000]), a=accel, v=vel, t=0, r=round)
movel(pose_trans(f_name,p[0.00000,0.10947,0.08501,-0.00000,-1.57080,0.00000]), a=accel, v=vel, t=0, r=round)
movel(pose_trans(f_name,p[0.00000,0.11123,0.08679,-0.00000,-1.57080,0.00000]), a=accel, v=vel, t=0, r=round)
movel(pose_trans(f_name,p[0.00000,0.11299,0.08856,-0.00000,-1.57080,0.00000]), a=accel, v=vel, t=0, r=round)
movel(pose_trans(f_name,p[0.00000,0.11475,0.09033,-0.00000,-1.57080,0.00000]), a=accel, v=vel, t=0, r=round)
movel(pose_trans(f_name,p[0.00000,0.11650,0.09212,-0.00000,-1.57080,0.00000]), a=accel, v=vel, t=0, r=round)
movel(pose_trans(f_name,p[0.00000,0.11825,0.09390,-0.00000,-1.57080,0.00000]), a=accel, v=vel, t=0, r=round)
movel(pose_trans(f_name,p[0.00000,0.12001,0.09568,-0.00000,-1.57080,0.00000]), a=accel, v=vel, t=0, r=round)
movel(pose_trans(f_name,p[0.00000,0.12176,0.09746,-0.00000,-1.57080,0.00000]), a=accel, v=vel, t=0, r=round)
movel(pose_trans(f_name,p[0.00000,0.12351,0.09924,-0.00000,-1.57080,0.00000]), a=accel, v=vel, t=0, r=round)
movel(pose_trans(f_name,p[0.00000,0.12527,0.10102,-0.00000,-1.57080,0.00000]), a=accel, v=vel, t=0, r=round)
movel(pose_trans(f_name,p[0.00000,0.12702,0.10280,-0.00000,-1.57080,0.00000]), a=accel, v=vel, t=0, r=round)
movel(pose_trans(f_name,p[0.00000,0.12801,0.10380,-0.00000,-1.57080,0.00000]), a=accel, v=vel, t=0, r=round)
movel(pose_trans(f_name,p[0.00000,0.12624,0.10557,-0.00000,-1.57080,0.00000]), a=accel, v=vel, t=0, r=round)
movel(pose_trans(f_name,p[0.00000,0.12447,0.10734,-0.00000,-1.57080,0.00000]), a=accel, v=vel, t=0, r=round)
movel(pose_trans(f_name,p[0.00000,0.12270,0.10910,-0.00000,-1.57080,0.00000]), a=accel, v=vel, t=0, r=round)
movel(pose_trans(f_name,p[0.00000,0.12090,0.11083,-0.00000,-1.57080,0.00000]), a=accel, v=vel, t=0, r=round)
movel(pose_trans(f_name,p[0.00000,0.11909,0.11256,-0.00000,-1.57080,0.00000]), a=accel, v=vel, t=0, r=round)
movel(pose_trans(f_name,p[0.00000,0.11769,0.11391,-0.00000,-1.57080,0.00000]), a=accel, v=vel, t=0, r=round)
movel(pose_trans(f_name,p[0.00000,0.11722,0.11288,-0.00000,-1.57080,0.00000]), a=accel, v=vel, t=0, r=round)
movel(pose_trans(f_name,p[0.00000,0.11645,0.11051,-0.00000,-1.57080,0.00000]), a=accel, v=vel, t=0, r=round)
movel(pose_trans(f_name,p[0.00000,0.11558,0.10816,-0.00000,-1.57080,0.00000]), a=accel, v=vel, t=0, r=round)
movel(pose_trans(f_name,p[0.00000,0.11486,0.10621,-0.00000,-1.57080,0.00000]), a=accel, v=vel, t=0, r=round)
movel(pose_trans(f_name,p[0.00000,0.11370,0.10399,-0.00000,-1.57080,0.00000]), a=accel, v=vel, t=0, r=round)
movel(pose_trans(f_name,p[0.00000,0.11277,0.10221,-0.00000,-1.57080,0.00000]), a=accel, v=vel, t=0, r=round)
movel(pose_trans(f_name,p[0.00000,0.11136,0.10015,-0.00000,-1.57080,0.00000]), a=accel, v=vel, t=0, r=round)
movel(pose_trans(f_name,p[0.00000,0.11021,0.09849,-0.00000,-1.57080,0.00000]), a=accel, v=vel, t=0, r=round)
movel(pose_trans(f_name,p[0.00000,0.10856,0.09661,-0.00000,-1.57080,0.00000]), a=accel, v=vel, t=0, r=round)
movel(pose_trans(f_name,p[0.00000,0.10723,0.09510,-0.00000,-1.57080,0.00000]), a=accel, v=vel, t=0, r=round)
movel(pose_trans(f_name,p[0.00000,0.10538,0.09342,-0.00000,-1.57080,0.00000]), a=accel, v=vel, t=0, r=round)
movel(pose_trans(f_name,p[0.00000,0.10388,0.09208,-0.00000,-1.57080,0.00000]), a=accel, v=vel, t=0, r=round)
movel(pose_trans(f_name,p[0.00000,0.10184,0.09064,-0.00000,-1.57080,0.00000]), a=accel, v=vel, t=0, r=round)
movel(pose_trans(f_name,p[0.00000,0.10022,0.08949,-0.00000,-1.57080,0.00000]), a=accel, v=vel, t=0, r=round)
movel(pose_trans(f_name,p[0.00000,0.09801,0.08831,-0.00000,-1.57080,0.00000]), a=accel, v=vel, t=0, r=round)
movel(pose_trans(f_name,p[0.00000,0.09628,0.08739,-0.00000,-1.57080,0.00000]), a=accel, v=vel, t=0, r=round)
movel(pose_trans(f_name,p[0.00000,0.09395,0.08650,-0.00000,-1.57080,0.00000]), a=accel, v=vel, t=0, r=round)
movel(pose_trans(f_name,p[0.00000,0.09160,0.08564,-0.00000,-1.57080,0.00000]), a=accel, v=vel, t=0, r=round)
movel(pose_trans(f_name,p[0.00000,0.08923,0.08485,-0.00000,-1.57080,0.00000]), a=accel, v=vel, t=0, r=round)
movel(pose_trans(f_name,p[0.00000,0.08861,0.08465,-0.00000,-1.57080,0.00000]), a=accel, v=vel, t=0, r=round)
set_digital_out(0, False)
movel(pose_trans(f_name,p[-0.00200,0.08861,0.08465,-0.00000,-1.57080,0.00000]), a=accel, v=vel, t=0, r=round)
movel(pose_trans(f_name,p[-0.02000,0.08861,0.08465,-0.00000,-1.57080,0.00000]), a=accel, v=vel, t=0, r=round)
movel(pose_trans(f_name,p[-0.02000,0.01681,-0.06060,-0.00000,-1.57080,0.00000]), a=accel, v=vel, t=0, r=round)
movel(pose_trans(f_name,p[-0.00200,0.01681,-0.06060,-0.00000,-1.57080,0.00000]), a=accel, v=vel, t=0, r=round)
set_digital_out(0, True)
movel(pose_trans(f_name,p[0.00000,0.01681,-0.06060,-0.00000,-1.57080,0.00000]), a=accel, v=vel, t=0, r=round)
movel(pose_trans(f_name,p[0.00000,0.01447,-0.05972,-0.00000,-1.57080,0.00000]), a=accel, v=vel, t=0, r=round)
movel(pose_trans(f_name,p[0.00000,0.01299,-0.05921,-0.00000,-1.57080,0.00000]), a=accel, v=vel, t=0, r=round)
movel(pose_trans(f_name,p[0.00000,0.01159,-0.05879,-0.00000,-1.57080,0.00000]), a=accel, v=vel, t=0, r=round)
movel(pose_trans(f_name,p[0.00000,0.00984,-0.05848,-0.00000,-1.57080,0.00000]), a=accel, v=vel, t=0, r=round)
movel(pose_trans(f_name,p[0.00000,0.00735,-0.05833,-0.00000,-1.57080,0.00000]), a=accel, v=vel, t=0, r=round)
movel(pose_trans(f_name,p[0.00000,0.00485,-0.05829,-0.00000,-1.57080,0.00000]), a=accel, v=vel, t=0, r=round)
movel(pose_trans(f_name,p[0.00000,0.00235,-0.05833,-0.00000,-1.57080,0.00000]), a=accel, v=vel, t=0, r=round)
movel(pose_trans(f_name,p[0.00000,-0.00015,-0.05838,-0.00000,-1.57080,0.00000]), a=accel, v=vel, t=0, r=round)
movel(pose_trans(f_name,p[0.00000,-0.00127,-0.05841,-0.00000,-1.57080,0.00000]), a=accel, v=vel, t=0, r=round)
movel(pose_trans(f_name,p[0.00000,-0.00348,-0.05878,-0.00000,-1.57080,0.00000]), a=accel, v=vel, t=0, r=round)
movel(pose_trans(f_name,p[0.00000,-0.00575,-0.05941,-0.00000,-1.57080,0.00000]), a=accel, v=vel, t=0, r=round)
movel(pose_trans(f_name,p[0.00000,-0.00799,-0.06018,-0.00000,-1.57080,0.00000]), a=accel, v=vel, t=0, r=round)
movel(pose_trans(f_name,p[0.00000,-0.01029,-0.06117,-0.00000,-1.57080,0.00000]), a=accel, v=vel, t=0, r=round)
movel(pose_trans(f_name,p[0.00000,-0.01251,-0.06232,-0.00000,-1.57080,0.00000]), a=accel, v=vel, t=0, r=round)
movel(pose_trans(f_name,p[0.00000,-0.01454,-0.06356,-0.00000,-1.57080,0.00000]), a=accel, v=vel, t=0, r=round)
movel(pose_trans(f_name,p[0.00000,-0.01657,-0.06501,-0.00000,-1.57080,0.00000]), a=accel, v=vel, t=0, r=round)
movel(pose_trans(f_name,p[0.00000,-0.01848,-0.06661,-0.00000,-1.57080,0.00000]), a=accel, v=vel, t=0, r=round)
movel(pose_trans(f_name,p[0.00000,-0.02020,-0.06826,-0.00000,-1.57080,0.00000]), a=accel, v=vel, t=0, r=round)
movel(pose_trans(f_name,p[0.00000,-0.02186,-0.07013,-0.00000,-1.57080,0.00000]), a=accel, v=vel, t=0, r=round)
movel(pose_trans(f_name,p[0.00000,-0.02332,-0.07200,-0.00000,-1.57080,0.00000]), a=accel, v=vel, t=0, r=round)
movel(pose_trans(f_name,p[0.00000,-0.02470,-0.07408,-0.00000,-1.57080,0.00000]), a=accel, v=vel, t=0, r=round)
movel(pose_trans(f_name,p[0.00000,-0.02587,-0.07615,-0.00000,-1.57080,0.00000]), a=accel, v=vel, t=0, r=round)
movel(pose_trans(f_name,p[0.00000,-0.02693,-0.07841,-0.00000,-1.57080,0.00000]), a=accel, v=vel, t=0, r=round)
movel(pose_trans(f_name,p[0.00000,-0.02783,-0.08074,-0.00000,-1.57080,0.00000]), a=accel, v=vel, t=0, r=round)
movel(pose_trans(f_name,p[0.00000,-0.02853,-0.08302,-0.00000,-1.57080,0.00000]), a=accel, v=vel, t=0, r=round)
movel(pose_trans(f_name,p[0.00000,-0.02908,-0.08545,-0.00000,-1.57080,0.00000]), a=accel, v=vel, t=0, r=round)
movel(pose_trans(f_name,p[0.00000,-0.02944,-0.08793,-0.00000,-1.57080,0.00000]), a=accel, v=vel, t=0, r=round)
movel(pose_trans(f_name,p[0.00000,-0.02960,-0.09042,-0.00000,-1.57080,0.00000]), a=accel, v=vel, t=0, r=round)
movel(pose_trans(f_name,p[0.00000,-0.02967,-0.09155,-0.00000,-1.57080,0.00000]), a=accel, v=vel, t=0, r=round)
