accel=0.5
vel=0.04
round=0.001
f_name=Paint

movel(pose_trans(f_name,p[-0.02000,-0.34587,0.07633,-0.00000,-1.57080,0.00000]), a=accel, v=vel, t=0, r=round)
movel(pose_trans(f_name,p[-0.00200,-0.34587,0.07633,-0.00000,-1.57080,0.00000]), a=accel, v=vel, t=0, r=round)
set_digital_out(0, True)
movel(pose_trans(f_name,p[0.00000,-0.34587,0.07633,-0.00000,-1.57080,0.00000]), a=accel, v=vel, t=0, r=round)
movel(pose_trans(f_name,p[0.00000,-0.34587,0.07383,-0.00000,-1.57080,0.00000]), a=accel, v=vel, t=0, r=round)
movel(pose_trans(f_name,p[0.00000,-0.34587,0.07133,-0.00000,-1.57080,0.00000]), a=accel, v=vel, t=0, r=round)
movel(pose_trans(f_name,p[0.00000,-0.34587,0.06883,-0.00000,-1.57080,0.00000]), a=accel, v=vel, t=0, r=round)
movel(pose_trans(f_name,p[0.00000,-0.34587,0.06633,-0.00000,-1.57080,0.00000]), a=accel, v=vel, t=0, r=round)
movel(pose_trans(f_name,p[0.00000,-0.34587,0.06383,-0.00000,-1.57080,0.00000]), a=accel, v=vel, t=0, r=round)
movel(pose_trans(f_name,p[0.00000,-0.34587,0.06133,-0.00000,-1.57080,0.00000]), a=accel, v=vel, t=0, r=round)
movel(pose_trans(f_name,p[0.00000,-0.34587,0.05883,-0.00000,-1.57080,0.00000]), a=accel, v=vel, t=0, r=round)
movel(pose_trans(f_name,p[0.00000,-0.34587,0.05633,-0.00000,-1.57080,0.00000]), a=accel, v=vel, t=0, r=round)
movel(pose_trans(f_name,p[0.00000,-0.34587,0.05383,-0.00000,-1.57080,0.00000]), a=accel, v=vel, t=0, r=round)
movel(pose_trans(f_name,p[0.00000,-0.34587,0.05133,-0.00000,-1.57080,0.00000]), a=accel, v=vel, t=0, r=round)
movel(pose_trans(f_name,p[0.00000,-0.34587,0.04883,-0.00000,-1.57080,0.00000]), a=accel, v=vel, t=0, r=round)
movel(pose_trans(f_name,p[0.00000,-0.34587,0.04633,-0.00000,-1.57080,0.00000]), a=accel, v=vel, t=0, r=round)
movel(pose_trans(f_name,p[0.00000,-0.34587,0.04383,-0.00000,-1.57080,0.00000]), a=accel, v=vel, t=0, r=round)
movel(pose_trans(f_name,p[0.00000,-0.34587,0.04133,-0.00000,-1.57080,0.00000]), a=accel, v=vel, t=0, r=round)
movel(pose_trans(f_name,p[0.00000,-0.34587,0.03883,-0.00000,-1.57080,0.00000]), a=accel, v=vel, t=0, r=round)
movel(pose_trans(f_name,p[0.00000,-0.34587,0.03633,-0.00000,-1.57080,0.00000]), a=accel, v=vel, t=0, r=round)
movel(pose_trans(f_name,p[0.00000,-0.34587,0.03383,-0.00000,-1.57080,0.00000]), a=accel, v=vel, t=0, r=round)
movel(pose_trans(f_name,p[0.00000,-0.34587,0.03133,-0.00000,-1.57080,0.00000]), a=accel, v=vel, t=0, r=round)
movel(pose_trans(f_name,p[0.00000,-0.34587,0.02883,-0.00000,-1.57080,0.00000]), a=accel, v=vel, t=0, r=round)
movel(pose_trans(f_name,p[0.00000,-0.34587,0.02633,-0.00000,-1.57080,0.00000]), a=accel, v=vel, t=0, r=round)
movel(pose_trans(f_name,p[0.00000,-0.34587,0.02383,-0.00000,-1.57080,0.00000]), a=accel, v=vel, t=0, r=round)
movel(pose_trans(f_name,p[0.00000,-0.34587,0.02133,-0.00000,-1.57080,0.00000]), a=accel, v=vel, t=0, r=round)
movel(pose_trans(f_name,p[0.00000,-0.34587,0.01883,-0.00000,-1.57080,0.00000]), a=accel, v=vel, t=0, r=round)
movel(pose_trans(f_name,p[0.00000,-0.34587,0.01633,-0.00000,-1.57080,0.00000]), a=accel, v=vel, t=0, r=round)
movel(pose_trans(f_name,p[0.00000,-0.34587,0.01383,-0.00000,-1.57080,0.00000]), a=accel, v=vel, t=0, r=round)
movel(pose_trans(f_name,p[0.00000,-0.34587,0.01133,-0.00000,-1.57080,0.00000]), a=accel, v=vel, t=0, r=round)
movel(pose_trans(f_name,p[0.00000,-0.34587,0.00883,-0.00000,-1.57080,0.00000]), a=accel, v=vel, t=0, r=round)
movel(pose_trans(f_name,p[0.00000,-0.34587,0.00633,-0.00000,-1.57080,0.00000]), a=accel, v=vel, t=0, r=round)
movel(pose_trans(f_name,p[0.00000,-0.34587,0.00383,-0.00000,-1.57080,0.00000]), a=accel, v=vel, t=0, r=round)
movel(pose_trans(f_name,p[0.00000,-0.34587,0.00133,-0.00000,-1.57080,0.00000]), a=accel, v=vel, t=0, r=round)
movel(pose_trans(f_name,p[0.00000,-0.34587,-0.00117,-0.00000,-1.57080,0.00000]), a=accel, v=vel, t=0, r=round)
movel(pose_trans(f_name,p[0.00000,-0.34587,-0.00366,-0.00000,-1.57080,0.00000]), a=accel, v=vel, t=0, r=round)
movel(pose_trans(f_name,p[0.00000,-0.34587,-0.00617,-0.00000,-1.57080,0.00000]), a=accel, v=vel, t=0, r=round)
movel(pose_trans(f_name,p[0.00000,-0.34587,-0.00866,-0.00000,-1.57080,0.00000]), a=accel, v=vel, t=0, r=round)
movel(pose_trans(f_name,p[0.00000,-0.34587,-0.01116,-0.00000,-1.57080,0.00000]), a=accel, v=vel, t=0, r=round)
movel(pose_trans(f_name,p[0.00000,-0.34587,-0.01366,-0.00000,-1.57080,0.00000]), a=accel, v=vel, t=0, r=round)
movel(pose_trans(f_name,p[0.00000,-0.34587,-0.01616,-0.00000,-1.57080,0.00000]), a=accel, v=vel, t=0, r=round)
movel(pose_trans(f_name,p[0.00000,-0.34587,-0.01866,-0.00000,-1.57080,0.00000]), a=accel, v=vel, t=0, r=round)
movel(pose_trans(f_name,p[0.00000,-0.34587,-0.02116,-0.00000,-1.57080,0.00000]), a=accel, v=vel, t=0, r=round)
movel(pose_trans(f_name,p[0.00000,-0.34587,-0.02366,-0.00000,-1.57080,0.00000]), a=accel, v=vel, t=0, r=round)
movel(pose_trans(f_name,p[0.00000,-0.34587,-0.02616,-0.00000,-1.57080,0.00000]), a=accel, v=vel, t=0, r=round)
movel(pose_trans(f_name,p[0.00000,-0.34587,-0.02866,-0.00000,-1.57080,0.00000]), a=accel, v=vel, t=0, r=round)
movel(pose_trans(f_name,p[0.00000,-0.34587,-0.03116,-0.00000,-1.57080,0.00000]), a=accel, v=vel, t=0, r=round)
movel(pose_trans(f_name,p[0.00000,-0.34587,-0.03366,-0.00000,-1.57080,0.00000]), a=accel, v=vel, t=0, r=round)
movel(pose_trans(f_name,p[0.00000,-0.34587,-0.03616,-0.00000,-1.57080,0.00000]), a=accel, v=vel, t=0, r=round)
movel(pose_trans(f_name,p[0.00000,-0.34587,-0.03866,-0.00000,-1.57080,0.00000]), a=accel, v=vel, t=0, r=round)
movel(pose_trans(f_name,p[0.00000,-0.34587,-0.04116,-0.00000,-1.57080,0.00000]), a=accel, v=vel, t=0, r=round)
movel(pose_trans(f_name,p[0.00000,-0.34587,-0.04366,-0.00000,-1.57080,0.00000]), a=accel, v=vel, t=0, r=round)
movel(pose_trans(f_name,p[0.00000,-0.34587,-0.04616,-0.00000,-1.57080,0.00000]), a=accel, v=vel, t=0, r=round)
movel(pose_trans(f_name,p[0.00000,-0.34587,-0.04866,-0.00000,-1.57080,0.00000]), a=accel, v=vel, t=0, r=round)
movel(pose_trans(f_name,p[0.00000,-0.34587,-0.05116,-0.00000,-1.57080,0.00000]), a=accel, v=vel, t=0, r=round)
movel(pose_trans(f_name,p[0.00000,-0.34587,-0.05366,-0.00000,-1.57080,0.00000]), a=accel, v=vel, t=0, r=round)
movel(pose_trans(f_name,p[0.00000,-0.34587,-0.05616,-0.00000,-1.57080,0.00000]), a=accel, v=vel, t=0, r=round)
movel(pose_trans(f_name,p[0.00000,-0.34587,-0.05866,-0.00000,-1.57080,0.00000]), a=accel, v=vel, t=0, r=round)
movel(pose_trans(f_name,p[0.00000,-0.34587,-0.06116,-0.00000,-1.57080,0.00000]), a=accel, v=vel, t=0, r=round)
movel(pose_trans(f_name,p[0.00000,-0.34587,-0.06366,-0.00000,-1.57080,0.00000]), a=accel, v=vel, t=0, r=round)
movel(pose_trans(f_name,p[0.00000,-0.34587,-0.06616,-0.00000,-1.57080,0.00000]), a=accel, v=vel, t=0, r=round)
movel(pose_trans(f_name,p[0.00000,-0.34587,-0.06866,-0.00000,-1.57080,0.00000]), a=accel, v=vel, t=0, r=round)
movel(pose_trans(f_name,p[0.00000,-0.34587,-0.07116,-0.00000,-1.57080,0.00000]), a=accel, v=vel, t=0, r=round)
movel(pose_trans(f_name,p[0.00000,-0.34587,-0.07366,-0.00000,-1.57080,0.00000]), a=accel, v=vel, t=0, r=round)
movel(pose_trans(f_name,p[0.00000,-0.34587,-0.07616,-0.00000,-1.57080,0.00000]), a=accel, v=vel, t=0, r=round)
movel(pose_trans(f_name,p[0.00000,-0.34580,-0.07741,-0.00000,-1.57080,0.00000]), a=accel, v=vel, t=0, r=round)
movel(pose_trans(f_name,p[0.00000,-0.34553,-0.07865,-0.00000,-1.57080,0.00000]), a=accel, v=vel, t=0, r=round)
movel(pose_trans(f_name,p[0.00000,-0.34510,-0.07977,-0.00000,-1.57080,0.00000]), a=accel, v=vel, t=0, r=round)
movel(pose_trans(f_name,p[0.00000,-0.34450,-0.08081,-0.00000,-1.57080,0.00000]), a=accel, v=vel, t=0, r=round)
movel(pose_trans(f_name,p[0.00000,-0.34371,-0.08180,-0.00000,-1.57080,0.00000]), a=accel, v=vel, t=0, r=round)
movel(pose_trans(f_name,p[0.00000,-0.34282,-0.08261,-0.00000,-1.57080,0.00000]), a=accel, v=vel, t=0, r=round)
movel(pose_trans(f_name,p[0.00000,-0.34183,-0.08328,-0.00000,-1.57080,0.00000]), a=accel, v=vel, t=0, r=round)
movel(pose_trans(f_name,p[0.00000,-0.34069,-0.08382,-0.00000,-1.57080,0.00000]), a=accel, v=vel, t=0, r=round)
movel(pose_trans(f_name,p[0.00000,-0.33948,-0.08417,-0.00000,-1.57080,0.00000]), a=accel, v=vel, t=0, r=round)
movel(pose_trans(f_name,p[0.00000,-0.33828,-0.08432,-0.00000,-1.57080,0.00000]), a=accel, v=vel, t=0, r=round)
movel(pose_trans(f_name,p[0.00000,-0.33702,-0.08433,-0.00000,-1.57080,0.00000]), a=accel, v=vel, t=0, r=round)
movel(pose_trans(f_name,p[0.00000,-0.33452,-0.08433,-0.00000,-1.57080,0.00000]), a=accel, v=vel, t=0, r=round)
movel(pose_trans(f_name,p[0.00000,-0.33202,-0.08433,-0.00000,-1.57080,0.00000]), a=accel, v=vel, t=0, r=round)
movel(pose_trans(f_name,p[0.00000,-0.32952,-0.08433,-0.00000,-1.57080,0.00000]), a=accel, v=vel, t=0, r=round)
movel(pose_trans(f_name,p[0.00000,-0.32702,-0.08433,-0.00000,-1.57080,0.00000]), a=accel, v=vel, t=0, r=round)
movel(pose_trans(f_name,p[0.00000,-0.32452,-0.08433,-0.00000,-1.57080,0.00000]), a=accel, v=vel, t=0, r=round)
movel(pose_trans(f_name,p[0.00000,-0.32202,-0.08433,-0.00000,-1.57080,0.00000]), a=accel, v=vel, t=0, r=round)
movel(pose_trans(f_name,p[0.00000,-0.31952,-0.08433,-0.00000,-1.57080,0.00000]), a=accel, v=vel, t=0, r=round)
movel(pose_trans(f_name,p[0.00000,-0.31702,-0.08433,-0.00000,-1.57080,0.00000]), a=accel, v=vel, t=0, r=round)
movel(pose_trans(f_name,p[0.00000,-0.31452,-0.08433,-0.00000,-1.57080,0.00000]), a=accel, v=vel, t=0, r=round)
movel(pose_trans(f_name,p[0.00000,-0.31202,-0.08433,-0.00000,-1.57080,0.00000]), a=accel, v=vel, t=0, r=round)
movel(pose_trans(f_name,p[0.00000,-0.30952,-0.08433,-0.00000,-1.57080,0.00000]), a=accel, v=vel, t=0, r=round)
movel(pose_trans(f_name,p[0.00000,-0.30702,-0.08433,-0.00000,-1.57080,0.00000]), a=accel, v=vel, t=0, r=round)
movel(pose_trans(f_name,p[0.00000,-0.30452,-0.08433,-0.00000,-1.57080,0.00000]), a=accel, v=vel, t=0, r=round)
movel(pose_trans(f_name,p[0.00000,-0.30202,-0.08433,-0.00000,-1.57080,0.00000]), a=accel, v=vel, t=0, r=round)
movel(pose_trans(f_name,p[0.00000,-0.29952,-0.08433,-0.00000,-1.57080,0.00000]), a=accel, v=vel, t=0, r=round)
movel(pose_trans(f_name,p[0.00000,-0.29702,-0.08433,-0.00000,-1.57080,0.00000]), a=accel, v=vel, t=0, r=round)
movel(pose_trans(f_name,p[0.00000,-0.29452,-0.08433,-0.00000,-1.57080,0.00000]), a=accel, v=vel, t=0, r=round)
movel(pose_trans(f_name,p[0.00000,-0.29202,-0.08433,-0.00000,-1.57080,0.00000]), a=accel, v=vel, t=0, r=round)
movel(pose_trans(f_name,p[0.00000,-0.28952,-0.08433,-0.00000,-1.57080,0.00000]), a=accel, v=vel, t=0, r=round)
movel(pose_trans(f_name,p[0.00000,-0.28702,-0.08433,-0.00000,-1.57080,0.00000]), a=accel, v=vel, t=0, r=round)
movel(pose_trans(f_name,p[0.00000,-0.28452,-0.08433,-0.00000,-1.57080,0.00000]), a=accel, v=vel, t=0, r=round)
movel(pose_trans(f_name,p[0.00000,-0.28202,-0.08433,-0.00000,-1.57080,0.00000]), a=accel, v=vel, t=0, r=round)
movel(pose_trans(f_name,p[0.00000,-0.27952,-0.08433,-0.00000,-1.57080,0.00000]), a=accel, v=vel, t=0, r=round)
movel(pose_trans(f_name,p[0.00000,-0.27702,-0.08433,-0.00000,-1.57080,0.00000]), a=accel, v=vel, t=0, r=round)
movel(pose_trans(f_name,p[0.00000,-0.27452,-0.08433,-0.00000,-1.57080,0.00000]), a=accel, v=vel, t=0, r=round)
movel(pose_trans(f_name,p[0.00000,-0.27202,-0.08433,-0.00000,-1.57080,0.00000]), a=accel, v=vel, t=0, r=round)
movel(pose_trans(f_name,p[0.00000,-0.26953,-0.08433,-0.00000,-1.57080,0.00000]), a=accel, v=vel, t=0, r=round)
movel(pose_trans(f_name,p[0.00000,-0.26703,-0.08433,-0.00000,-1.57080,0.00000]), a=accel, v=vel, t=0, r=round)
movel(pose_trans(f_name,p[0.00000,-0.26453,-0.08433,-0.00000,-1.57080,0.00000]), a=accel, v=vel, t=0, r=round)
movel(pose_trans(f_name,p[0.00000,-0.26203,-0.08433,-0.00000,-1.57080,0.00000]), a=accel, v=vel, t=0, r=round)
movel(pose_trans(f_name,p[0.00000,-0.25953,-0.08433,-0.00000,-1.57080,0.00000]), a=accel, v=vel, t=0, r=round)
movel(pose_trans(f_name,p[0.00000,-0.25703,-0.08433,-0.00000,-1.57080,0.00000]), a=accel, v=vel, t=0, r=round)
movel(pose_trans(f_name,p[0.00000,-0.25453,-0.08433,-0.00000,-1.57080,0.00000]), a=accel, v=vel, t=0, r=round)
movel(pose_trans(f_name,p[0.00000,-0.25203,-0.08433,-0.00000,-1.57080,0.00000]), a=accel, v=vel, t=0, r=round)
movel(pose_trans(f_name,p[0.00000,-0.24953,-0.08433,-0.00000,-1.57080,0.00000]), a=accel, v=vel, t=0, r=round)
movel(pose_trans(f_name,p[0.00000,-0.24703,-0.08433,-0.00000,-1.57080,0.00000]), a=accel, v=vel, t=0, r=round)
movel(pose_trans(f_name,p[0.00000,-0.24453,-0.08433,-0.00000,-1.57080,0.00000]), a=accel, v=vel, t=0, r=round)
movel(pose_trans(f_name,p[0.00000,-0.24203,-0.08433,-0.00000,-1.57080,0.00000]), a=accel, v=vel, t=0, r=round)
movel(pose_trans(f_name,p[0.00000,-0.23953,-0.08433,-0.00000,-1.57080,0.00000]), a=accel, v=vel, t=0, r=round)
movel(pose_trans(f_name,p[0.00000,-0.23703,-0.08433,-0.00000,-1.57080,0.00000]), a=accel, v=vel, t=0, r=round)
movel(pose_trans(f_name,p[0.00000,-0.23453,-0.08433,-0.00000,-1.57080,0.00000]), a=accel, v=vel, t=0, r=round)
movel(pose_trans(f_name,p[0.00000,-0.23203,-0.08433,-0.00000,-1.57080,0.00000]), a=accel, v=vel, t=0, r=round)
movel(pose_trans(f_name,p[0.00000,-0.22953,-0.08433,-0.00000,-1.57080,0.00000]), a=accel, v=vel, t=0, r=round)
movel(pose_trans(f_name,p[0.00000,-0.22703,-0.08433,-0.00000,-1.57080,0.00000]), a=accel, v=vel, t=0, r=round)
movel(pose_trans(f_name,p[0.00000,-0.22453,-0.08433,-0.00000,-1.57080,0.00000]), a=accel, v=vel, t=0, r=round)
movel(pose_trans(f_name,p[0.00000,-0.22203,-0.08433,-0.00000,-1.57080,0.00000]), a=accel, v=vel, t=0, r=round)
movel(pose_trans(f_name,p[0.00000,-0.21953,-0.08433,-0.00000,-1.57080,0.00000]), a=accel, v=vel, t=0, r=round)
movel(pose_trans(f_name,p[0.00000,-0.21703,-0.08433,-0.00000,-1.57080,0.00000]), a=accel, v=vel, t=0, r=round)
movel(pose_trans(f_name,p[0.00000,-0.21453,-0.08433,-0.00000,-1.57080,0.00000]), a=accel, v=vel, t=0, r=round)
movel(pose_trans(f_name,p[0.00000,-0.21203,-0.08433,-0.00000,-1.57080,0.00000]), a=accel, v=vel, t=0, r=round)
movel(pose_trans(f_name,p[0.00000,-0.20953,-0.08433,-0.00000,-1.57080,0.00000]), a=accel, v=vel, t=0, r=round)
movel(pose_trans(f_name,p[0.00000,-0.20703,-0.08433,-0.00000,-1.57080,0.00000]), a=accel, v=vel, t=0, r=round)
movel(pose_trans(f_name,p[0.00000,-0.20453,-0.08433,-0.00000,-1.57080,0.00000]), a=accel, v=vel, t=0, r=round)
movel(pose_trans(f_name,p[0.00000,-0.20203,-0.08433,-0.00000,-1.57080,0.00000]), a=accel, v=vel, t=0, r=round)
movel(pose_trans(f_name,p[0.00000,-0.19953,-0.08433,-0.00000,-1.57080,0.00000]), a=accel, v=vel, t=0, r=round)
movel(pose_trans(f_name,p[0.00000,-0.19703,-0.08433,-0.00000,-1.57080,0.00000]), a=accel, v=vel, t=0, r=round)
movel(pose_trans(f_name,p[0.00000,-0.19453,-0.08433,-0.00000,-1.57080,0.00000]), a=accel, v=vel, t=0, r=round)
movel(pose_trans(f_name,p[0.00000,-0.19203,-0.08433,-0.00000,-1.57080,0.00000]), a=accel, v=vel, t=0, r=round)
movel(pose_trans(f_name,p[0.00000,-0.18953,-0.08433,-0.00000,-1.57080,0.00000]), a=accel, v=vel, t=0, r=round)
movel(pose_trans(f_name,p[0.00000,-0.18703,-0.08433,-0.00000,-1.57080,0.00000]), a=accel, v=vel, t=0, r=round)
movel(pose_trans(f_name,p[0.00000,-0.18453,-0.08433,-0.00000,-1.57080,0.00000]), a=accel, v=vel, t=0, r=round)
movel(pose_trans(f_name,p[0.00000,-0.18203,-0.08433,-0.00000,-1.57080,0.00000]), a=accel, v=vel, t=0, r=round)
movel(pose_trans(f_name,p[0.00000,-0.17953,-0.08433,-0.00000,-1.57080,0.00000]), a=accel, v=vel, t=0, r=round)
movel(pose_trans(f_name,p[0.00000,-0.17703,-0.08433,-0.00000,-1.57080,0.00000]), a=accel, v=vel, t=0, r=round)
movel(pose_trans(f_name,p[0.00000,-0.17453,-0.08433,-0.00000,-1.57080,0.00000]), a=accel, v=vel, t=0, r=round)
movel(pose_trans(f_name,p[0.00000,-0.17203,-0.08433,-0.00000,-1.57080,0.00000]), a=accel, v=vel, t=0, r=round)
movel(pose_trans(f_name,p[0.00000,-0.16953,-0.08433,-0.00000,-1.57080,0.00000]), a=accel, v=vel, t=0, r=round)
movel(pose_trans(f_name,p[0.00000,-0.16703,-0.08433,-0.00000,-1.57080,0.00000]), a=accel, v=vel, t=0, r=round)
movel(pose_trans(f_name,p[0.00000,-0.16453,-0.08433,-0.00000,-1.57080,0.00000]), a=accel, v=vel, t=0, r=round)
movel(pose_trans(f_name,p[0.00000,-0.16203,-0.08433,-0.00000,-1.57080,0.00000]), a=accel, v=vel, t=0, r=round)
movel(pose_trans(f_name,p[0.00000,-0.15953,-0.08433,-0.00000,-1.57080,0.00000]), a=accel, v=vel, t=0, r=round)
movel(pose_trans(f_name,p[0.00000,-0.15703,-0.08433,-0.00000,-1.57080,0.00000]), a=accel, v=vel, t=0, r=round)
movel(pose_trans(f_name,p[0.00000,-0.15453,-0.08433,-0.00000,-1.57080,0.00000]), a=accel, v=vel, t=0, r=round)
movel(pose_trans(f_name,p[0.00000,-0.15203,-0.08433,-0.00000,-1.57080,0.00000]), a=accel, v=vel, t=0, r=round)
movel(pose_trans(f_name,p[0.00000,-0.14953,-0.08433,-0.00000,-1.57080,0.00000]), a=accel, v=vel, t=0, r=round)
movel(pose_trans(f_name,p[0.00000,-0.14703,-0.08433,-0.00000,-1.57080,0.00000]), a=accel, v=vel, t=0, r=round)
movel(pose_trans(f_name,p[0.00000,-0.14453,-0.08433,-0.00000,-1.57080,0.00000]), a=accel, v=vel, t=0, r=round)
movel(pose_trans(f_name,p[0.00000,-0.14203,-0.08433,-0.00000,-1.57080,0.00000]), a=accel, v=vel, t=0, r=round)
movel(pose_trans(f_name,p[0.00000,-0.13953,-0.08433,-0.00000,-1.57080,0.00000]), a=accel, v=vel, t=0, r=round)
movel(pose_trans(f_name,p[0.00000,-0.13703,-0.08433,-0.00000,-1.57080,0.00000]), a=accel, v=vel, t=0, r=round)
movel(pose_trans(f_name,p[0.00000,-0.13453,-0.08433,-0.00000,-1.57080,0.00000]), a=accel, v=vel, t=0, r=round)
movel(pose_trans(f_name,p[0.00000,-0.13203,-0.08433,-0.00000,-1.57080,0.00000]), a=accel, v=vel, t=0, r=round)
movel(pose_trans(f_name,p[0.00000,-0.12953,-0.08433,-0.00000,-1.57080,0.00000]), a=accel, v=vel, t=0, r=round)
movel(pose_trans(f_name,p[0.00000,-0.12703,-0.08433,-0.00000,-1.57080,0.00000]), a=accel, v=vel, t=0, r=round)
movel(pose_trans(f_name,p[0.00000,-0.12453,-0.08433,-0.00000,-1.57080,0.00000]), a=accel, v=vel, t=0, r=round)
movel(pose_trans(f_name,p[0.00000,-0.12203,-0.08433,-0.00000,-1.57080,0.00000]), a=accel, v=vel, t=0, r=round)
movel(pose_trans(f_name,p[0.00000,-0.11953,-0.08433,-0.00000,-1.57080,0.00000]), a=accel, v=vel, t=0, r=round)
movel(pose_trans(f_name,p[0.00000,-0.11703,-0.08433,-0.00000,-1.57080,0.00000]), a=accel, v=vel, t=0, r=round)
movel(pose_trans(f_name,p[0.00000,-0.11453,-0.08433,-0.00000,-1.57080,0.00000]), a=accel, v=vel, t=0, r=round)
movel(pose_trans(f_name,p[0.00000,-0.11203,-0.08433,-0.00000,-1.57080,0.00000]), a=accel, v=vel, t=0, r=round)
movel(pose_trans(f_name,p[0.00000,-0.10953,-0.08433,-0.00000,-1.57080,0.00000]), a=accel, v=vel, t=0, r=round)
movel(pose_trans(f_name,p[0.00000,-0.10703,-0.08433,-0.00000,-1.57080,0.00000]), a=accel, v=vel, t=0, r=round)
movel(pose_trans(f_name,p[0.00000,-0.10453,-0.08433,-0.00000,-1.57080,0.00000]), a=accel, v=vel, t=0, r=round)
movel(pose_trans(f_name,p[0.00000,-0.10203,-0.08433,-0.00000,-1.57080,0.00000]), a=accel, v=vel, t=0, r=round)
movel(pose_trans(f_name,p[0.00000,-0.09953,-0.08433,-0.00000,-1.57080,0.00000]), a=accel, v=vel, t=0, r=round)
movel(pose_trans(f_name,p[0.00000,-0.09703,-0.08433,-0.00000,-1.57080,0.00000]), a=accel, v=vel, t=0, r=round)
movel(pose_trans(f_name,p[0.00000,-0.09453,-0.08433,-0.00000,-1.57080,0.00000]), a=accel, v=vel, t=0, r=round)
movel(pose_trans(f_name,p[0.00000,-0.09203,-0.08433,-0.00000,-1.57080,0.00000]), a=accel, v=vel, t=0, r=round)
movel(pose_trans(f_name,p[0.00000,-0.08954,-0.08433,-0.00000,-1.57080,0.00000]), a=accel, v=vel, t=0, r=round)
movel(pose_trans(f_name,p[0.00000,-0.08704,-0.08433,-0.00000,-1.57080,0.00000]), a=accel, v=vel, t=0, r=round)
movel(pose_trans(f_name,p[0.00000,-0.08453,-0.08433,-0.00000,-1.57080,0.00000]), a=accel, v=vel, t=0, r=round)
movel(pose_trans(f_name,p[0.00000,-0.08204,-0.08433,-0.00000,-1.57080,0.00000]), a=accel, v=vel, t=0, r=round)
movel(pose_trans(f_name,p[0.00000,-0.07954,-0.08433,-0.00000,-1.57080,0.00000]), a=accel, v=vel, t=0, r=round)
movel(pose_trans(f_name,p[0.00000,-0.07704,-0.08433,-0.00000,-1.57080,0.00000]), a=accel, v=vel, t=0, r=round)
movel(pose_trans(f_name,p[0.00000,-0.07454,-0.08433,-0.00000,-1.57080,0.00000]), a=accel, v=vel, t=0, r=round)
movel(pose_trans(f_name,p[0.00000,-0.07204,-0.08433,-0.00000,-1.57080,0.00000]), a=accel, v=vel, t=0, r=round)
movel(pose_trans(f_name,p[0.00000,-0.06954,-0.08433,-0.00000,-1.57080,0.00000]), a=accel, v=vel, t=0, r=round)
movel(pose_trans(f_name,p[0.00000,-0.06704,-0.08433,-0.00000,-1.57080,0.00000]), a=accel, v=vel, t=0, r=round)
movel(pose_trans(f_name,p[0.00000,-0.06454,-0.08433,-0.00000,-1.57080,0.00000]), a=accel, v=vel, t=0, r=round)
movel(pose_trans(f_name,p[0.00000,-0.06204,-0.08433,-0.00000,-1.57080,0.00000]), a=accel, v=vel, t=0, r=round)
movel(pose_trans(f_name,p[0.00000,-0.05954,-0.08433,-0.00000,-1.57080,0.00000]), a=accel, v=vel, t=0, r=round)
movel(pose_trans(f_name,p[0.00000,-0.05704,-0.08433,-0.00000,-1.57080,0.00000]), a=accel, v=vel, t=0, r=round)
movel(pose_trans(f_name,p[0.00000,-0.05454,-0.08433,-0.00000,-1.57080,0.00000]), a=accel, v=vel, t=0, r=round)
movel(pose_trans(f_name,p[0.00000,-0.05204,-0.08433,-0.00000,-1.57080,0.00000]), a=accel, v=vel, t=0, r=round)
movel(pose_trans(f_name,p[0.00000,-0.04954,-0.08433,-0.00000,-1.57080,0.00000]), a=accel, v=vel, t=0, r=round)
movel(pose_trans(f_name,p[0.00000,-0.04704,-0.08433,-0.00000,-1.57080,0.00000]), a=accel, v=vel, t=0, r=round)
movel(pose_trans(f_name,p[0.00000,-0.04454,-0.08433,-0.00000,-1.57080,0.00000]), a=accel, v=vel, t=0, r=round)
movel(pose_trans(f_name,p[0.00000,-0.04204,-0.08433,-0.00000,-1.57080,0.00000]), a=accel, v=vel, t=0, r=round)
movel(pose_trans(f_name,p[0.00000,-0.03954,-0.08433,-0.00000,-1.57080,0.00000]), a=accel, v=vel, t=0, r=round)
movel(pose_trans(f_name,p[0.00000,-0.03704,-0.08433,-0.00000,-1.57080,0.00000]), a=accel, v=vel, t=0, r=round)
movel(pose_trans(f_name,p[0.00000,-0.03454,-0.08433,-0.00000,-1.57080,0.00000]), a=accel, v=vel, t=0, r=round)
movel(pose_trans(f_name,p[0.00000,-0.03204,-0.08433,-0.00000,-1.57080,0.00000]), a=accel, v=vel, t=0, r=round)
movel(pose_trans(f_name,p[0.00000,-0.02954,-0.08433,-0.00000,-1.57080,0.00000]), a=accel, v=vel, t=0, r=round)
movel(pose_trans(f_name,p[0.00000,-0.02704,-0.08433,-0.00000,-1.57080,0.00000]), a=accel, v=vel, t=0, r=round)
movel(pose_trans(f_name,p[0.00000,-0.02454,-0.08433,-0.00000,-1.57080,0.00000]), a=accel, v=vel, t=0, r=round)
movel(pose_trans(f_name,p[0.00000,-0.02204,-0.08433,-0.00000,-1.57080,0.00000]), a=accel, v=vel, t=0, r=round)
movel(pose_trans(f_name,p[0.00000,-0.01954,-0.08433,-0.00000,-1.57080,0.00000]), a=accel, v=vel, t=0, r=round)
movel(pose_trans(f_name,p[0.00000,-0.01704,-0.08433,-0.00000,-1.57080,0.00000]), a=accel, v=vel, t=0, r=round)
movel(pose_trans(f_name,p[0.00000,-0.01454,-0.08433,-0.00000,-1.57080,0.00000]), a=accel, v=vel, t=0, r=round)
movel(pose_trans(f_name,p[0.00000,-0.01204,-0.08433,-0.00000,-1.57080,0.00000]), a=accel, v=vel, t=0, r=round)
movel(pose_trans(f_name,p[0.00000,-0.00954,-0.08433,-0.00000,-1.57080,0.00000]), a=accel, v=vel, t=0, r=round)
movel(pose_trans(f_name,p[0.00000,-0.00704,-0.08433,-0.00000,-1.57080,0.00000]), a=accel, v=vel, t=0, r=round)
movel(pose_trans(f_name,p[0.00000,-0.00454,-0.08433,-0.00000,-1.57080,0.00000]), a=accel, v=vel, t=0, r=round)
movel(pose_trans(f_name,p[0.00000,-0.00204,-0.08433,-0.00000,-1.57080,0.00000]), a=accel, v=vel, t=0, r=round)
movel(pose_trans(f_name,p[0.00000,0.00046,-0.08433,-0.00000,-1.57080,0.00000]), a=accel, v=vel, t=0, r=round)
movel(pose_trans(f_name,p[0.00000,0.00296,-0.08433,-0.00000,-1.57080,0.00000]), a=accel, v=vel, t=0, r=round)
movel(pose_trans(f_name,p[0.00000,0.00546,-0.08433,-0.00000,-1.57080,0.00000]), a=accel, v=vel, t=0, r=round)
movel(pose_trans(f_name,p[0.00000,0.00796,-0.08433,-0.00000,-1.57080,0.00000]), a=accel, v=vel, t=0, r=round)
movel(pose_trans(f_name,p[0.00000,0.01046,-0.08433,-0.00000,-1.57080,0.00000]), a=accel, v=vel, t=0, r=round)
movel(pose_trans(f_name,p[0.00000,0.01296,-0.08433,-0.00000,-1.57080,0.00000]), a=accel, v=vel, t=0, r=round)
movel(pose_trans(f_name,p[0.00000,0.01546,-0.08433,-0.00000,-1.57080,0.00000]), a=accel, v=vel, t=0, r=round)
movel(pose_trans(f_name,p[0.00000,0.01796,-0.08433,-0.00000,-1.57080,0.00000]), a=accel, v=vel, t=0, r=round)
movel(pose_trans(f_name,p[0.00000,0.02046,-0.08433,-0.00000,-1.57080,0.00000]), a=accel, v=vel, t=0, r=round)
movel(pose_trans(f_name,p[0.00000,0.02296,-0.08433,-0.00000,-1.57080,0.00000]), a=accel, v=vel, t=0, r=round)
movel(pose_trans(f_name,p[0.00000,0.02546,-0.08433,-0.00000,-1.57080,0.00000]), a=accel, v=vel, t=0, r=round)
movel(pose_trans(f_name,p[0.00000,0.02796,-0.08433,-0.00000,-1.57080,0.00000]), a=accel, v=vel, t=0, r=round)
movel(pose_trans(f_name,p[0.00000,0.03046,-0.08433,-0.00000,-1.57080,0.00000]), a=accel, v=vel, t=0, r=round)
movel(pose_trans(f_name,p[0.00000,0.03296,-0.08433,-0.00000,-1.57080,0.00000]), a=accel, v=vel, t=0, r=round)
movel(pose_trans(f_name,p[0.00000,0.03546,-0.08433,-0.00000,-1.57080,0.00000]), a=accel, v=vel, t=0, r=round)
movel(pose_trans(f_name,p[0.00000,0.03796,-0.08433,-0.00000,-1.57080,0.00000]), a=accel, v=vel, t=0, r=round)
movel(pose_trans(f_name,p[0.00000,0.04046,-0.08433,-0.00000,-1.57080,0.00000]), a=accel, v=vel, t=0, r=round)
movel(pose_trans(f_name,p[0.00000,0.04296,-0.08433,-0.00000,-1.57080,0.00000]), a=accel, v=vel, t=0, r=round)
movel(pose_trans(f_name,p[0.00000,0.04546,-0.08433,-0.00000,-1.57080,0.00000]), a=accel, v=vel, t=0, r=round)
movel(pose_trans(f_name,p[0.00000,0.04796,-0.08433,-0.00000,-1.57080,0.00000]), a=accel, v=vel, t=0, r=round)
movel(pose_trans(f_name,p[0.00000,0.05046,-0.08433,-0.00000,-1.57080,0.00000]), a=accel, v=vel, t=0, r=round)
movel(pose_trans(f_name,p[0.00000,0.05296,-0.08433,-0.00000,-1.57080,0.00000]), a=accel, v=vel, t=0, r=round)
movel(pose_trans(f_name,p[0.00000,0.05546,-0.08433,-0.00000,-1.57080,0.00000]), a=accel, v=vel, t=0, r=round)
movel(pose_trans(f_name,p[0.00000,0.05796,-0.08433,-0.00000,-1.57080,0.00000]), a=accel, v=vel, t=0, r=round)
movel(pose_trans(f_name,p[0.00000,0.06046,-0.08433,-0.00000,-1.57080,0.00000]), a=accel, v=vel, t=0, r=round)
movel(pose_trans(f_name,p[0.00000,0.06296,-0.08433,-0.00000,-1.57080,0.00000]), a=accel, v=vel, t=0, r=round)
movel(pose_trans(f_name,p[0.00000,0.06546,-0.08433,-0.00000,-1.57080,0.00000]), a=accel, v=vel, t=0, r=round)
movel(pose_trans(f_name,p[0.00000,0.06796,-0.08433,-0.00000,-1.57080,0.00000]), a=accel, v=vel, t=0, r=round)
movel(pose_trans(f_name,p[0.00000,0.07046,-0.08433,-0.00000,-1.57080,0.00000]), a=accel, v=vel, t=0, r=round)
movel(pose_trans(f_name,p[0.00000,0.07296,-0.08433,-0.00000,-1.57080,0.00000]), a=accel, v=vel, t=0, r=round)
movel(pose_trans(f_name,p[0.00000,0.07546,-0.08433,-0.00000,-1.57080,0.00000]), a=accel, v=vel, t=0, r=round)
movel(pose_trans(f_name,p[0.00000,0.07796,-0.08433,-0.00000,-1.57080,0.00000]), a=accel, v=vel, t=0, r=round)
movel(pose_trans(f_name,p[0.00000,0.08046,-0.08433,-0.00000,-1.57080,0.00000]), a=accel, v=vel, t=0, r=round)
movel(pose_trans(f_name,p[0.00000,0.08296,-0.08433,-0.00000,-1.57080,0.00000]), a=accel, v=vel, t=0, r=round)
movel(pose_trans(f_name,p[0.00000,0.08546,-0.08433,-0.00000,-1.57080,0.00000]), a=accel, v=vel, t=0, r=round)
movel(pose_trans(f_name,p[0.00000,0.08796,-0.08433,-0.00000,-1.57080,0.00000]), a=accel, v=vel, t=0, r=round)
movel(pose_trans(f_name,p[0.00000,0.09046,-0.08433,-0.00000,-1.57080,0.00000]), a=accel, v=vel, t=0, r=round)
movel(pose_trans(f_name,p[0.00000,0.09295,-0.08433,-0.00000,-1.57080,0.00000]), a=accel, v=vel, t=0, r=round)
movel(pose_trans(f_name,p[0.00000,0.09545,-0.08433,-0.00000,-1.57080,0.00000]), a=accel, v=vel, t=0, r=round)
movel(pose_trans(f_name,p[0.00000,0.09796,-0.08433,-0.00000,-1.57080,0.00000]), a=accel, v=vel, t=0, r=round)
movel(pose_trans(f_name,p[0.00000,0.10046,-0.08433,-0.00000,-1.57080,0.00000]), a=accel, v=vel, t=0, r=round)
movel(pose_trans(f_name,p[0.00000,0.10296,-0.08433,-0.00000,-1.57080,0.00000]), a=accel, v=vel, t=0, r=round)
movel(pose_trans(f_name,p[0.00000,0.10545,-0.08433,-0.00000,-1.57080,0.00000]), a=accel, v=vel, t=0, r=round)
movel(pose_trans(f_name,p[0.00000,0.10795,-0.08433,-0.00000,-1.57080,0.00000]), a=accel, v=vel, t=0, r=round)
movel(pose_trans(f_name,p[0.00000,0.11045,-0.08433,-0.00000,-1.57080,0.00000]), a=accel, v=vel, t=0, r=round)
movel(pose_trans(f_name,p[0.00000,0.11295,-0.08433,-0.00000,-1.57080,0.00000]), a=accel, v=vel, t=0, r=round)
movel(pose_trans(f_name,p[0.00000,0.11545,-0.08433,-0.00000,-1.57080,0.00000]), a=accel, v=vel, t=0, r=round)
movel(pose_trans(f_name,p[0.00000,0.11795,-0.08433,-0.00000,-1.57080,0.00000]), a=accel, v=vel, t=0, r=round)
movel(pose_trans(f_name,p[0.00000,0.12045,-0.08433,-0.00000,-1.57080,0.00000]), a=accel, v=vel, t=0, r=round)
movel(pose_trans(f_name,p[0.00000,0.12295,-0.08433,-0.00000,-1.57080,0.00000]), a=accel, v=vel, t=0, r=round)
movel(pose_trans(f_name,p[0.00000,0.12545,-0.08433,-0.00000,-1.57080,0.00000]), a=accel, v=vel, t=0, r=round)
movel(pose_trans(f_name,p[0.00000,0.12795,-0.08433,-0.00000,-1.57080,0.00000]), a=accel, v=vel, t=0, r=round)
movel(pose_trans(f_name,p[0.00000,0.13045,-0.08433,-0.00000,-1.57080,0.00000]), a=accel, v=vel, t=0, r=round)
movel(pose_trans(f_name,p[0.00000,0.13295,-0.08433,-0.00000,-1.57080,0.00000]), a=accel, v=vel, t=0, r=round)
movel(pose_trans(f_name,p[0.00000,0.13545,-0.08433,-0.00000,-1.57080,0.00000]), a=accel, v=vel, t=0, r=round)
movel(pose_trans(f_name,p[0.00000,0.13795,-0.08433,-0.00000,-1.57080,0.00000]), a=accel, v=vel, t=0, r=round)
movel(pose_trans(f_name,p[0.00000,0.14045,-0.08433,-0.00000,-1.57080,0.00000]), a=accel, v=vel, t=0, r=round)
movel(pose_trans(f_name,p[0.00000,0.14295,-0.08433,-0.00000,-1.57080,0.00000]), a=accel, v=vel, t=0, r=round)
movel(pose_trans(f_name,p[0.00000,0.14545,-0.08433,-0.00000,-1.57080,0.00000]), a=accel, v=vel, t=0, r=round)
movel(pose_trans(f_name,p[0.00000,0.14795,-0.08433,-0.00000,-1.57080,0.00000]), a=accel, v=vel, t=0, r=round)
movel(pose_trans(f_name,p[0.00000,0.15045,-0.08433,-0.00000,-1.57080,0.00000]), a=accel, v=vel, t=0, r=round)
movel(pose_trans(f_name,p[0.00000,0.15295,-0.08433,-0.00000,-1.57080,0.00000]), a=accel, v=vel, t=0, r=round)
movel(pose_trans(f_name,p[0.00000,0.15545,-0.08433,-0.00000,-1.57080,0.00000]), a=accel, v=vel, t=0, r=round)
movel(pose_trans(f_name,p[0.00000,0.15795,-0.08433,-0.00000,-1.57080,0.00000]), a=accel, v=vel, t=0, r=round)
movel(pose_trans(f_name,p[0.00000,0.16045,-0.08433,-0.00000,-1.57080,0.00000]), a=accel, v=vel, t=0, r=round)
movel(pose_trans(f_name,p[0.00000,0.16295,-0.08433,-0.00000,-1.57080,0.00000]), a=accel, v=vel, t=0, r=round)
movel(pose_trans(f_name,p[0.00000,0.16545,-0.08433,-0.00000,-1.57080,0.00000]), a=accel, v=vel, t=0, r=round)
movel(pose_trans(f_name,p[0.00000,0.16795,-0.08433,-0.00000,-1.57080,0.00000]), a=accel, v=vel, t=0, r=round)
movel(pose_trans(f_name,p[0.00000,0.17045,-0.08433,-0.00000,-1.57080,0.00000]), a=accel, v=vel, t=0, r=round)
movel(pose_trans(f_name,p[0.00000,0.17295,-0.08433,-0.00000,-1.57080,0.00000]), a=accel, v=vel, t=0, r=round)
movel(pose_trans(f_name,p[0.00000,0.17545,-0.08433,-0.00000,-1.57080,0.00000]), a=accel, v=vel, t=0, r=round)
movel(pose_trans(f_name,p[0.00000,0.17795,-0.08433,-0.00000,-1.57080,0.00000]), a=accel, v=vel, t=0, r=round)
movel(pose_trans(f_name,p[0.00000,0.18045,-0.08433,-0.00000,-1.57080,0.00000]), a=accel, v=vel, t=0, r=round)
movel(pose_trans(f_name,p[0.00000,0.18295,-0.08433,-0.00000,-1.57080,0.00000]), a=accel, v=vel, t=0, r=round)
movel(pose_trans(f_name,p[0.00000,0.18545,-0.08433,-0.00000,-1.57080,0.00000]), a=accel, v=vel, t=0, r=round)
movel(pose_trans(f_name,p[0.00000,0.18795,-0.08433,-0.00000,-1.57080,0.00000]), a=accel, v=vel, t=0, r=round)
movel(pose_trans(f_name,p[0.00000,0.19045,-0.08433,-0.00000,-1.57080,0.00000]), a=accel, v=vel, t=0, r=round)
movel(pose_trans(f_name,p[0.00000,0.19295,-0.08433,-0.00000,-1.57080,0.00000]), a=accel, v=vel, t=0, r=round)
movel(pose_trans(f_name,p[0.00000,0.19545,-0.08433,-0.00000,-1.57080,0.00000]), a=accel, v=vel, t=0, r=round)
movel(pose_trans(f_name,p[0.00000,0.19795,-0.08433,-0.00000,-1.57080,0.00000]), a=accel, v=vel, t=0, r=round)
movel(pose_trans(f_name,p[0.00000,0.20045,-0.08433,-0.00000,-1.57080,0.00000]), a=accel, v=vel, t=0, r=round)
movel(pose_trans(f_name,p[0.00000,0.20295,-0.08433,-0.00000,-1.57080,0.00000]), a=accel, v=vel, t=0, r=round)
movel(pose_trans(f_name,p[0.00000,0.20545,-0.08433,-0.00000,-1.57080,0.00000]), a=accel, v=vel, t=0, r=round)
movel(pose_trans(f_name,p[0.00000,0.20795,-0.08433,-0.00000,-1.57080,0.00000]), a=accel, v=vel, t=0, r=round)
movel(pose_trans(f_name,p[0.00000,0.21045,-0.08433,-0.00000,-1.57080,0.00000]), a=accel, v=vel, t=0, r=round)
movel(pose_trans(f_name,p[0.00000,0.21295,-0.08433,-0.00000,-1.57080,0.00000]), a=accel, v=vel, t=0, r=round)
movel(pose_trans(f_name,p[0.00000,0.21545,-0.08433,-0.00000,-1.57080,0.00000]), a=accel, v=vel, t=0, r=round)
movel(pose_trans(f_name,p[0.00000,0.21795,-0.08433,-0.00000,-1.57080,0.00000]), a=accel, v=vel, t=0, r=round)
movel(pose_trans(f_name,p[0.00000,0.22045,-0.08433,-0.00000,-1.57080,0.00000]), a=accel, v=vel, t=0, r=round)
movel(pose_trans(f_name,p[0.00000,0.22295,-0.08433,-0.00000,-1.57080,0.00000]), a=accel, v=vel, t=0, r=round)
movel(pose_trans(f_name,p[0.00000,0.22545,-0.08433,-0.00000,-1.57080,0.00000]), a=accel, v=vel, t=0, r=round)
movel(pose_trans(f_name,p[0.00000,0.22795,-0.08433,-0.00000,-1.57080,0.00000]), a=accel, v=vel, t=0, r=round)
movel(pose_trans(f_name,p[0.00000,0.23045,-0.08433,-0.00000,-1.57080,0.00000]), a=accel, v=vel, t=0, r=round)
movel(pose_trans(f_name,p[0.00000,0.23295,-0.08433,-0.00000,-1.57080,0.00000]), a=accel, v=vel, t=0, r=round)
movel(pose_trans(f_name,p[0.00000,0.23545,-0.08433,-0.00000,-1.57080,0.00000]), a=accel, v=vel, t=0, r=round)
movel(pose_trans(f_name,p[0.00000,0.23795,-0.08433,-0.00000,-1.57080,0.00000]), a=accel, v=vel, t=0, r=round)
movel(pose_trans(f_name,p[0.00000,0.24045,-0.08433,-0.00000,-1.57080,0.00000]), a=accel, v=vel, t=0, r=round)
movel(pose_trans(f_name,p[0.00000,0.24295,-0.08433,-0.00000,-1.57080,0.00000]), a=accel, v=vel, t=0, r=round)
movel(pose_trans(f_name,p[0.00000,0.24545,-0.08433,-0.00000,-1.57080,0.00000]), a=accel, v=vel, t=0, r=round)
movel(pose_trans(f_name,p[0.00000,0.24795,-0.08433,-0.00000,-1.57080,0.00000]), a=accel, v=vel, t=0, r=round)
movel(pose_trans(f_name,p[0.00000,0.25045,-0.08433,-0.00000,-1.57080,0.00000]), a=accel, v=vel, t=0, r=round)
movel(pose_trans(f_name,p[0.00000,0.25295,-0.08433,-0.00000,-1.57080,0.00000]), a=accel, v=vel, t=0, r=round)
movel(pose_trans(f_name,p[0.00000,0.25545,-0.08433,-0.00000,-1.57080,0.00000]), a=accel, v=vel, t=0, r=round)
movel(pose_trans(f_name,p[0.00000,0.25795,-0.08433,-0.00000,-1.57080,0.00000]), a=accel, v=vel, t=0, r=round)
movel(pose_trans(f_name,p[0.00000,0.26045,-0.08433,-0.00000,-1.57080,0.00000]), a=accel, v=vel, t=0, r=round)
movel(pose_trans(f_name,p[0.00000,0.26295,-0.08433,-0.00000,-1.57080,0.00000]), a=accel, v=vel, t=0, r=round)
movel(pose_trans(f_name,p[0.00000,0.26545,-0.08433,-0.00000,-1.57080,0.00000]), a=accel, v=vel, t=0, r=round)
movel(pose_trans(f_name,p[0.00000,0.26795,-0.08433,-0.00000,-1.57080,0.00000]), a=accel, v=vel, t=0, r=round)
movel(pose_trans(f_name,p[0.00000,0.27045,-0.08433,-0.00000,-1.57080,0.00000]), a=accel, v=vel, t=0, r=round)
movel(pose_trans(f_name,p[0.00000,0.27295,-0.08433,-0.00000,-1.57080,0.00000]), a=accel, v=vel, t=0, r=round)
movel(pose_trans(f_name,p[0.00000,0.27545,-0.08433,-0.00000,-1.57080,0.00000]), a=accel, v=vel, t=0, r=round)
movel(pose_trans(f_name,p[0.00000,0.27795,-0.08433,-0.00000,-1.57080,0.00000]), a=accel, v=vel, t=0, r=round)
movel(pose_trans(f_name,p[0.00000,0.28045,-0.08433,-0.00000,-1.57080,0.00000]), a=accel, v=vel, t=0, r=round)
movel(pose_trans(f_name,p[0.00000,0.28295,-0.08433,-0.00000,-1.57080,0.00000]), a=accel, v=vel, t=0, r=round)
movel(pose_trans(f_name,p[0.00000,0.28545,-0.08433,-0.00000,-1.57080,0.00000]), a=accel, v=vel, t=0, r=round)
movel(pose_trans(f_name,p[0.00000,0.28795,-0.08433,-0.00000,-1.57080,0.00000]), a=accel, v=vel, t=0, r=round)
movel(pose_trans(f_name,p[0.00000,0.29045,-0.08433,-0.00000,-1.57080,0.00000]), a=accel, v=vel, t=0, r=round)
movel(pose_trans(f_name,p[0.00000,0.29295,-0.08433,-0.00000,-1.57080,0.00000]), a=accel, v=vel, t=0, r=round)
movel(pose_trans(f_name,p[0.00000,0.29545,-0.08433,-0.00000,-1.57080,0.00000]), a=accel, v=vel, t=0, r=round)
movel(pose_trans(f_name,p[0.00000,0.29795,-0.08433,-0.00000,-1.57080,0.00000]), a=accel, v=vel, t=0, r=round)
movel(pose_trans(f_name,p[0.00000,0.30044,-0.08433,-0.00000,-1.57080,0.00000]), a=accel, v=vel, t=0, r=round)
movel(pose_trans(f_name,p[0.00000,0.30294,-0.08433,-0.00000,-1.57080,0.00000]), a=accel, v=vel, t=0, r=round)
movel(pose_trans(f_name,p[0.00000,0.30544,-0.08433,-0.00000,-1.57080,0.00000]), a=accel, v=vel, t=0, r=round)
movel(pose_trans(f_name,p[0.00000,0.30794,-0.08433,-0.00000,-1.57080,0.00000]), a=accel, v=vel, t=0, r=round)
movel(pose_trans(f_name,p[0.00000,0.31044,-0.08433,-0.00000,-1.57080,0.00000]), a=accel, v=vel, t=0, r=round)
movel(pose_trans(f_name,p[0.00000,0.31294,-0.08433,-0.00000,-1.57080,0.00000]), a=accel, v=vel, t=0, r=round)
movel(pose_trans(f_name,p[0.00000,0.31544,-0.08433,-0.00000,-1.57080,0.00000]), a=accel, v=vel, t=0, r=round)
movel(pose_trans(f_name,p[0.00000,0.31794,-0.08433,-0.00000,-1.57080,0.00000]), a=accel, v=vel, t=0, r=round)
movel(pose_trans(f_name,p[0.00000,0.32044,-0.08433,-0.00000,-1.57080,0.00000]), a=accel, v=vel, t=0, r=round)
movel(pose_trans(f_name,p[0.00000,0.32294,-0.08433,-0.00000,-1.57080,0.00000]), a=accel, v=vel, t=0, r=round)
movel(pose_trans(f_name,p[0.00000,0.32544,-0.08433,-0.00000,-1.57080,0.00000]), a=accel, v=vel, t=0, r=round)
movel(pose_trans(f_name,p[0.00000,0.32794,-0.08433,-0.00000,-1.57080,0.00000]), a=accel, v=vel, t=0, r=round)
movel(pose_trans(f_name,p[0.00000,0.33044,-0.08433,-0.00000,-1.57080,0.00000]), a=accel, v=vel, t=0, r=round)
movel(pose_trans(f_name,p[0.00000,0.33294,-0.08433,-0.00000,-1.57080,0.00000]), a=accel, v=vel, t=0, r=round)
movel(pose_trans(f_name,p[0.00000,0.33544,-0.08433,-0.00000,-1.57080,0.00000]), a=accel, v=vel, t=0, r=round)
movel(pose_trans(f_name,p[0.00000,0.33794,-0.08433,-0.00000,-1.57080,0.00000]), a=accel, v=vel, t=0, r=round)
movel(pose_trans(f_name,p[0.00000,0.33919,-0.08422,-0.00000,-1.57080,0.00000]), a=accel, v=vel, t=0, r=round)
movel(pose_trans(f_name,p[0.00000,0.34042,-0.08391,-0.00000,-1.57080,0.00000]), a=accel, v=vel, t=0, r=round)
movel(pose_trans(f_name,p[0.00000,0.34153,-0.08344,-0.00000,-1.57080,0.00000]), a=accel, v=vel, t=0, r=round)
movel(pose_trans(f_name,p[0.00000,0.34255,-0.08282,-0.00000,-1.57080,0.00000]), a=accel, v=vel, t=0, r=round)
movel(pose_trans(f_name,p[0.00000,0.34351,-0.08200,-0.00000,-1.57080,0.00000]), a=accel, v=vel, t=0, r=round)
movel(pose_trans(f_name,p[0.00000,0.34430,-0.08109,-0.00000,-1.57080,0.00000]), a=accel, v=vel, t=0, r=round)
movel(pose_trans(f_name,p[0.00000,0.34494,-0.08008,-0.00000,-1.57080,0.00000]), a=accel, v=vel, t=0, r=round)
movel(pose_trans(f_name,p[0.00000,0.34544,-0.07892,-0.00000,-1.57080,0.00000]), a=accel, v=vel, t=0, r=round)
movel(pose_trans(f_name,p[0.00000,0.34576,-0.07769,-0.00000,-1.57080,0.00000]), a=accel, v=vel, t=0, r=round)
movel(pose_trans(f_name,p[0.00000,0.34587,-0.07649,-0.00000,-1.57080,0.00000]), a=accel, v=vel, t=0, r=round)
movel(pose_trans(f_name,p[0.00000,0.34587,-0.07524,-0.00000,-1.57080,0.00000]), a=accel, v=vel, t=0, r=round)
movel(pose_trans(f_name,p[0.00000,0.34587,-0.07274,-0.00000,-1.57080,0.00000]), a=accel, v=vel, t=0, r=round)
movel(pose_trans(f_name,p[0.00000,0.34587,-0.07024,-0.00000,-1.57080,0.00000]), a=accel, v=vel, t=0, r=round)
movel(pose_trans(f_name,p[0.00000,0.34587,-0.06774,-0.00000,-1.57080,0.00000]), a=accel, v=vel, t=0, r=round)
movel(pose_trans(f_name,p[0.00000,0.34587,-0.06524,-0.00000,-1.57080,0.00000]), a=accel, v=vel, t=0, r=round)
movel(pose_trans(f_name,p[0.00000,0.34587,-0.06274,-0.00000,-1.57080,0.00000]), a=accel, v=vel, t=0, r=round)
movel(pose_trans(f_name,p[0.00000,0.34587,-0.06024,-0.00000,-1.57080,0.00000]), a=accel, v=vel, t=0, r=round)
movel(pose_trans(f_name,p[0.00000,0.34587,-0.05774,-0.00000,-1.57080,0.00000]), a=accel, v=vel, t=0, r=round)
movel(pose_trans(f_name,p[0.00000,0.34587,-0.05524,-0.00000,-1.57080,0.00000]), a=accel, v=vel, t=0, r=round)
movel(pose_trans(f_name,p[0.00000,0.34587,-0.05274,-0.00000,-1.57080,0.00000]), a=accel, v=vel, t=0, r=round)
movel(pose_trans(f_name,p[0.00000,0.34587,-0.05024,-0.00000,-1.57080,0.00000]), a=accel, v=vel, t=0, r=round)
movel(pose_trans(f_name,p[0.00000,0.34587,-0.04774,-0.00000,-1.57080,0.00000]), a=accel, v=vel, t=0, r=round)
movel(pose_trans(f_name,p[0.00000,0.34587,-0.04524,-0.00000,-1.57080,0.00000]), a=accel, v=vel, t=0, r=round)
movel(pose_trans(f_name,p[0.00000,0.34587,-0.04274,-0.00000,-1.57080,0.00000]), a=accel, v=vel, t=0, r=round)
movel(pose_trans(f_name,p[0.00000,0.34587,-0.04024,-0.00000,-1.57080,0.00000]), a=accel, v=vel, t=0, r=round)
movel(pose_trans(f_name,p[0.00000,0.34587,-0.03774,-0.00000,-1.57080,0.00000]), a=accel, v=vel, t=0, r=round)
movel(pose_trans(f_name,p[0.00000,0.34587,-0.03524,-0.00000,-1.57080,0.00000]), a=accel, v=vel, t=0, r=round)
movel(pose_trans(f_name,p[0.00000,0.34587,-0.03274,-0.00000,-1.57080,0.00000]), a=accel, v=vel, t=0, r=round)
movel(pose_trans(f_name,p[0.00000,0.34587,-0.03024,-0.00000,-1.57080,0.00000]), a=accel, v=vel, t=0, r=round)
movel(pose_trans(f_name,p[0.00000,0.34587,-0.02774,-0.00000,-1.57080,0.00000]), a=accel, v=vel, t=0, r=round)
movel(pose_trans(f_name,p[0.00000,0.34587,-0.02524,-0.00000,-1.57080,0.00000]), a=accel, v=vel, t=0, r=round)
movel(pose_trans(f_name,p[0.00000,0.34587,-0.02274,-0.00000,-1.57080,0.00000]), a=accel, v=vel, t=0, r=round)
movel(pose_trans(f_name,p[0.00000,0.34587,-0.02024,-0.00000,-1.57080,0.00000]), a=accel, v=vel, t=0, r=round)
movel(pose_trans(f_name,p[0.00000,0.34587,-0.01774,-0.00000,-1.57080,0.00000]), a=accel, v=vel, t=0, r=round)
movel(pose_trans(f_name,p[0.00000,0.34587,-0.01524,-0.00000,-1.57080,0.00000]), a=accel, v=vel, t=0, r=round)
movel(pose_trans(f_name,p[0.00000,0.34587,-0.01274,-0.00000,-1.57080,0.00000]), a=accel, v=vel, t=0, r=round)
movel(pose_trans(f_name,p[0.00000,0.34587,-0.01024,-0.00000,-1.57080,0.00000]), a=accel, v=vel, t=0, r=round)
movel(pose_trans(f_name,p[0.00000,0.34587,-0.00774,-0.00000,-1.57080,0.00000]), a=accel, v=vel, t=0, r=round)
movel(pose_trans(f_name,p[0.00000,0.34587,-0.00524,-0.00000,-1.57080,0.00000]), a=accel, v=vel, t=0, r=round)
movel(pose_trans(f_name,p[0.00000,0.34587,-0.00274,-0.00000,-1.57080,0.00000]), a=accel, v=vel, t=0, r=round)
movel(pose_trans(f_name,p[0.00000,0.34587,-0.00024,-0.00000,-1.57080,0.00000]), a=accel, v=vel, t=0, r=round)
movel(pose_trans(f_name,p[0.00000,0.34587,0.00226,-0.00000,-1.57080,0.00000]), a=accel, v=vel, t=0, r=round)
movel(pose_trans(f_name,p[0.00000,0.34587,0.00475,-0.00000,-1.57080,0.00000]), a=accel, v=vel, t=0, r=round)
movel(pose_trans(f_name,p[0.00000,0.34587,0.00726,-0.00000,-1.57080,0.00000]), a=accel, v=vel, t=0, r=round)
movel(pose_trans(f_name,p[0.00000,0.34587,0.00976,-0.00000,-1.57080,0.00000]), a=accel, v=vel, t=0, r=round)
movel(pose_trans(f_name,p[0.00000,0.34587,0.01226,-0.00000,-1.57080,0.00000]), a=accel, v=vel, t=0, r=round)
movel(pose_trans(f_name,p[0.00000,0.34587,0.01476,-0.00000,-1.57080,0.00000]), a=accel, v=vel, t=0, r=round)
movel(pose_trans(f_name,p[0.00000,0.34587,0.01725,-0.00000,-1.57080,0.00000]), a=accel, v=vel, t=0, r=round)
movel(pose_trans(f_name,p[0.00000,0.34587,0.01975,-0.00000,-1.57080,0.00000]), a=accel, v=vel, t=0, r=round)
movel(pose_trans(f_name,p[0.00000,0.34587,0.02226,-0.00000,-1.57080,0.00000]), a=accel, v=vel, t=0, r=round)
movel(pose_trans(f_name,p[0.00000,0.34587,0.02475,-0.00000,-1.57080,0.00000]), a=accel, v=vel, t=0, r=round)
movel(pose_trans(f_name,p[0.00000,0.34587,0.02725,-0.00000,-1.57080,0.00000]), a=accel, v=vel, t=0, r=round)
movel(pose_trans(f_name,p[0.00000,0.34587,0.02975,-0.00000,-1.57080,0.00000]), a=accel, v=vel, t=0, r=round)
movel(pose_trans(f_name,p[0.00000,0.34587,0.03225,-0.00000,-1.57080,0.00000]), a=accel, v=vel, t=0, r=round)
movel(pose_trans(f_name,p[0.00000,0.34587,0.03475,-0.00000,-1.57080,0.00000]), a=accel, v=vel, t=0, r=round)
movel(pose_trans(f_name,p[0.00000,0.34587,0.03725,-0.00000,-1.57080,0.00000]), a=accel, v=vel, t=0, r=round)
movel(pose_trans(f_name,p[0.00000,0.34587,0.03975,-0.00000,-1.57080,0.00000]), a=accel, v=vel, t=0, r=round)
movel(pose_trans(f_name,p[0.00000,0.34587,0.04225,-0.00000,-1.57080,0.00000]), a=accel, v=vel, t=0, r=round)
movel(pose_trans(f_name,p[0.00000,0.34587,0.04475,-0.00000,-1.57080,0.00000]), a=accel, v=vel, t=0, r=round)
movel(pose_trans(f_name,p[0.00000,0.34587,0.04725,-0.00000,-1.57080,0.00000]), a=accel, v=vel, t=0, r=round)
movel(pose_trans(f_name,p[0.00000,0.34587,0.04975,-0.00000,-1.57080,0.00000]), a=accel, v=vel, t=0, r=round)
movel(pose_trans(f_name,p[0.00000,0.34587,0.05225,-0.00000,-1.57080,0.00000]), a=accel, v=vel, t=0, r=round)
movel(pose_trans(f_name,p[0.00000,0.34587,0.05475,-0.00000,-1.57080,0.00000]), a=accel, v=vel, t=0, r=round)
movel(pose_trans(f_name,p[0.00000,0.34587,0.05725,-0.00000,-1.57080,0.00000]), a=accel, v=vel, t=0, r=round)
movel(pose_trans(f_name,p[0.00000,0.34587,0.05975,-0.00000,-1.57080,0.00000]), a=accel, v=vel, t=0, r=round)
movel(pose_trans(f_name,p[0.00000,0.34587,0.06225,-0.00000,-1.57080,0.00000]), a=accel, v=vel, t=0, r=round)
movel(pose_trans(f_name,p[0.00000,0.34587,0.06475,-0.00000,-1.57080,0.00000]), a=accel, v=vel, t=0, r=round)
movel(pose_trans(f_name,p[0.00000,0.34587,0.06725,-0.00000,-1.57080,0.00000]), a=accel, v=vel, t=0, r=round)
movel(pose_trans(f_name,p[0.00000,0.34587,0.06975,-0.00000,-1.57080,0.00000]), a=accel, v=vel, t=0, r=round)
movel(pose_trans(f_name,p[0.00000,0.34587,0.07225,-0.00000,-1.57080,0.00000]), a=accel, v=vel, t=0, r=round)
movel(pose_trans(f_name,p[0.00000,0.34587,0.07475,-0.00000,-1.57080,0.00000]), a=accel, v=vel, t=0, r=round)
movel(pose_trans(f_name,p[0.00000,0.34584,0.07711,-0.00000,-1.57080,0.00000]), a=accel, v=vel, t=0, r=round)
movel(pose_trans(f_name,p[0.00000,0.34561,0.07836,-0.00000,-1.57080,0.00000]), a=accel, v=vel, t=0, r=round)
movel(pose_trans(f_name,p[0.00000,0.34522,0.07950,-0.00000,-1.57080,0.00000]), a=accel, v=vel, t=0, r=round)
movel(pose_trans(f_name,p[0.00000,0.34466,0.08056,-0.00000,-1.57080,0.00000]), a=accel, v=vel, t=0, r=round)
movel(pose_trans(f_name,p[0.00000,0.34392,0.08157,-0.00000,-1.57080,0.00000]), a=accel, v=vel, t=0, r=round)
movel(pose_trans(f_name,p[0.00000,0.34301,0.08246,-0.00000,-1.57080,0.00000]), a=accel, v=vel, t=0, r=round)
movel(pose_trans(f_name,p[0.00000,0.34203,0.08317,-0.00000,-1.57080,0.00000]), a=accel, v=vel, t=0, r=round)
movel(pose_trans(f_name,p[0.00000,0.34091,0.08373,-0.00000,-1.57080,0.00000]), a=accel, v=vel, t=0, r=round)
movel(pose_trans(f_name,p[0.00000,0.33971,0.08412,-0.00000,-1.57080,0.00000]), a=accel, v=vel, t=0, r=round)
movel(pose_trans(f_name,p[0.00000,0.33852,0.08430,-0.00000,-1.57080,0.00000]), a=accel, v=vel, t=0, r=round)
movel(pose_trans(f_name,p[0.00000,0.33725,0.08433,-0.00000,-1.57080,0.00000]), a=accel, v=vel, t=0, r=round)
movel(pose_trans(f_name,p[0.00000,0.33475,0.08433,-0.00000,-1.57080,0.00000]), a=accel, v=vel, t=0, r=round)
movel(pose_trans(f_name,p[0.00000,0.33225,0.08433,-0.00000,-1.57080,0.00000]), a=accel, v=vel, t=0, r=round)
movel(pose_trans(f_name,p[0.00000,0.32976,0.08433,-0.00000,-1.57080,0.00000]), a=accel, v=vel, t=0, r=round)
movel(pose_trans(f_name,p[0.00000,0.32726,0.08433,-0.00000,-1.57080,0.00000]), a=accel, v=vel, t=0, r=round)
movel(pose_trans(f_name,p[0.00000,0.32476,0.08433,-0.00000,-1.57080,0.00000]), a=accel, v=vel, t=0, r=round)
movel(pose_trans(f_name,p[0.00000,0.32226,0.08433,-0.00000,-1.57080,0.00000]), a=accel, v=vel, t=0, r=round)
movel(pose_trans(f_name,p[0.00000,0.31976,0.08433,-0.00000,-1.57080,0.00000]), a=accel, v=vel, t=0, r=round)
movel(pose_trans(f_name,p[0.00000,0.31726,0.08433,-0.00000,-1.57080,0.00000]), a=accel, v=vel, t=0, r=round)
movel(pose_trans(f_name,p[0.00000,0.31476,0.08433,-0.00000,-1.57080,0.00000]), a=accel, v=vel, t=0, r=round)
movel(pose_trans(f_name,p[0.00000,0.31226,0.08433,-0.00000,-1.57080,0.00000]), a=accel, v=vel, t=0, r=round)
movel(pose_trans(f_name,p[0.00000,0.30976,0.08433,-0.00000,-1.57080,0.00000]), a=accel, v=vel, t=0, r=round)
movel(pose_trans(f_name,p[0.00000,0.30726,0.08433,-0.00000,-1.57080,0.00000]), a=accel, v=vel, t=0, r=round)
movel(pose_trans(f_name,p[0.00000,0.30476,0.08433,-0.00000,-1.57080,0.00000]), a=accel, v=vel, t=0, r=round)
movel(pose_trans(f_name,p[0.00000,0.30226,0.08433,-0.00000,-1.57080,0.00000]), a=accel, v=vel, t=0, r=round)
movel(pose_trans(f_name,p[0.00000,0.29976,0.08433,-0.00000,-1.57080,0.00000]), a=accel, v=vel, t=0, r=round)
movel(pose_trans(f_name,p[0.00000,0.29726,0.08433,-0.00000,-1.57080,0.00000]), a=accel, v=vel, t=0, r=round)
movel(pose_trans(f_name,p[0.00000,0.29476,0.08433,-0.00000,-1.57080,0.00000]), a=accel, v=vel, t=0, r=round)
movel(pose_trans(f_name,p[0.00000,0.29226,0.08433,-0.00000,-1.57080,0.00000]), a=accel, v=vel, t=0, r=round)
movel(pose_trans(f_name,p[0.00000,0.28976,0.08433,-0.00000,-1.57080,0.00000]), a=accel, v=vel, t=0, r=round)
movel(pose_trans(f_name,p[0.00000,0.28726,0.08433,-0.00000,-1.57080,0.00000]), a=accel, v=vel, t=0, r=round)
movel(pose_trans(f_name,p[0.00000,0.28476,0.08433,-0.00000,-1.57080,0.00000]), a=accel, v=vel, t=0, r=round)
movel(pose_trans(f_name,p[0.00000,0.28226,0.08433,-0.00000,-1.57080,0.00000]), a=accel, v=vel, t=0, r=round)
movel(pose_trans(f_name,p[0.00000,0.27976,0.08433,-0.00000,-1.57080,0.00000]), a=accel, v=vel, t=0, r=round)
movel(pose_trans(f_name,p[0.00000,0.27726,0.08433,-0.00000,-1.57080,0.00000]), a=accel, v=vel, t=0, r=round)
movel(pose_trans(f_name,p[0.00000,0.27476,0.08433,-0.00000,-1.57080,0.00000]), a=accel, v=vel, t=0, r=round)
movel(pose_trans(f_name,p[0.00000,0.27226,0.08433,-0.00000,-1.57080,0.00000]), a=accel, v=vel, t=0, r=round)
movel(pose_trans(f_name,p[0.00000,0.26976,0.08433,-0.00000,-1.57080,0.00000]), a=accel, v=vel, t=0, r=round)
movel(pose_trans(f_name,p[0.00000,0.26726,0.08433,-0.00000,-1.57080,0.00000]), a=accel, v=vel, t=0, r=round)
movel(pose_trans(f_name,p[0.00000,0.26476,0.08433,-0.00000,-1.57080,0.00000]), a=accel, v=vel, t=0, r=round)
movel(pose_trans(f_name,p[0.00000,0.26226,0.08433,-0.00000,-1.57080,0.00000]), a=accel, v=vel, t=0, r=round)
movel(pose_trans(f_name,p[0.00000,0.25976,0.08433,-0.00000,-1.57080,0.00000]), a=accel, v=vel, t=0, r=round)
movel(pose_trans(f_name,p[0.00000,0.25726,0.08433,-0.00000,-1.57080,0.00000]), a=accel, v=vel, t=0, r=round)
movel(pose_trans(f_name,p[0.00000,0.25476,0.08433,-0.00000,-1.57080,0.00000]), a=accel, v=vel, t=0, r=round)
movel(pose_trans(f_name,p[0.00000,0.25226,0.08433,-0.00000,-1.57080,0.00000]), a=accel, v=vel, t=0, r=round)
movel(pose_trans(f_name,p[0.00000,0.24976,0.08433,-0.00000,-1.57080,0.00000]), a=accel, v=vel, t=0, r=round)
movel(pose_trans(f_name,p[0.00000,0.24726,0.08433,-0.00000,-1.57080,0.00000]), a=accel, v=vel, t=0, r=round)
movel(pose_trans(f_name,p[0.00000,0.24476,0.08433,-0.00000,-1.57080,0.00000]), a=accel, v=vel, t=0, r=round)
movel(pose_trans(f_name,p[0.00000,0.24226,0.08433,-0.00000,-1.57080,0.00000]), a=accel, v=vel, t=0, r=round)
movel(pose_trans(f_name,p[0.00000,0.23976,0.08433,-0.00000,-1.57080,0.00000]), a=accel, v=vel, t=0, r=round)
movel(pose_trans(f_name,p[0.00000,0.23726,0.08433,-0.00000,-1.57080,0.00000]), a=accel, v=vel, t=0, r=round)
movel(pose_trans(f_name,p[0.00000,0.23476,0.08433,-0.00000,-1.57080,0.00000]), a=accel, v=vel, t=0, r=round)
movel(pose_trans(f_name,p[0.00000,0.23226,0.08433,-0.00000,-1.57080,0.00000]), a=accel, v=vel, t=0, r=round)
movel(pose_trans(f_name,p[0.00000,0.22976,0.08433,-0.00000,-1.57080,0.00000]), a=accel, v=vel, t=0, r=round)
movel(pose_trans(f_name,p[0.00000,0.22726,0.08433,-0.00000,-1.57080,0.00000]), a=accel, v=vel, t=0, r=round)
movel(pose_trans(f_name,p[0.00000,0.22476,0.08433,-0.00000,-1.57080,0.00000]), a=accel, v=vel, t=0, r=round)
movel(pose_trans(f_name,p[0.00000,0.22226,0.08433,-0.00000,-1.57080,0.00000]), a=accel, v=vel, t=0, r=round)
movel(pose_trans(f_name,p[0.00000,0.21976,0.08433,-0.00000,-1.57080,0.00000]), a=accel, v=vel, t=0, r=round)
movel(pose_trans(f_name,p[0.00000,0.21726,0.08433,-0.00000,-1.57080,0.00000]), a=accel, v=vel, t=0, r=round)
movel(pose_trans(f_name,p[0.00000,0.21476,0.08433,-0.00000,-1.57080,0.00000]), a=accel, v=vel, t=0, r=round)
movel(pose_trans(f_name,p[0.00000,0.21226,0.08433,-0.00000,-1.57080,0.00000]), a=accel, v=vel, t=0, r=round)
movel(pose_trans(f_name,p[0.00000,0.20976,0.08433,-0.00000,-1.57080,0.00000]), a=accel, v=vel, t=0, r=round)
movel(pose_trans(f_name,p[0.00000,0.20726,0.08433,-0.00000,-1.57080,0.00000]), a=accel, v=vel, t=0, r=round)
movel(pose_trans(f_name,p[0.00000,0.20476,0.08433,-0.00000,-1.57080,0.00000]), a=accel, v=vel, t=0, r=round)
movel(pose_trans(f_name,p[0.00000,0.20226,0.08433,-0.00000,-1.57080,0.00000]), a=accel, v=vel, t=0, r=round)
movel(pose_trans(f_name,p[0.00000,0.19976,0.08433,-0.00000,-1.57080,0.00000]), a=accel, v=vel, t=0, r=round)
movel(pose_trans(f_name,p[0.00000,0.19726,0.08433,-0.00000,-1.57080,0.00000]), a=accel, v=vel, t=0, r=round)
movel(pose_trans(f_name,p[0.00000,0.19476,0.08433,-0.00000,-1.57080,0.00000]), a=accel, v=vel, t=0, r=round)
movel(pose_trans(f_name,p[0.00000,0.19226,0.08433,-0.00000,-1.57080,0.00000]), a=accel, v=vel, t=0, r=round)
movel(pose_trans(f_name,p[0.00000,0.18976,0.08433,-0.00000,-1.57080,0.00000]), a=accel, v=vel, t=0, r=round)
movel(pose_trans(f_name,p[0.00000,0.18726,0.08433,-0.00000,-1.57080,0.00000]), a=accel, v=vel, t=0, r=round)
movel(pose_trans(f_name,p[0.00000,0.18476,0.08433,-0.00000,-1.57080,0.00000]), a=accel, v=vel, t=0, r=round)
movel(pose_trans(f_name,p[0.00000,0.18226,0.08433,-0.00000,-1.57080,0.00000]), a=accel, v=vel, t=0, r=round)
movel(pose_trans(f_name,p[0.00000,0.17976,0.08433,-0.00000,-1.57080,0.00000]), a=accel, v=vel, t=0, r=round)
movel(pose_trans(f_name,p[0.00000,0.17726,0.08433,-0.00000,-1.57080,0.00000]), a=accel, v=vel, t=0, r=round)
movel(pose_trans(f_name,p[0.00000,0.17476,0.08433,-0.00000,-1.57080,0.00000]), a=accel, v=vel, t=0, r=round)
movel(pose_trans(f_name,p[0.00000,0.17226,0.08433,-0.00000,-1.57080,0.00000]), a=accel, v=vel, t=0, r=round)
movel(pose_trans(f_name,p[0.00000,0.16976,0.08433,-0.00000,-1.57080,0.00000]), a=accel, v=vel, t=0, r=round)
movel(pose_trans(f_name,p[0.00000,0.16726,0.08433,-0.00000,-1.57080,0.00000]), a=accel, v=vel, t=0, r=round)
movel(pose_trans(f_name,p[0.00000,0.16476,0.08433,-0.00000,-1.57080,0.00000]), a=accel, v=vel, t=0, r=round)
movel(pose_trans(f_name,p[0.00000,0.16226,0.08433,-0.00000,-1.57080,0.00000]), a=accel, v=vel, t=0, r=round)
movel(pose_trans(f_name,p[0.00000,0.15976,0.08433,-0.00000,-1.57080,0.00000]), a=accel, v=vel, t=0, r=round)
movel(pose_trans(f_name,p[0.00000,0.15726,0.08433,-0.00000,-1.57080,0.00000]), a=accel, v=vel, t=0, r=round)
movel(pose_trans(f_name,p[0.00000,0.15476,0.08433,-0.00000,-1.57080,0.00000]), a=accel, v=vel, t=0, r=round)
movel(pose_trans(f_name,p[0.00000,0.15226,0.08433,-0.00000,-1.57080,0.00000]), a=accel, v=vel, t=0, r=round)
movel(pose_trans(f_name,p[0.00000,0.14976,0.08433,-0.00000,-1.57080,0.00000]), a=accel, v=vel, t=0, r=round)
movel(pose_trans(f_name,p[0.00000,0.14726,0.08433,-0.00000,-1.57080,0.00000]), a=accel, v=vel, t=0, r=round)
movel(pose_trans(f_name,p[0.00000,0.14476,0.08433,-0.00000,-1.57080,0.00000]), a=accel, v=vel, t=0, r=round)
movel(pose_trans(f_name,p[0.00000,0.14226,0.08433,-0.00000,-1.57080,0.00000]), a=accel, v=vel, t=0, r=round)
movel(pose_trans(f_name,p[0.00000,0.13976,0.08433,-0.00000,-1.57080,0.00000]), a=accel, v=vel, t=0, r=round)
movel(pose_trans(f_name,p[0.00000,0.13726,0.08433,-0.00000,-1.57080,0.00000]), a=accel, v=vel, t=0, r=round)
movel(pose_trans(f_name,p[0.00000,0.13476,0.08433,-0.00000,-1.57080,0.00000]), a=accel, v=vel, t=0, r=round)
movel(pose_trans(f_name,p[0.00000,0.13226,0.08433,-0.00000,-1.57080,0.00000]), a=accel, v=vel, t=0, r=round)
movel(pose_trans(f_name,p[0.00000,0.12976,0.08433,-0.00000,-1.57080,0.00000]), a=accel, v=vel, t=0, r=round)
movel(pose_trans(f_name,p[0.00000,0.12726,0.08433,-0.00000,-1.57080,0.00000]), a=accel, v=vel, t=0, r=round)
movel(pose_trans(f_name,p[0.00000,0.12476,0.08433,-0.00000,-1.57080,0.00000]), a=accel, v=vel, t=0, r=round)
movel(pose_trans(f_name,p[0.00000,0.12226,0.08433,-0.00000,-1.57080,0.00000]), a=accel, v=vel, t=0, r=round)
movel(pose_trans(f_name,p[0.00000,0.11976,0.08433,-0.00000,-1.57080,0.00000]), a=accel, v=vel, t=0, r=round)
movel(pose_trans(f_name,p[0.00000,0.11726,0.08433,-0.00000,-1.57080,0.00000]), a=accel, v=vel, t=0, r=round)
movel(pose_trans(f_name,p[0.00000,0.11477,0.08433,-0.00000,-1.57080,0.00000]), a=accel, v=vel, t=0, r=round)
movel(pose_trans(f_name,p[0.00000,0.11227,0.08433,-0.00000,-1.57080,0.00000]), a=accel, v=vel, t=0, r=round)
movel(pose_trans(f_name,p[0.00000,0.10977,0.08433,-0.00000,-1.57080,0.00000]), a=accel, v=vel, t=0, r=round)
movel(pose_trans(f_name,p[0.00000,0.10726,0.08433,-0.00000,-1.57080,0.00000]), a=accel, v=vel, t=0, r=round)
movel(pose_trans(f_name,p[0.00000,0.10476,0.08433,-0.00000,-1.57080,0.00000]), a=accel, v=vel, t=0, r=round)
movel(pose_trans(f_name,p[0.00000,0.10227,0.08433,-0.00000,-1.57080,0.00000]), a=accel, v=vel, t=0, r=round)
movel(pose_trans(f_name,p[0.00000,0.09977,0.08433,-0.00000,-1.57080,0.00000]), a=accel, v=vel, t=0, r=round)
movel(pose_trans(f_name,p[0.00000,0.09727,0.08433,-0.00000,-1.57080,0.00000]), a=accel, v=vel, t=0, r=round)
movel(pose_trans(f_name,p[0.00000,0.09477,0.08433,-0.00000,-1.57080,0.00000]), a=accel, v=vel, t=0, r=round)
movel(pose_trans(f_name,p[0.00000,0.09227,0.08433,-0.00000,-1.57080,0.00000]), a=accel, v=vel, t=0, r=round)
movel(pose_trans(f_name,p[0.00000,0.08977,0.08433,-0.00000,-1.57080,0.00000]), a=accel, v=vel, t=0, r=round)
movel(pose_trans(f_name,p[0.00000,0.08727,0.08433,-0.00000,-1.57080,0.00000]), a=accel, v=vel, t=0, r=round)
movel(pose_trans(f_name,p[0.00000,0.08477,0.08433,-0.00000,-1.57080,0.00000]), a=accel, v=vel, t=0, r=round)
movel(pose_trans(f_name,p[0.00000,0.08227,0.08433,-0.00000,-1.57080,0.00000]), a=accel, v=vel, t=0, r=round)
movel(pose_trans(f_name,p[0.00000,0.07977,0.08433,-0.00000,-1.57080,0.00000]), a=accel, v=vel, t=0, r=round)
movel(pose_trans(f_name,p[0.00000,0.07727,0.08433,-0.00000,-1.57080,0.00000]), a=accel, v=vel, t=0, r=round)
movel(pose_trans(f_name,p[0.00000,0.07477,0.08433,-0.00000,-1.57080,0.00000]), a=accel, v=vel, t=0, r=round)
movel(pose_trans(f_name,p[0.00000,0.07227,0.08433,-0.00000,-1.57080,0.00000]), a=accel, v=vel, t=0, r=round)
movel(pose_trans(f_name,p[0.00000,0.06977,0.08433,-0.00000,-1.57080,0.00000]), a=accel, v=vel, t=0, r=round)
movel(pose_trans(f_name,p[0.00000,0.06727,0.08433,-0.00000,-1.57080,0.00000]), a=accel, v=vel, t=0, r=round)
movel(pose_trans(f_name,p[0.00000,0.06477,0.08433,-0.00000,-1.57080,0.00000]), a=accel, v=vel, t=0, r=round)
movel(pose_trans(f_name,p[0.00000,0.06227,0.08433,-0.00000,-1.57080,0.00000]), a=accel, v=vel, t=0, r=round)
movel(pose_trans(f_name,p[0.00000,0.05977,0.08433,-0.00000,-1.57080,0.00000]), a=accel, v=vel, t=0, r=round)
movel(pose_trans(f_name,p[0.00000,0.05727,0.08433,-0.00000,-1.57080,0.00000]), a=accel, v=vel, t=0, r=round)
movel(pose_trans(f_name,p[0.00000,0.05477,0.08433,-0.00000,-1.57080,0.00000]), a=accel, v=vel, t=0, r=round)
movel(pose_trans(f_name,p[0.00000,0.05227,0.08433,-0.00000,-1.57080,0.00000]), a=accel, v=vel, t=0, r=round)
movel(pose_trans(f_name,p[0.00000,0.04977,0.08433,-0.00000,-1.57080,0.00000]), a=accel, v=vel, t=0, r=round)
movel(pose_trans(f_name,p[0.00000,0.04727,0.08433,-0.00000,-1.57080,0.00000]), a=accel, v=vel, t=0, r=round)
movel(pose_trans(f_name,p[0.00000,0.04477,0.08433,-0.00000,-1.57080,0.00000]), a=accel, v=vel, t=0, r=round)
movel(pose_trans(f_name,p[0.00000,0.04227,0.08433,-0.00000,-1.57080,0.00000]), a=accel, v=vel, t=0, r=round)
movel(pose_trans(f_name,p[0.00000,0.03977,0.08433,-0.00000,-1.57080,0.00000]), a=accel, v=vel, t=0, r=round)
movel(pose_trans(f_name,p[0.00000,0.03727,0.08433,-0.00000,-1.57080,0.00000]), a=accel, v=vel, t=0, r=round)
movel(pose_trans(f_name,p[0.00000,0.03477,0.08433,-0.00000,-1.57080,0.00000]), a=accel, v=vel, t=0, r=round)
movel(pose_trans(f_name,p[0.00000,0.03227,0.08433,-0.00000,-1.57080,0.00000]), a=accel, v=vel, t=0, r=round)
movel(pose_trans(f_name,p[0.00000,0.02977,0.08433,-0.00000,-1.57080,0.00000]), a=accel, v=vel, t=0, r=round)
movel(pose_trans(f_name,p[0.00000,0.02727,0.08433,-0.00000,-1.57080,0.00000]), a=accel, v=vel, t=0, r=round)
movel(pose_trans(f_name,p[0.00000,0.02477,0.08433,-0.00000,-1.57080,0.00000]), a=accel, v=vel, t=0, r=round)
movel(pose_trans(f_name,p[0.00000,0.02227,0.08433,-0.00000,-1.57080,0.00000]), a=accel, v=vel, t=0, r=round)
movel(pose_trans(f_name,p[0.00000,0.01977,0.08433,-0.00000,-1.57080,0.00000]), a=accel, v=vel, t=0, r=round)
movel(pose_trans(f_name,p[0.00000,0.01727,0.08433,-0.00000,-1.57080,0.00000]), a=accel, v=vel, t=0, r=round)
movel(pose_trans(f_name,p[0.00000,0.01477,0.08433,-0.00000,-1.57080,0.00000]), a=accel, v=vel, t=0, r=round)
movel(pose_trans(f_name,p[0.00000,0.01227,0.08433,-0.00000,-1.57080,0.00000]), a=accel, v=vel, t=0, r=round)
movel(pose_trans(f_name,p[0.00000,0.00977,0.08433,-0.00000,-1.57080,0.00000]), a=accel, v=vel, t=0, r=round)
movel(pose_trans(f_name,p[0.00000,0.00727,0.08433,-0.00000,-1.57080,0.00000]), a=accel, v=vel, t=0, r=round)
movel(pose_trans(f_name,p[0.00000,0.00477,0.08433,-0.00000,-1.57080,0.00000]), a=accel, v=vel, t=0, r=round)
movel(pose_trans(f_name,p[0.00000,0.00227,0.08433,-0.00000,-1.57080,0.00000]), a=accel, v=vel, t=0, r=round)
movel(pose_trans(f_name,p[0.00000,-0.00023,0.08433,-0.00000,-1.57080,0.00000]), a=accel, v=vel, t=0, r=round)
movel(pose_trans(f_name,p[0.00000,-0.00273,0.08433,-0.00000,-1.57080,0.00000]), a=accel, v=vel, t=0, r=round)
movel(pose_trans(f_name,p[0.00000,-0.00523,0.08433,-0.00000,-1.57080,0.00000]), a=accel, v=vel, t=0, r=round)
movel(pose_trans(f_name,p[0.00000,-0.00773,0.08433,-0.00000,-1.57080,0.00000]), a=accel, v=vel, t=0, r=round)
movel(pose_trans(f_name,p[0.00000,-0.01023,0.08433,-0.00000,-1.57080,0.00000]), a=accel, v=vel, t=0, r=round)
movel(pose_trans(f_name,p[0.00000,-0.01273,0.08433,-0.00000,-1.57080,0.00000]), a=accel, v=vel, t=0, r=round)
movel(pose_trans(f_name,p[0.00000,-0.01523,0.08433,-0.00000,-1.57080,0.00000]), a=accel, v=vel, t=0, r=round)
movel(pose_trans(f_name,p[0.00000,-0.01773,0.08433,-0.00000,-1.57080,0.00000]), a=accel, v=vel, t=0, r=round)
movel(pose_trans(f_name,p[0.00000,-0.02023,0.08433,-0.00000,-1.57080,0.00000]), a=accel, v=vel, t=0, r=round)
movel(pose_trans(f_name,p[0.00000,-0.02273,0.08433,-0.00000,-1.57080,0.00000]), a=accel, v=vel, t=0, r=round)
movel(pose_trans(f_name,p[0.00000,-0.02523,0.08433,-0.00000,-1.57080,0.00000]), a=accel, v=vel, t=0, r=round)
movel(pose_trans(f_name,p[0.00000,-0.02773,0.08433,-0.00000,-1.57080,0.00000]), a=accel, v=vel, t=0, r=round)
movel(pose_trans(f_name,p[0.00000,-0.03023,0.08433,-0.00000,-1.57080,0.00000]), a=accel, v=vel, t=0, r=round)
movel(pose_trans(f_name,p[0.00000,-0.03273,0.08433,-0.00000,-1.57080,0.00000]), a=accel, v=vel, t=0, r=round)
movel(pose_trans(f_name,p[0.00000,-0.03523,0.08433,-0.00000,-1.57080,0.00000]), a=accel, v=vel, t=0, r=round)
movel(pose_trans(f_name,p[0.00000,-0.03773,0.08433,-0.00000,-1.57080,0.00000]), a=accel, v=vel, t=0, r=round)
movel(pose_trans(f_name,p[0.00000,-0.04023,0.08433,-0.00000,-1.57080,0.00000]), a=accel, v=vel, t=0, r=round)
movel(pose_trans(f_name,p[0.00000,-0.04273,0.08433,-0.00000,-1.57080,0.00000]), a=accel, v=vel, t=0, r=round)
movel(pose_trans(f_name,p[0.00000,-0.04523,0.08433,-0.00000,-1.57080,0.00000]), a=accel, v=vel, t=0, r=round)
movel(pose_trans(f_name,p[0.00000,-0.04773,0.08433,-0.00000,-1.57080,0.00000]), a=accel, v=vel, t=0, r=round)
movel(pose_trans(f_name,p[0.00000,-0.05023,0.08433,-0.00000,-1.57080,0.00000]), a=accel, v=vel, t=0, r=round)
movel(pose_trans(f_name,p[0.00000,-0.05273,0.08433,-0.00000,-1.57080,0.00000]), a=accel, v=vel, t=0, r=round)
movel(pose_trans(f_name,p[0.00000,-0.05523,0.08433,-0.00000,-1.57080,0.00000]), a=accel, v=vel, t=0, r=round)
movel(pose_trans(f_name,p[0.00000,-0.05773,0.08433,-0.00000,-1.57080,0.00000]), a=accel, v=vel, t=0, r=round)
movel(pose_trans(f_name,p[0.00000,-0.06023,0.08433,-0.00000,-1.57080,0.00000]), a=accel, v=vel, t=0, r=round)
movel(pose_trans(f_name,p[0.00000,-0.06273,0.08433,-0.00000,-1.57080,0.00000]), a=accel, v=vel, t=0, r=round)
movel(pose_trans(f_name,p[0.00000,-0.06523,0.08433,-0.00000,-1.57080,0.00000]), a=accel, v=vel, t=0, r=round)
movel(pose_trans(f_name,p[0.00000,-0.06772,0.08433,-0.00000,-1.57080,0.00000]), a=accel, v=vel, t=0, r=round)
movel(pose_trans(f_name,p[0.00000,-0.07022,0.08433,-0.00000,-1.57080,0.00000]), a=accel, v=vel, t=0, r=round)
movel(pose_trans(f_name,p[0.00000,-0.07272,0.08433,-0.00000,-1.57080,0.00000]), a=accel, v=vel, t=0, r=round)
movel(pose_trans(f_name,p[0.00000,-0.07523,0.08433,-0.00000,-1.57080,0.00000]), a=accel, v=vel, t=0, r=round)
movel(pose_trans(f_name,p[0.00000,-0.07772,0.08433,-0.00000,-1.57080,0.00000]), a=accel, v=vel, t=0, r=round)
movel(pose_trans(f_name,p[0.00000,-0.08022,0.08433,-0.00000,-1.57080,0.00000]), a=accel, v=vel, t=0, r=round)
movel(pose_trans(f_name,p[0.00000,-0.08272,0.08433,-0.00000,-1.57080,0.00000]), a=accel, v=vel, t=0, r=round)
movel(pose_trans(f_name,p[0.00000,-0.08522,0.08433,-0.00000,-1.57080,0.00000]), a=accel, v=vel, t=0, r=round)
movel(pose_trans(f_name,p[0.00000,-0.08772,0.08433,-0.00000,-1.57080,0.00000]), a=accel, v=vel, t=0, r=round)
movel(pose_trans(f_name,p[0.00000,-0.09022,0.08433,-0.00000,-1.57080,0.00000]), a=accel, v=vel, t=0, r=round)
movel(pose_trans(f_name,p[0.00000,-0.09272,0.08433,-0.00000,-1.57080,0.00000]), a=accel, v=vel, t=0, r=round)
movel(pose_trans(f_name,p[0.00000,-0.09522,0.08433,-0.00000,-1.57080,0.00000]), a=accel, v=vel, t=0, r=round)
movel(pose_trans(f_name,p[0.00000,-0.09772,0.08433,-0.00000,-1.57080,0.00000]), a=accel, v=vel, t=0, r=round)
movel(pose_trans(f_name,p[0.00000,-0.10022,0.08433,-0.00000,-1.57080,0.00000]), a=accel, v=vel, t=0, r=round)
movel(pose_trans(f_name,p[0.00000,-0.10272,0.08433,-0.00000,-1.57080,0.00000]), a=accel, v=vel, t=0, r=round)
movel(pose_trans(f_name,p[0.00000,-0.10522,0.08433,-0.00000,-1.57080,0.00000]), a=accel, v=vel, t=0, r=round)
movel(pose_trans(f_name,p[0.00000,-0.10772,0.08433,-0.00000,-1.57080,0.00000]), a=accel, v=vel, t=0, r=round)
movel(pose_trans(f_name,p[0.00000,-0.11022,0.08433,-0.00000,-1.57080,0.00000]), a=accel, v=vel, t=0, r=round)
movel(pose_trans(f_name,p[0.00000,-0.11272,0.08433,-0.00000,-1.57080,0.00000]), a=accel, v=vel, t=0, r=round)
movel(pose_trans(f_name,p[0.00000,-0.11522,0.08433,-0.00000,-1.57080,0.00000]), a=accel, v=vel, t=0, r=round)
movel(pose_trans(f_name,p[0.00000,-0.11772,0.08433,-0.00000,-1.57080,0.00000]), a=accel, v=vel, t=0, r=round)
movel(pose_trans(f_name,p[0.00000,-0.12022,0.08433,-0.00000,-1.57080,0.00000]), a=accel, v=vel, t=0, r=round)
movel(pose_trans(f_name,p[0.00000,-0.12272,0.08433,-0.00000,-1.57080,0.00000]), a=accel, v=vel, t=0, r=round)
movel(pose_trans(f_name,p[0.00000,-0.12522,0.08433,-0.00000,-1.57080,0.00000]), a=accel, v=vel, t=0, r=round)
movel(pose_trans(f_name,p[0.00000,-0.12772,0.08433,-0.00000,-1.57080,0.00000]), a=accel, v=vel, t=0, r=round)
movel(pose_trans(f_name,p[0.00000,-0.13022,0.08433,-0.00000,-1.57080,0.00000]), a=accel, v=vel, t=0, r=round)
movel(pose_trans(f_name,p[0.00000,-0.13272,0.08433,-0.00000,-1.57080,0.00000]), a=accel, v=vel, t=0, r=round)
movel(pose_trans(f_name,p[0.00000,-0.13522,0.08433,-0.00000,-1.57080,0.00000]), a=accel, v=vel, t=0, r=round)
movel(pose_trans(f_name,p[0.00000,-0.13772,0.08433,-0.00000,-1.57080,0.00000]), a=accel, v=vel, t=0, r=round)
movel(pose_trans(f_name,p[0.00000,-0.14022,0.08433,-0.00000,-1.57080,0.00000]), a=accel, v=vel, t=0, r=round)
movel(pose_trans(f_name,p[0.00000,-0.14272,0.08433,-0.00000,-1.57080,0.00000]), a=accel, v=vel, t=0, r=round)
movel(pose_trans(f_name,p[0.00000,-0.14522,0.08433,-0.00000,-1.57080,0.00000]), a=accel, v=vel, t=0, r=round)
movel(pose_trans(f_name,p[0.00000,-0.14772,0.08433,-0.00000,-1.57080,0.00000]), a=accel, v=vel, t=0, r=round)
movel(pose_trans(f_name,p[0.00000,-0.15022,0.08433,-0.00000,-1.57080,0.00000]), a=accel, v=vel, t=0, r=round)
movel(pose_trans(f_name,p[0.00000,-0.15272,0.08433,-0.00000,-1.57080,0.00000]), a=accel, v=vel, t=0, r=round)
movel(pose_trans(f_name,p[0.00000,-0.15522,0.08433,-0.00000,-1.57080,0.00000]), a=accel, v=vel, t=0, r=round)
movel(pose_trans(f_name,p[0.00000,-0.15772,0.08433,-0.00000,-1.57080,0.00000]), a=accel, v=vel, t=0, r=round)
movel(pose_trans(f_name,p[0.00000,-0.16022,0.08433,-0.00000,-1.57080,0.00000]), a=accel, v=vel, t=0, r=round)
movel(pose_trans(f_name,p[0.00000,-0.16272,0.08433,-0.00000,-1.57080,0.00000]), a=accel, v=vel, t=0, r=round)
movel(pose_trans(f_name,p[0.00000,-0.16522,0.08433,-0.00000,-1.57080,0.00000]), a=accel, v=vel, t=0, r=round)
movel(pose_trans(f_name,p[0.00000,-0.16772,0.08433,-0.00000,-1.57080,0.00000]), a=accel, v=vel, t=0, r=round)
movel(pose_trans(f_name,p[0.00000,-0.17022,0.08433,-0.00000,-1.57080,0.00000]), a=accel, v=vel, t=0, r=round)
movel(pose_trans(f_name,p[0.00000,-0.17272,0.08433,-0.00000,-1.57080,0.00000]), a=accel, v=vel, t=0, r=round)
movel(pose_trans(f_name,p[0.00000,-0.17522,0.08433,-0.00000,-1.57080,0.00000]), a=accel, v=vel, t=0, r=round)
movel(pose_trans(f_name,p[0.00000,-0.17772,0.08433,-0.00000,-1.57080,0.00000]), a=accel, v=vel, t=0, r=round)
movel(pose_trans(f_name,p[0.00000,-0.18022,0.08433,-0.00000,-1.57080,0.00000]), a=accel, v=vel, t=0, r=round)
movel(pose_trans(f_name,p[0.00000,-0.18272,0.08433,-0.00000,-1.57080,0.00000]), a=accel, v=vel, t=0, r=round)
movel(pose_trans(f_name,p[0.00000,-0.18522,0.08433,-0.00000,-1.57080,0.00000]), a=accel, v=vel, t=0, r=round)
movel(pose_trans(f_name,p[0.00000,-0.18772,0.08433,-0.00000,-1.57080,0.00000]), a=accel, v=vel, t=0, r=round)
movel(pose_trans(f_name,p[0.00000,-0.19022,0.08433,-0.00000,-1.57080,0.00000]), a=accel, v=vel, t=0, r=round)
movel(pose_trans(f_name,p[0.00000,-0.19272,0.08433,-0.00000,-1.57080,0.00000]), a=accel, v=vel, t=0, r=round)
movel(pose_trans(f_name,p[0.00000,-0.19522,0.08433,-0.00000,-1.57080,0.00000]), a=accel, v=vel, t=0, r=round)
movel(pose_trans(f_name,p[0.00000,-0.19772,0.08433,-0.00000,-1.57080,0.00000]), a=accel, v=vel, t=0, r=round)
movel(pose_trans(f_name,p[0.00000,-0.20022,0.08433,-0.00000,-1.57080,0.00000]), a=accel, v=vel, t=0, r=round)
movel(pose_trans(f_name,p[0.00000,-0.20272,0.08433,-0.00000,-1.57080,0.00000]), a=accel, v=vel, t=0, r=round)
movel(pose_trans(f_name,p[0.00000,-0.20522,0.08433,-0.00000,-1.57080,0.00000]), a=accel, v=vel, t=0, r=round)
movel(pose_trans(f_name,p[0.00000,-0.20772,0.08433,-0.00000,-1.57080,0.00000]), a=accel, v=vel, t=0, r=round)
movel(pose_trans(f_name,p[0.00000,-0.21022,0.08433,-0.00000,-1.57080,0.00000]), a=accel, v=vel, t=0, r=round)
movel(pose_trans(f_name,p[0.00000,-0.21272,0.08433,-0.00000,-1.57080,0.00000]), a=accel, v=vel, t=0, r=round)
movel(pose_trans(f_name,p[0.00000,-0.21522,0.08433,-0.00000,-1.57080,0.00000]), a=accel, v=vel, t=0, r=round)
movel(pose_trans(f_name,p[0.00000,-0.21772,0.08433,-0.00000,-1.57080,0.00000]), a=accel, v=vel, t=0, r=round)
movel(pose_trans(f_name,p[0.00000,-0.22022,0.08433,-0.00000,-1.57080,0.00000]), a=accel, v=vel, t=0, r=round)
movel(pose_trans(f_name,p[0.00000,-0.22272,0.08433,-0.00000,-1.57080,0.00000]), a=accel, v=vel, t=0, r=round)
movel(pose_trans(f_name,p[0.00000,-0.22522,0.08433,-0.00000,-1.57080,0.00000]), a=accel, v=vel, t=0, r=round)
movel(pose_trans(f_name,p[0.00000,-0.22772,0.08433,-0.00000,-1.57080,0.00000]), a=accel, v=vel, t=0, r=round)
movel(pose_trans(f_name,p[0.00000,-0.23022,0.08433,-0.00000,-1.57080,0.00000]), a=accel, v=vel, t=0, r=round)
movel(pose_trans(f_name,p[0.00000,-0.23272,0.08433,-0.00000,-1.57080,0.00000]), a=accel, v=vel, t=0, r=round)
movel(pose_trans(f_name,p[0.00000,-0.23522,0.08433,-0.00000,-1.57080,0.00000]), a=accel, v=vel, t=0, r=round)
movel(pose_trans(f_name,p[0.00000,-0.23772,0.08433,-0.00000,-1.57080,0.00000]), a=accel, v=vel, t=0, r=round)
movel(pose_trans(f_name,p[0.00000,-0.24022,0.08433,-0.00000,-1.57080,0.00000]), a=accel, v=vel, t=0, r=round)
movel(pose_trans(f_name,p[0.00000,-0.24272,0.08433,-0.00000,-1.57080,0.00000]), a=accel, v=vel, t=0, r=round)
movel(pose_trans(f_name,p[0.00000,-0.24522,0.08433,-0.00000,-1.57080,0.00000]), a=accel, v=vel, t=0, r=round)
movel(pose_trans(f_name,p[0.00000,-0.24772,0.08433,-0.00000,-1.57080,0.00000]), a=accel, v=vel, t=0, r=round)
movel(pose_trans(f_name,p[0.00000,-0.25022,0.08433,-0.00000,-1.57080,0.00000]), a=accel, v=vel, t=0, r=round)
movel(pose_trans(f_name,p[0.00000,-0.25272,0.08433,-0.00000,-1.57080,0.00000]), a=accel, v=vel, t=0, r=round)
movel(pose_trans(f_name,p[0.00000,-0.25522,0.08433,-0.00000,-1.57080,0.00000]), a=accel, v=vel, t=0, r=round)
movel(pose_trans(f_name,p[0.00000,-0.25771,0.08433,-0.00000,-1.57080,0.00000]), a=accel, v=vel, t=0, r=round)
movel(pose_trans(f_name,p[0.00000,-0.26021,0.08433,-0.00000,-1.57080,0.00000]), a=accel, v=vel, t=0, r=round)
movel(pose_trans(f_name,p[0.00000,-0.26271,0.08433,-0.00000,-1.57080,0.00000]), a=accel, v=vel, t=0, r=round)
movel(pose_trans(f_name,p[0.00000,-0.26521,0.08433,-0.00000,-1.57080,0.00000]), a=accel, v=vel, t=0, r=round)
movel(pose_trans(f_name,p[0.00000,-0.26771,0.08433,-0.00000,-1.57080,0.00000]), a=accel, v=vel, t=0, r=round)
movel(pose_trans(f_name,p[0.00000,-0.27021,0.08433,-0.00000,-1.57080,0.00000]), a=accel, v=vel, t=0, r=round)
movel(pose_trans(f_name,p[0.00000,-0.27271,0.08433,-0.00000,-1.57080,0.00000]), a=accel, v=vel, t=0, r=round)
movel(pose_trans(f_name,p[0.00000,-0.27521,0.08433,-0.00000,-1.57080,0.00000]), a=accel, v=vel, t=0, r=round)
movel(pose_trans(f_name,p[0.00000,-0.27771,0.08433,-0.00000,-1.57080,0.00000]), a=accel, v=vel, t=0, r=round)
movel(pose_trans(f_name,p[0.00000,-0.28021,0.08433,-0.00000,-1.57080,0.00000]), a=accel, v=vel, t=0, r=round)
movel(pose_trans(f_name,p[0.00000,-0.28271,0.08433,-0.00000,-1.57080,0.00000]), a=accel, v=vel, t=0, r=round)
movel(pose_trans(f_name,p[0.00000,-0.28521,0.08433,-0.00000,-1.57080,0.00000]), a=accel, v=vel, t=0, r=round)
movel(pose_trans(f_name,p[0.00000,-0.28771,0.08433,-0.00000,-1.57080,0.00000]), a=accel, v=vel, t=0, r=round)
movel(pose_trans(f_name,p[0.00000,-0.29021,0.08433,-0.00000,-1.57080,0.00000]), a=accel, v=vel, t=0, r=round)
movel(pose_trans(f_name,p[0.00000,-0.29271,0.08433,-0.00000,-1.57080,0.00000]), a=accel, v=vel, t=0, r=round)
movel(pose_trans(f_name,p[0.00000,-0.29521,0.08433,-0.00000,-1.57080,0.00000]), a=accel, v=vel, t=0, r=round)
movel(pose_trans(f_name,p[0.00000,-0.29771,0.08433,-0.00000,-1.57080,0.00000]), a=accel, v=vel, t=0, r=round)
movel(pose_trans(f_name,p[0.00000,-0.30021,0.08433,-0.00000,-1.57080,0.00000]), a=accel, v=vel, t=0, r=round)
movel(pose_trans(f_name,p[0.00000,-0.30271,0.08433,-0.00000,-1.57080,0.00000]), a=accel, v=vel, t=0, r=round)
movel(pose_trans(f_name,p[0.00000,-0.30521,0.08433,-0.00000,-1.57080,0.00000]), a=accel, v=vel, t=0, r=round)
movel(pose_trans(f_name,p[0.00000,-0.30771,0.08433,-0.00000,-1.57080,0.00000]), a=accel, v=vel, t=0, r=round)
movel(pose_trans(f_name,p[0.00000,-0.31021,0.08433,-0.00000,-1.57080,0.00000]), a=accel, v=vel, t=0, r=round)
movel(pose_trans(f_name,p[0.00000,-0.31271,0.08433,-0.00000,-1.57080,0.00000]), a=accel, v=vel, t=0, r=round)
movel(pose_trans(f_name,p[0.00000,-0.31521,0.08433,-0.00000,-1.57080,0.00000]), a=accel, v=vel, t=0, r=round)
movel(pose_trans(f_name,p[0.00000,-0.31771,0.08433,-0.00000,-1.57080,0.00000]), a=accel, v=vel, t=0, r=round)
movel(pose_trans(f_name,p[0.00000,-0.32021,0.08433,-0.00000,-1.57080,0.00000]), a=accel, v=vel, t=0, r=round)
movel(pose_trans(f_name,p[0.00000,-0.32271,0.08433,-0.00000,-1.57080,0.00000]), a=accel, v=vel, t=0, r=round)
movel(pose_trans(f_name,p[0.00000,-0.32521,0.08433,-0.00000,-1.57080,0.00000]), a=accel, v=vel, t=0, r=round)
movel(pose_trans(f_name,p[0.00000,-0.32771,0.08433,-0.00000,-1.57080,0.00000]), a=accel, v=vel, t=0, r=round)
movel(pose_trans(f_name,p[0.00000,-0.33021,0.08433,-0.00000,-1.57080,0.00000]), a=accel, v=vel, t=0, r=round)
movel(pose_trans(f_name,p[0.00000,-0.33271,0.08433,-0.00000,-1.57080,0.00000]), a=accel, v=vel, t=0, r=round)
movel(pose_trans(f_name,p[0.00000,-0.33521,0.08433,-0.00000,-1.57080,0.00000]), a=accel, v=vel, t=0, r=round)
movel(pose_trans(f_name,p[0.00000,-0.33771,0.08433,-0.00000,-1.57080,0.00000]), a=accel, v=vel, t=0, r=round)
movel(pose_trans(f_name,p[0.00000,-0.33896,0.08426,-0.00000,-1.57080,0.00000]), a=accel, v=vel, t=0, r=round)
movel(pose_trans(f_name,p[0.00000,-0.34019,0.08399,-0.00000,-1.57080,0.00000]), a=accel, v=vel, t=0, r=round)
movel(pose_trans(f_name,p[0.00000,-0.34132,0.08355,-0.00000,-1.57080,0.00000]), a=accel, v=vel, t=0, r=round)
movel(pose_trans(f_name,p[0.00000,-0.34236,0.08295,-0.00000,-1.57080,0.00000]), a=accel, v=vel, t=0, r=round)
movel(pose_trans(f_name,p[0.00000,-0.34334,0.08217,-0.00000,-1.57080,0.00000]), a=accel, v=vel, t=0, r=round)
movel(pose_trans(f_name,p[0.00000,-0.34416,0.08128,-0.00000,-1.57080,0.00000]), a=accel, v=vel, t=0, r=round)
movel(pose_trans(f_name,p[0.00000,-0.34483,0.08028,-0.00000,-1.57080,0.00000]), a=accel, v=vel, t=0, r=round)
movel(pose_trans(f_name,p[0.00000,-0.34536,0.07915,-0.00000,-1.57080,0.00000]), a=accel, v=vel, t=0, r=round)
movel(pose_trans(f_name,p[0.00000,-0.34571,0.07793,-0.00000,-1.57080,0.00000]), a=accel, v=vel, t=0, r=round)
movel(pose_trans(f_name,p[0.00000,-0.34586,0.07673,-0.00000,-1.57080,0.00000]), a=accel, v=vel, t=0, r=round)
movel(pose_trans(f_name,p[0.00000,-0.34587,0.07633,-0.00000,-1.57080,0.00000]), a=accel, v=vel, t=0, r=round)
set_digital_out(0, False)
movel(pose_trans(f_name,p[-0.00200,-0.34587,0.07633,-0.00000,-1.57080,0.00000]), a=accel, v=vel, t=0, r=round)
movel(pose_trans(f_name,p[-0.02000,-0.34587,0.07633,-0.00000,-1.57080,0.00000]), a=accel, v=vel, t=0, r=round)
movel(pose_trans(f_name,p[-0.02000,-0.30001,0.01822,-0.00000,-1.57080,0.00000]), a=accel, v=vel, t=0, r=round)
movel(pose_trans(f_name,p[-0.00200,-0.30001,0.01822,-0.00000,-1.57080,0.00000]), a=accel, v=vel, t=0, r=round)
set_digital_out(0, True)
movel(pose_trans(f_name,p[0.00000,-0.30001,0.01822,-0.00000,-1.57080,0.00000]), a=accel, v=vel, t=0, r=round)
movel(pose_trans(f_name,p[0.00000,-0.29992,0.02071,-0.00000,-1.57080,0.00000]), a=accel, v=vel, t=0, r=round)
movel(pose_trans(f_name,p[0.00000,-0.29966,0.02307,-0.00000,-1.57080,0.00000]), a=accel, v=vel, t=0, r=round)
movel(pose_trans(f_name,p[0.00000,-0.29922,0.02535,-0.00000,-1.57080,0.00000]), a=accel, v=vel, t=0, r=round)
movel(pose_trans(f_name,p[0.00000,-0.29861,0.02753,-0.00000,-1.57080,0.00000]), a=accel, v=vel, t=0, r=round)
movel(pose_trans(f_name,p[0.00000,-0.29785,0.02961,-0.00000,-1.57080,0.00000]), a=accel, v=vel, t=0, r=round)
movel(pose_trans(f_name,p[0.00000,-0.29686,0.03171,-0.00000,-1.57080,0.00000]), a=accel, v=vel, t=0, r=round)
movel(pose_trans(f_name,p[0.00000,-0.29577,0.03361,-0.00000,-1.57080,0.00000]), a=accel, v=vel, t=0, r=round)
movel(pose_trans(f_name,p[0.00000,-0.29443,0.03554,-0.00000,-1.57080,0.00000]), a=accel, v=vel, t=0, r=round)
movel(pose_trans(f_name,p[0.00000,-0.29291,0.03740,-0.00000,-1.57080,0.00000]), a=accel, v=vel, t=0, r=round)
movel(pose_trans(f_name,p[0.00000,-0.29119,0.03918,-0.00000,-1.57080,0.00000]), a=accel, v=vel, t=0, r=round)
movel(pose_trans(f_name,p[0.00000,-0.28933,0.04084,-0.00000,-1.57080,0.00000]), a=accel, v=vel, t=0, r=round)
movel(pose_trans(f_name,p[0.00000,-0.28735,0.04237,-0.00000,-1.57080,0.00000]), a=accel, v=vel, t=0, r=round)
movel(pose_trans(f_name,p[0.00000,-0.28527,0.04376,-0.00000,-1.57080,0.00000]), a=accel, v=vel, t=0, r=round)
movel(pose_trans(f_name,p[0.00000,-0.28310,0.04499,-0.00000,-1.57080,0.00000]), a=accel, v=vel, t=0, r=round)
movel(pose_trans(f_name,p[0.00000,-0.28084,0.04607,-0.00000,-1.57080,0.00000]), a=accel, v=vel, t=0, r=round)
movel(pose_trans(f_name,p[0.00000,-0.27852,0.04699,-0.00000,-1.57080,0.00000]), a=accel, v=vel, t=0, r=round)
movel(pose_trans(f_name,p[0.00000,-0.27614,0.04776,-0.00000,-1.57080,0.00000]), a=accel, v=vel, t=0, r=round)
movel(pose_trans(f_name,p[0.00000,-0.27372,0.04839,-0.00000,-1.57080,0.00000]), a=accel, v=vel, t=0, r=round)
movel(pose_trans(f_name,p[0.00000,-0.27127,0.04887,-0.00000,-1.57080,0.00000]), a=accel, v=vel, t=0, r=round)
movel(pose_trans(f_name,p[0.00000,-0.26879,0.04923,-0.00000,-1.57080,0.00000]), a=accel, v=vel, t=0, r=round)
movel(pose_trans(f_name,p[0.00000,-0.26630,0.04945,-0.00000,-1.57080,0.00000]), a=accel, v=vel, t=0, r=round)
movel(pose_trans(f_name,p[0.00000,-0.26381,0.04957,-0.00000,-1.57080,0.00000]), a=accel, v=vel, t=0, r=round)
movel(pose_trans(f_name,p[0.00000,-0.26131,0.04958,-0.00000,-1.57080,0.00000]), a=accel, v=vel, t=0, r=round)
movel(pose_trans(f_name,p[0.00000,-0.25881,0.04949,-0.00000,-1.57080,0.00000]), a=accel, v=vel, t=0, r=round)
movel(pose_trans(f_name,p[0.00000,-0.25632,0.04930,-0.00000,-1.57080,0.00000]), a=accel, v=vel, t=0, r=round)
movel(pose_trans(f_name,p[0.00000,-0.25383,0.04901,-0.00000,-1.57080,0.00000]), a=accel, v=vel, t=0, r=round)
movel(pose_trans(f_name,p[0.00000,-0.25137,0.04861,-0.00000,-1.57080,0.00000]), a=accel, v=vel, t=0, r=round)
movel(pose_trans(f_name,p[0.00000,-0.24892,0.04811,-0.00000,-1.57080,0.00000]), a=accel, v=vel, t=0, r=round)
movel(pose_trans(f_name,p[0.00000,-0.24649,0.04750,-0.00000,-1.57080,0.00000]), a=accel, v=vel, t=0, r=round)
movel(pose_trans(f_name,p[0.00000,-0.24410,0.04679,-0.00000,-1.57080,0.00000]), a=accel, v=vel, t=0, r=round)
movel(pose_trans(f_name,p[0.00000,-0.24173,0.04598,-0.00000,-1.57080,0.00000]), a=accel, v=vel, t=0, r=round)
movel(pose_trans(f_name,p[0.00000,-0.23940,0.04507,-0.00000,-1.57080,0.00000]), a=accel, v=vel, t=0, r=round)
movel(pose_trans(f_name,p[0.00000,-0.23711,0.04406,-0.00000,-1.57080,0.00000]), a=accel, v=vel, t=0, r=round)
movel(pose_trans(f_name,p[0.00000,-0.23487,0.04297,-0.00000,-1.57080,0.00000]), a=accel, v=vel, t=0, r=round)
movel(pose_trans(f_name,p[0.00000,-0.23267,0.04178,-0.00000,-1.57080,0.00000]), a=accel, v=vel, t=0, r=round)
movel(pose_trans(f_name,p[0.00000,-0.23136,0.04102,-0.00000,-1.57080,0.00000]), a=accel, v=vel, t=0, r=round)
movel(pose_trans(f_name,p[0.00000,-0.23210,0.03864,-0.00000,-1.57080,0.00000]), a=accel, v=vel, t=0, r=round)
movel(pose_trans(f_name,p[0.00000,-0.23285,0.03625,-0.00000,-1.57080,0.00000]), a=accel, v=vel, t=0, r=round)
movel(pose_trans(f_name,p[0.00000,-0.23359,0.03386,-0.00000,-1.57080,0.00000]), a=accel, v=vel, t=0, r=round)
movel(pose_trans(f_name,p[0.00000,-0.23434,0.03148,-0.00000,-1.57080,0.00000]), a=accel, v=vel, t=0, r=round)
movel(pose_trans(f_name,p[0.00000,-0.23508,0.02909,-0.00000,-1.57080,0.00000]), a=accel, v=vel, t=0, r=round)
movel(pose_trans(f_name,p[0.00000,-0.23582,0.02670,-0.00000,-1.57080,0.00000]), a=accel, v=vel, t=0, r=round)
movel(pose_trans(f_name,p[0.00000,-0.23657,0.02432,-0.00000,-1.57080,0.00000]), a=accel, v=vel, t=0, r=round)
movel(pose_trans(f_name,p[0.00000,-0.23662,0.02415,-0.00000,-1.57080,0.00000]), a=accel, v=vel, t=0, r=round)
movel(pose_trans(f_name,p[0.00000,-0.23892,0.02513,-0.00000,-1.57080,0.00000]), a=accel, v=vel, t=0, r=round)
movel(pose_trans(f_name,p[0.00000,-0.24124,0.02605,-0.00000,-1.57080,0.00000]), a=accel, v=vel, t=0, r=round)
movel(pose_trans(f_name,p[0.00000,-0.24358,0.02693,-0.00000,-1.57080,0.00000]), a=accel, v=vel, t=0, r=round)
movel(pose_trans(f_name,p[0.00000,-0.24594,0.02775,-0.00000,-1.57080,0.00000]), a=accel, v=vel, t=0, r=round)
movel(pose_trans(f_name,p[0.00000,-0.24833,0.02850,-0.00000,-1.57080,0.00000]), a=accel, v=vel, t=0, r=round)
movel(pose_trans(f_name,p[0.00000,-0.25073,0.02918,-0.00000,-1.57080,0.00000]), a=accel, v=vel, t=0, r=round)
movel(pose_trans(f_name,p[0.00000,-0.25316,0.02978,-0.00000,-1.57080,0.00000]), a=accel, v=vel, t=0, r=round)
movel(pose_trans(f_name,p[0.00000,-0.25561,0.03028,-0.00000,-1.57080,0.00000]), a=accel, v=vel, t=0, r=round)
movel(pose_trans(f_name,p[0.00000,-0.25808,0.03066,-0.00000,-1.57080,0.00000]), a=accel, v=vel, t=0, r=round)
movel(pose_trans(f_name,p[0.00000,-0.26056,0.03093,-0.00000,-1.57080,0.00000]), a=accel, v=vel, t=0, r=round)
movel(pose_trans(f_name,p[0.00000,-0.26306,0.03105,-0.00000,-1.57080,0.00000]), a=accel, v=vel, t=0, r=round)
movel(pose_trans(f_name,p[0.00000,-0.26556,0.03100,-0.00000,-1.57080,0.00000]), a=accel, v=vel, t=0, r=round)
movel(pose_trans(f_name,p[0.00000,-0.26793,0.03079,-0.00000,-1.57080,0.00000]), a=accel, v=vel, t=0, r=round)
movel(pose_trans(f_name,p[0.00000,-0.27002,0.03044,-0.00000,-1.57080,0.00000]), a=accel, v=vel, t=0, r=round)
movel(pose_trans(f_name,p[0.00000,-0.27183,0.02995,-0.00000,-1.57080,0.00000]), a=accel, v=vel, t=0, r=round)
movel(pose_trans(f_name,p[0.00000,-0.27339,0.02935,-0.00000,-1.57080,0.00000]), a=accel, v=vel, t=0, r=round)
movel(pose_trans(f_name,p[0.00000,-0.27480,0.02861,-0.00000,-1.57080,0.00000]), a=accel, v=vel, t=0, r=round)
movel(pose_trans(f_name,p[0.00000,-0.27599,0.02777,-0.00000,-1.57080,0.00000]), a=accel, v=vel, t=0, r=round)
movel(pose_trans(f_name,p[0.00000,-0.27699,0.02684,-0.00000,-1.57080,0.00000]), a=accel, v=vel, t=0, r=round)
movel(pose_trans(f_name,p[0.00000,-0.27782,0.02582,-0.00000,-1.57080,0.00000]), a=accel, v=vel, t=0, r=round)
movel(pose_trans(f_name,p[0.00000,-0.27854,0.02464,-0.00000,-1.57080,0.00000]), a=accel, v=vel, t=0, r=round)
movel(pose_trans(f_name,p[0.00000,-0.27909,0.02334,-0.00000,-1.57080,0.00000]), a=accel, v=vel, t=0, r=round)
movel(pose_trans(f_name,p[0.00000,-0.27949,0.02191,-0.00000,-1.57080,0.00000]), a=accel, v=vel, t=0, r=round)
movel(pose_trans(f_name,p[0.00000,-0.27973,0.02033,-0.00000,-1.57080,0.00000]), a=accel, v=vel, t=0, r=round)
movel(pose_trans(f_name,p[0.00000,-0.27981,0.01857,-0.00000,-1.57080,0.00000]), a=accel, v=vel, t=0, r=round)
movel(pose_trans(f_name,p[0.00000,-0.27970,0.01727,-0.00000,-1.57080,0.00000]), a=accel, v=vel, t=0, r=round)
movel(pose_trans(f_name,p[0.00000,-0.27942,0.01605,-0.00000,-1.57080,0.00000]), a=accel, v=vel, t=0, r=round)
movel(pose_trans(f_name,p[0.00000,-0.27894,0.01482,-0.00000,-1.57080,0.00000]), a=accel, v=vel, t=0, r=round)
movel(pose_trans(f_name,p[0.00000,-0.27827,0.01365,-0.00000,-1.57080,0.00000]), a=accel, v=vel, t=0, r=round)
movel(pose_trans(f_name,p[0.00000,-0.27740,0.01252,-0.00000,-1.57080,0.00000]), a=accel, v=vel, t=0, r=round)
movel(pose_trans(f_name,p[0.00000,-0.27631,0.01143,-0.00000,-1.57080,0.00000]), a=accel, v=vel, t=0, r=round)
movel(pose_trans(f_name,p[0.00000,-0.27498,0.01037,-0.00000,-1.57080,0.00000]), a=accel, v=vel, t=0, r=round)
movel(pose_trans(f_name,p[0.00000,-0.27335,0.00932,-0.00000,-1.57080,0.00000]), a=accel, v=vel, t=0, r=round)
movel(pose_trans(f_name,p[0.00000,-0.27121,0.00814,-0.00000,-1.57080,0.00000]), a=accel, v=vel, t=0, r=round)
movel(pose_trans(f_name,p[0.00000,-0.26896,0.00706,-0.00000,-1.57080,0.00000]), a=accel, v=vel, t=0, r=round)
movel(pose_trans(f_name,p[0.00000,-0.26667,0.00606,-0.00000,-1.57080,0.00000]), a=accel, v=vel, t=0, r=round)
movel(pose_trans(f_name,p[0.00000,-0.26435,0.00513,-0.00000,-1.57080,0.00000]), a=accel, v=vel, t=0, r=round)
movel(pose_trans(f_name,p[0.00000,-0.26242,0.00439,-0.00000,-1.57080,0.00000]), a=accel, v=vel, t=0, r=round)
movel(pose_trans(f_name,p[0.00000,-0.25999,0.00381,-0.00000,-1.57080,0.00000]), a=accel, v=vel, t=0, r=round)
movel(pose_trans(f_name,p[0.00000,-0.25862,0.00347,-0.00000,-1.57080,0.00000]), a=accel, v=vel, t=0, r=round)
movel(pose_trans(f_name,p[0.00000,-0.25631,0.00252,-0.00000,-1.57080,0.00000]), a=accel, v=vel, t=0, r=round)
movel(pose_trans(f_name,p[0.00000,-0.25400,0.00155,-0.00000,-1.57080,0.00000]), a=accel, v=vel, t=0, r=round)
movel(pose_trans(f_name,p[0.00000,-0.25171,0.00056,-0.00000,-1.57080,0.00000]), a=accel, v=vel, t=0, r=round)
movel(pose_trans(f_name,p[0.00000,-0.24943,-0.00046,-0.00000,-1.57080,0.00000]), a=accel, v=vel, t=0, r=round)
movel(pose_trans(f_name,p[0.00000,-0.24716,-0.00151,-0.00000,-1.57080,0.00000]), a=accel, v=vel, t=0, r=round)
movel(pose_trans(f_name,p[0.00000,-0.24491,-0.00261,-0.00000,-1.57080,0.00000]), a=accel, v=vel, t=0, r=round)
movel(pose_trans(f_name,p[0.00000,-0.24269,-0.00376,-0.00000,-1.57080,0.00000]), a=accel, v=vel, t=0, r=round)
movel(pose_trans(f_name,p[0.00000,-0.24051,-0.00498,-0.00000,-1.57080,0.00000]), a=accel, v=vel, t=0, r=round)
movel(pose_trans(f_name,p[0.00000,-0.23840,-0.00632,-0.00000,-1.57080,0.00000]), a=accel, v=vel, t=0, r=round)
movel(pose_trans(f_name,p[0.00000,-0.23637,-0.00778,-0.00000,-1.57080,0.00000]), a=accel, v=vel, t=0, r=round)
movel(pose_trans(f_name,p[0.00000,-0.23446,-0.00939,-0.00000,-1.57080,0.00000]), a=accel, v=vel, t=0, r=round)
movel(pose_trans(f_name,p[0.00000,-0.23277,-0.01105,-0.00000,-1.57080,0.00000]), a=accel, v=vel, t=0, r=round)
movel(pose_trans(f_name,p[0.00000,-0.23127,-0.01278,-0.00000,-1.57080,0.00000]), a=accel, v=vel, t=0, r=round)
movel(pose_trans(f_name,p[0.00000,-0.22996,-0.01457,-0.00000,-1.57080,0.00000]), a=accel, v=vel, t=0, r=round)
movel(pose_trans(f_name,p[0.00000,-0.22883,-0.01643,-0.00000,-1.57080,0.00000]), a=accel, v=vel, t=0, r=round)
movel(pose_trans(f_name,p[0.00000,-0.22782,-0.01846,-0.00000,-1.57080,0.00000]), a=accel, v=vel, t=0, r=round)
movel(pose_trans(f_name,p[0.00000,-0.22699,-0.02058,-0.00000,-1.57080,0.00000]), a=accel, v=vel, t=0, r=round)
movel(pose_trans(f_name,p[0.00000,-0.22633,-0.02279,-0.00000,-1.57080,0.00000]), a=accel, v=vel, t=0, r=round)
movel(pose_trans(f_name,p[0.00000,-0.22585,-0.02510,-0.00000,-1.57080,0.00000]), a=accel, v=vel, t=0, r=round)
movel(pose_trans(f_name,p[0.00000,-0.22555,-0.02753,-0.00000,-1.57080,0.00000]), a=accel, v=vel, t=0, r=round)
movel(pose_trans(f_name,p[0.00000,-0.22543,-0.03002,-0.00000,-1.57080,0.00000]), a=accel, v=vel, t=0, r=round)
movel(pose_trans(f_name,p[0.00000,-0.22548,-0.03252,-0.00000,-1.57080,0.00000]), a=accel, v=vel, t=0, r=round)
movel(pose_trans(f_name,p[0.00000,-0.22570,-0.03501,-0.00000,-1.57080,0.00000]), a=accel, v=vel, t=0, r=round)
movel(pose_trans(f_name,p[0.00000,-0.22610,-0.03748,-0.00000,-1.57080,0.00000]), a=accel, v=vel, t=0, r=round)
movel(pose_trans(f_name,p[0.00000,-0.22666,-0.03978,-0.00000,-1.57080,0.00000]), a=accel, v=vel, t=0, r=round)
movel(pose_trans(f_name,p[0.00000,-0.22738,-0.04196,-0.00000,-1.57080,0.00000]), a=accel, v=vel, t=0, r=round)
movel(pose_trans(f_name,p[0.00000,-0.22825,-0.04401,-0.00000,-1.57080,0.00000]), a=accel, v=vel, t=0, r=round)
movel(pose_trans(f_name,p[0.00000,-0.22928,-0.04595,-0.00000,-1.57080,0.00000]), a=accel, v=vel, t=0, r=round)
movel(pose_trans(f_name,p[0.00000,-0.23050,-0.04787,-0.00000,-1.57080,0.00000]), a=accel, v=vel, t=0, r=round)
movel(pose_trans(f_name,p[0.00000,-0.23191,-0.04971,-0.00000,-1.57080,0.00000]), a=accel, v=vel, t=0, r=round)
movel(pose_trans(f_name,p[0.00000,-0.23349,-0.05143,-0.00000,-1.57080,0.00000]), a=accel, v=vel, t=0, r=round)
movel(pose_trans(f_name,p[0.00000,-0.23525,-0.05308,-0.00000,-1.57080,0.00000]), a=accel, v=vel, t=0, r=round)
movel(pose_trans(f_name,p[0.00000,-0.23721,-0.05463,-0.00000,-1.57080,0.00000]), a=accel, v=vel, t=0, r=round)
movel(pose_trans(f_name,p[0.00000,-0.23928,-0.05603,-0.00000,-1.57080,0.00000]), a=accel, v=vel, t=0, r=round)
movel(pose_trans(f_name,p[0.00000,-0.24144,-0.05728,-0.00000,-1.57080,0.00000]), a=accel, v=vel, t=0, r=round)
movel(pose_trans(f_name,p[0.00000,-0.24369,-0.05838,-0.00000,-1.57080,0.00000]), a=accel, v=vel, t=0, r=round)
movel(pose_trans(f_name,p[0.00000,-0.24600,-0.05933,-0.00000,-1.57080,0.00000]), a=accel, v=vel, t=0, r=round)
movel(pose_trans(f_name,p[0.00000,-0.24837,-0.06013,-0.00000,-1.57080,0.00000]), a=accel, v=vel, t=0, r=round)
movel(pose_trans(f_name,p[0.00000,-0.25078,-0.06079,-0.00000,-1.57080,0.00000]), a=accel, v=vel, t=0, r=round)
movel(pose_trans(f_name,p[0.00000,-0.25322,-0.06133,-0.00000,-1.57080,0.00000]), a=accel, v=vel, t=0, r=round)
movel(pose_trans(f_name,p[0.00000,-0.25569,-0.06175,-0.00000,-1.57080,0.00000]), a=accel, v=vel, t=0, r=round)
movel(pose_trans(f_name,p[0.00000,-0.25817,-0.06206,-0.00000,-1.57080,0.00000]), a=accel, v=vel, t=0, r=round)
movel(pose_trans(f_name,p[0.00000,-0.26066,-0.06227,-0.00000,-1.57080,0.00000]), a=accel, v=vel, t=0, r=round)
movel(pose_trans(f_name,p[0.00000,-0.26315,-0.06238,-0.00000,-1.57080,0.00000]), a=accel, v=vel, t=0, r=round)
movel(pose_trans(f_name,p[0.00000,-0.26565,-0.06241,-0.00000,-1.57080,0.00000]), a=accel, v=vel, t=0, r=round)
movel(pose_trans(f_name,p[0.00000,-0.26815,-0.06235,-0.00000,-1.57080,0.00000]), a=accel, v=vel, t=0, r=round)
movel(pose_trans(f_name,p[0.00000,-0.27065,-0.06219,-0.00000,-1.57080,0.00000]), a=accel, v=vel, t=0, r=round)
movel(pose_trans(f_name,p[0.00000,-0.27314,-0.06194,-0.00000,-1.57080,0.00000]), a=accel, v=vel, t=0, r=round)
movel(pose_trans(f_name,p[0.00000,-0.27561,-0.06159,-0.00000,-1.57080,0.00000]), a=accel, v=vel, t=0, r=round)
movel(pose_trans(f_name,p[0.00000,-0.27807,-0.06115,-0.00000,-1.57080,0.00000]), a=accel, v=vel, t=0, r=round)
movel(pose_trans(f_name,p[0.00000,-0.28052,-0.06063,-0.00000,-1.57080,0.00000]), a=accel, v=vel, t=0, r=round)
movel(pose_trans(f_name,p[0.00000,-0.28294,-0.06002,-0.00000,-1.57080,0.00000]), a=accel, v=vel, t=0, r=round)
movel(pose_trans(f_name,p[0.00000,-0.28534,-0.05933,-0.00000,-1.57080,0.00000]), a=accel, v=vel, t=0, r=round)
movel(pose_trans(f_name,p[0.00000,-0.28772,-0.05855,-0.00000,-1.57080,0.00000]), a=accel, v=vel, t=0, r=round)
movel(pose_trans(f_name,p[0.00000,-0.29006,-0.05768,-0.00000,-1.57080,0.00000]), a=accel, v=vel, t=0, r=round)
movel(pose_trans(f_name,p[0.00000,-0.29237,-0.05671,-0.00000,-1.57080,0.00000]), a=accel, v=vel, t=0, r=round)
movel(pose_trans(f_name,p[0.00000,-0.29463,-0.05563,-0.00000,-1.57080,0.00000]), a=accel, v=vel, t=0, r=round)
movel(pose_trans(f_name,p[0.00000,-0.29683,-0.05445,-0.00000,-1.57080,0.00000]), a=accel, v=vel, t=0, r=round)
movel(pose_trans(f_name,p[0.00000,-0.29897,-0.05316,-0.00000,-1.57080,0.00000]), a=accel, v=vel, t=0, r=round)
movel(pose_trans(f_name,p[0.00000,-0.30103,-0.05175,-0.00000,-1.57080,0.00000]), a=accel, v=vel, t=0, r=round)
movel(pose_trans(f_name,p[0.00000,-0.30215,-0.05091,-0.00000,-1.57080,0.00000]), a=accel, v=vel, t=0, r=round)
movel(pose_trans(f_name,p[0.00000,-0.30141,-0.04852,-0.00000,-1.57080,0.00000]), a=accel, v=vel, t=0, r=round)
movel(pose_trans(f_name,p[0.00000,-0.30068,-0.04613,-0.00000,-1.57080,0.00000]), a=accel, v=vel, t=0, r=round)
movel(pose_trans(f_name,p[0.00000,-0.29995,-0.04374,-0.00000,-1.57080,0.00000]), a=accel, v=vel, t=0, r=round)
movel(pose_trans(f_name,p[0.00000,-0.29921,-0.04135,-0.00000,-1.57080,0.00000]), a=accel, v=vel, t=0, r=round)
movel(pose_trans(f_name,p[0.00000,-0.29848,-0.03896,-0.00000,-1.57080,0.00000]), a=accel, v=vel, t=0, r=round)
movel(pose_trans(f_name,p[0.00000,-0.29774,-0.03657,-0.00000,-1.57080,0.00000]), a=accel, v=vel, t=0, r=round)
movel(pose_trans(f_name,p[0.00000,-0.29701,-0.03418,-0.00000,-1.57080,0.00000]), a=accel, v=vel, t=0, r=round)
movel(pose_trans(f_name,p[0.00000,-0.29656,-0.03270,-0.00000,-1.57080,0.00000]), a=accel, v=vel, t=0, r=round)
movel(pose_trans(f_name,p[0.00000,-0.29453,-0.03417,-0.00000,-1.57080,0.00000]), a=accel, v=vel, t=0, r=round)
movel(pose_trans(f_name,p[0.00000,-0.29245,-0.03555,-0.00000,-1.57080,0.00000]), a=accel, v=vel, t=0, r=round)
movel(pose_trans(f_name,p[0.00000,-0.29031,-0.03685,-0.00000,-1.57080,0.00000]), a=accel, v=vel, t=0, r=round)
movel(pose_trans(f_name,p[0.00000,-0.28812,-0.03805,-0.00000,-1.57080,0.00000]), a=accel, v=vel, t=0, r=round)
movel(pose_trans(f_name,p[0.00000,-0.28587,-0.03915,-0.00000,-1.57080,0.00000]), a=accel, v=vel, t=0, r=round)
movel(pose_trans(f_name,p[0.00000,-0.28358,-0.04015,-0.00000,-1.57080,0.00000]), a=accel, v=vel, t=0, r=round)
movel(pose_trans(f_name,p[0.00000,-0.28124,-0.04103,-0.00000,-1.57080,0.00000]), a=accel, v=vel, t=0, r=round)
movel(pose_trans(f_name,p[0.00000,-0.27886,-0.04180,-0.00000,-1.57080,0.00000]), a=accel, v=vel, t=0, r=round)
movel(pose_trans(f_name,p[0.00000,-0.27645,-0.04245,-0.00000,-1.57080,0.00000]), a=accel, v=vel, t=0, r=round)
movel(pose_trans(f_name,p[0.00000,-0.27400,-0.04298,-0.00000,-1.57080,0.00000]), a=accel, v=vel, t=0, r=round)
movel(pose_trans(f_name,p[0.00000,-0.27154,-0.04338,-0.00000,-1.57080,0.00000]), a=accel, v=vel, t=0, r=round)
movel(pose_trans(f_name,p[0.00000,-0.26905,-0.04367,-0.00000,-1.57080,0.00000]), a=accel, v=vel, t=0, r=round)
movel(pose_trans(f_name,p[0.00000,-0.26656,-0.04383,-0.00000,-1.57080,0.00000]), a=accel, v=vel, t=0, r=round)
movel(pose_trans(f_name,p[0.00000,-0.26406,-0.04387,-0.00000,-1.57080,0.00000]), a=accel, v=vel, t=0, r=round)
movel(pose_trans(f_name,p[0.00000,-0.26156,-0.04379,-0.00000,-1.57080,0.00000]), a=accel, v=vel, t=0, r=round)
movel(pose_trans(f_name,p[0.00000,-0.25907,-0.04356,-0.00000,-1.57080,0.00000]), a=accel, v=vel, t=0, r=round)
movel(pose_trans(f_name,p[0.00000,-0.25672,-0.04316,-0.00000,-1.57080,0.00000]), a=accel, v=vel, t=0, r=round)
movel(pose_trans(f_name,p[0.00000,-0.25473,-0.04265,-0.00000,-1.57080,0.00000]), a=accel, v=vel, t=0, r=round)
movel(pose_trans(f_name,p[0.00000,-0.25302,-0.04203,-0.00000,-1.57080,0.00000]), a=accel, v=vel, t=0, r=round)
movel(pose_trans(f_name,p[0.00000,-0.25155,-0.04131,-0.00000,-1.57080,0.00000]), a=accel, v=vel, t=0, r=round)
movel(pose_trans(f_name,p[0.00000,-0.25023,-0.04046,-0.00000,-1.57080,0.00000]), a=accel, v=vel, t=0, r=round)
movel(pose_trans(f_name,p[0.00000,-0.24912,-0.03953,-0.00000,-1.57080,0.00000]), a=accel, v=vel, t=0, r=round)
movel(pose_trans(f_name,p[0.00000,-0.24819,-0.03851,-0.00000,-1.57080,0.00000]), a=accel, v=vel, t=0, r=round)
movel(pose_trans(f_name,p[0.00000,-0.24744,-0.03740,-0.00000,-1.57080,0.00000]), a=accel, v=vel, t=0, r=round)
movel(pose_trans(f_name,p[0.00000,-0.24681,-0.03614,-0.00000,-1.57080,0.00000]), a=accel, v=vel, t=0, r=round)
movel(pose_trans(f_name,p[0.00000,-0.24634,-0.03477,-0.00000,-1.57080,0.00000]), a=accel, v=vel, t=0, r=round)
movel(pose_trans(f_name,p[0.00000,-0.24603,-0.03326,-0.00000,-1.57080,0.00000]), a=accel, v=vel, t=0, r=round)
movel(pose_trans(f_name,p[0.00000,-0.24589,-0.03161,-0.00000,-1.57080,0.00000]), a=accel, v=vel, t=0, r=round)
movel(pose_trans(f_name,p[0.00000,-0.24592,-0.03001,-0.00000,-1.57080,0.00000]), a=accel, v=vel, t=0, r=round)
movel(pose_trans(f_name,p[0.00000,-0.24614,-0.02860,-0.00000,-1.57080,0.00000]), a=accel, v=vel, t=0, r=round)
movel(pose_trans(f_name,p[0.00000,-0.24653,-0.02728,-0.00000,-1.57080,0.00000]), a=accel, v=vel, t=0, r=round)
movel(pose_trans(f_name,p[0.00000,-0.24712,-0.02598,-0.00000,-1.57080,0.00000]), a=accel, v=vel, t=0, r=round)
movel(pose_trans(f_name,p[0.00000,-0.24789,-0.02475,-0.00000,-1.57080,0.00000]), a=accel, v=vel, t=0, r=round)
movel(pose_trans(f_name,p[0.00000,-0.24885,-0.02358,-0.00000,-1.57080,0.00000]), a=accel, v=vel, t=0, r=round)
movel(pose_trans(f_name,p[0.00000,-0.25002,-0.02247,-0.00000,-1.57080,0.00000]), a=accel, v=vel, t=0, r=round)
movel(pose_trans(f_name,p[0.00000,-0.25141,-0.02139,-0.00000,-1.57080,0.00000]), a=accel, v=vel, t=0, r=round)
movel(pose_trans(f_name,p[0.00000,-0.25307,-0.02036,-0.00000,-1.57080,0.00000]), a=accel, v=vel, t=0, r=round)
movel(pose_trans(f_name,p[0.00000,-0.25499,-0.01934,-0.00000,-1.57080,0.00000]), a=accel, v=vel, t=0, r=round)
movel(pose_trans(f_name,p[0.00000,-0.25724,-0.01826,-0.00000,-1.57080,0.00000]), a=accel, v=vel, t=0, r=round)
movel(pose_trans(f_name,p[0.00000,-0.25953,-0.01726,-0.00000,-1.57080,0.00000]), a=accel, v=vel, t=0, r=round)
