accel=0.5
vel=0.04
round=0.001
f_name=Paint

movel(pose_trans(f_name,p[-0.02000,-0.05084,0.00341,-0.00000,-1.57080,0.00000]), a=accel, v=vel, t=0, r=round)
movel(pose_trans(f_name,p[-0.00200,-0.05084,0.00341,-0.00000,-1.57080,0.00000]), a=accel, v=vel, t=0, r=round)
set_digital_out(0, True)
movel(pose_trans(f_name,p[0.00000,-0.05084,0.00341,-0.00000,-1.57080,0.00000]), a=accel, v=vel, t=0, r=round)
movel(pose_trans(f_name,p[0.00000,-0.04840,0.00396,-0.00000,-1.57080,0.00000]), a=accel, v=vel, t=0, r=round)
movel(pose_trans(f_name,p[0.00000,-0.04595,0.00444,-0.00000,-1.57080,0.00000]), a=accel, v=vel, t=0, r=round)
movel(pose_trans(f_name,p[0.00000,-0.04440,0.00470,-0.00000,-1.57080,0.00000]), a=accel, v=vel, t=0, r=round)
movel(pose_trans(f_name,p[0.00000,-0.04193,0.00492,-0.00000,-1.57080,0.00000]), a=accel, v=vel, t=0, r=round)
movel(pose_trans(f_name,p[0.00000,-0.03943,0.00480,-0.00000,-1.57080,0.00000]), a=accel, v=vel, t=0, r=round)
movel(pose_trans(f_name,p[0.00000,-0.03917,0.00479,-0.00000,-1.57080,0.00000]), a=accel, v=vel, t=0, r=round)
movel(pose_trans(f_name,p[0.00000,-0.03670,0.00439,-0.00000,-1.57080,0.00000]), a=accel, v=vel, t=0, r=round)
movel(pose_trans(f_name,p[0.00000,-0.03424,0.00398,-0.00000,-1.57080,0.00000]), a=accel, v=vel, t=0, r=round)
movel(pose_trans(f_name,p[0.00000,-0.03256,0.00370,-0.00000,-1.57080,0.00000]), a=accel, v=vel, t=0, r=round)
movel(pose_trans(f_name,p[0.00000,-0.03164,0.00381,-0.00000,-1.57080,0.00000]), a=accel, v=vel, t=0, r=round)
movel(pose_trans(f_name,p[0.00000,-0.03084,0.00419,-0.00000,-1.57080,0.00000]), a=accel, v=vel, t=0, r=round)
movel(pose_trans(f_name,p[0.00000,-0.02846,0.00495,-0.00000,-1.57080,0.00000]), a=accel, v=vel, t=0, r=round)
movel(pose_trans(f_name,p[0.00000,-0.02767,0.00521,-0.00000,-1.57080,0.00000]), a=accel, v=vel, t=0, r=round)
movel(pose_trans(f_name,p[0.00000,-0.02520,0.00556,-0.00000,-1.57080,0.00000]), a=accel, v=vel, t=0, r=round)
movel(pose_trans(f_name,p[0.00000,-0.02308,0.00586,-0.00000,-1.57080,0.00000]), a=accel, v=vel, t=0, r=round)
movel(pose_trans(f_name,p[0.00000,-0.02058,0.00595,-0.00000,-1.57080,0.00000]), a=accel, v=vel, t=0, r=round)
movel(pose_trans(f_name,p[0.00000,-0.01864,0.00601,-0.00000,-1.57080,0.00000]), a=accel, v=vel, t=0, r=round)
movel(pose_trans(f_name,p[0.00000,-0.01697,0.00586,-0.00000,-1.57080,0.00000]), a=accel, v=vel, t=0, r=round)
movel(pose_trans(f_name,p[0.00000,-0.01592,0.00553,-0.00000,-1.57080,0.00000]), a=accel, v=vel, t=0, r=round)
movel(pose_trans(f_name,p[0.00000,-0.01545,0.00512,-0.00000,-1.57080,0.00000]), a=accel, v=vel, t=0, r=round)
movel(pose_trans(f_name,p[0.00000,-0.01573,0.00475,-0.00000,-1.57080,0.00000]), a=accel, v=vel, t=0, r=round)
movel(pose_trans(f_name,p[0.00000,-0.01812,0.00402,-0.00000,-1.57080,0.00000]), a=accel, v=vel, t=0, r=round)
movel(pose_trans(f_name,p[0.00000,-0.02050,0.00326,-0.00000,-1.57080,0.00000]), a=accel, v=vel, t=0, r=round)
movel(pose_trans(f_name,p[0.00000,-0.02278,0.00249,-0.00000,-1.57080,0.00000]), a=accel, v=vel, t=0, r=round)
movel(pose_trans(f_name,p[0.00000,-0.02476,0.00117,-0.00000,-1.57080,0.00000]), a=accel, v=vel, t=0, r=round)
movel(pose_trans(f_name,p[0.00000,-0.02544,0.00032,-0.00000,-1.57080,0.00000]), a=accel, v=vel, t=0, r=round)
movel(pose_trans(f_name,p[0.00000,-0.02594,-0.00073,-0.00000,-1.57080,0.00000]), a=accel, v=vel, t=0, r=round)
movel(pose_trans(f_name,p[0.00000,-0.02635,-0.00319,-0.00000,-1.57080,0.00000]), a=accel, v=vel, t=0, r=round)
movel(pose_trans(f_name,p[0.00000,-0.02641,-0.00360,-0.00000,-1.57080,0.00000]), a=accel, v=vel, t=0, r=round)
movel(pose_trans(f_name,p[0.00000,-0.02629,-0.00610,-0.00000,-1.57080,0.00000]), a=accel, v=vel, t=0, r=round)
movel(pose_trans(f_name,p[0.00000,-0.02614,-0.00814,-0.00000,-1.57080,0.00000]), a=accel, v=vel, t=0, r=round)
movel(pose_trans(f_name,p[0.00000,-0.02575,-0.01061,-0.00000,-1.57080,0.00000]), a=accel, v=vel, t=0, r=round)
movel(pose_trans(f_name,p[0.00000,-0.02536,-0.01308,-0.00000,-1.57080,0.00000]), a=accel, v=vel, t=0, r=round)
movel(pose_trans(f_name,p[0.00000,-0.02493,-0.01554,-0.00000,-1.57080,0.00000]), a=accel, v=vel, t=0, r=round)
movel(pose_trans(f_name,p[0.00000,-0.02449,-0.01800,-0.00000,-1.57080,0.00000]), a=accel, v=vel, t=0, r=round)
movel(pose_trans(f_name,p[0.00000,-0.02419,-0.02048,-0.00000,-1.57080,0.00000]), a=accel, v=vel, t=0, r=round)
movel(pose_trans(f_name,p[0.00000,-0.02411,-0.02117,-0.00000,-1.57080,0.00000]), a=accel, v=vel, t=0, r=round)
movel(pose_trans(f_name,p[0.00000,-0.02435,-0.02249,-0.00000,-1.57080,0.00000]), a=accel, v=vel, t=0, r=round)
movel(pose_trans(f_name,p[0.00000,-0.02514,-0.02298,-0.00000,-1.57080,0.00000]), a=accel, v=vel, t=0, r=round)
movel(pose_trans(f_name,p[0.00000,-0.02679,-0.02319,-0.00000,-1.57080,0.00000]), a=accel, v=vel, t=0, r=round)
movel(pose_trans(f_name,p[0.00000,-0.02925,-0.02279,-0.00000,-1.57080,0.00000]), a=accel, v=vel, t=0, r=round)
movel(pose_trans(f_name,p[0.00000,-0.03122,-0.02241,-0.00000,-1.57080,0.00000]), a=accel, v=vel, t=0, r=round)
movel(pose_trans(f_name,p[0.00000,-0.03365,-0.02180,-0.00000,-1.57080,0.00000]), a=accel, v=vel, t=0, r=round)
movel(pose_trans(f_name,p[0.00000,-0.03607,-0.02119,-0.00000,-1.57080,0.00000]), a=accel, v=vel, t=0, r=round)
movel(pose_trans(f_name,p[0.00000,-0.03701,-0.02095,-0.00000,-1.57080,0.00000]), a=accel, v=vel, t=0, r=round)
movel(pose_trans(f_name,p[0.00000,-0.03934,-0.02005,-0.00000,-1.57080,0.00000]), a=accel, v=vel, t=0, r=round)
movel(pose_trans(f_name,p[0.00000,-0.04167,-0.01916,-0.00000,-1.57080,0.00000]), a=accel, v=vel, t=0, r=round)
movel(pose_trans(f_name,p[0.00000,-0.04253,-0.01882,-0.00000,-1.57080,0.00000]), a=accel, v=vel, t=0, r=round)
movel(pose_trans(f_name,p[0.00000,-0.04466,-0.01751,-0.00000,-1.57080,0.00000]), a=accel, v=vel, t=0, r=round)
movel(pose_trans(f_name,p[0.00000,-0.04679,-0.01620,-0.00000,-1.57080,0.00000]), a=accel, v=vel, t=0, r=round)
movel(pose_trans(f_name,p[0.00000,-0.04797,-0.01547,-0.00000,-1.57080,0.00000]), a=accel, v=vel, t=0, r=round)
movel(pose_trans(f_name,p[0.00000,-0.04992,-0.01390,-0.00000,-1.57080,0.00000]), a=accel, v=vel, t=0, r=round)
movel(pose_trans(f_name,p[0.00000,-0.05186,-0.01233,-0.00000,-1.57080,0.00000]), a=accel, v=vel, t=0, r=round)
movel(pose_trans(f_name,p[0.00000,-0.05358,-0.01094,-0.00000,-1.57080,0.00000]), a=accel, v=vel, t=0, r=round)
movel(pose_trans(f_name,p[0.00000,-0.05535,-0.00918,-0.00000,-1.57080,0.00000]), a=accel, v=vel, t=0, r=round)
movel(pose_trans(f_name,p[0.00000,-0.05712,-0.00741,-0.00000,-1.57080,0.00000]), a=accel, v=vel, t=0, r=round)
movel(pose_trans(f_name,p[0.00000,-0.05873,-0.00580,-0.00000,-1.57080,0.00000]), a=accel, v=vel, t=0, r=round)
movel(pose_trans(f_name,p[0.00000,-0.06028,-0.00383,-0.00000,-1.57080,0.00000]), a=accel, v=vel, t=0, r=round)
movel(pose_trans(f_name,p[0.00000,-0.06182,-0.00186,-0.00000,-1.57080,0.00000]), a=accel, v=vel, t=0, r=round)
movel(pose_trans(f_name,p[0.00000,-0.06282,-0.00059,-0.00000,-1.57080,0.00000]), a=accel, v=vel, t=0, r=round)
movel(pose_trans(f_name,p[0.00000,-0.06409,0.00157,-0.00000,-1.57080,0.00000]), a=accel, v=vel, t=0, r=round)
movel(pose_trans(f_name,p[0.00000,-0.06517,0.00341,-0.00000,-1.57080,0.00000]), a=accel, v=vel, t=0, r=round)
movel(pose_trans(f_name,p[0.00000,-0.06582,0.00502,-0.00000,-1.57080,0.00000]), a=accel, v=vel, t=0, r=round)
movel(pose_trans(f_name,p[0.00000,-0.06614,0.00644,-0.00000,-1.57080,0.00000]), a=accel, v=vel, t=0, r=round)
movel(pose_trans(f_name,p[0.00000,-0.06611,0.00771,-0.00000,-1.57080,0.00000]), a=accel, v=vel, t=0, r=round)
movel(pose_trans(f_name,p[0.00000,-0.06576,0.00889,-0.00000,-1.57080,0.00000]), a=accel, v=vel, t=0, r=round)
movel(pose_trans(f_name,p[0.00000,-0.06508,0.01002,-0.00000,-1.57080,0.00000]), a=accel, v=vel, t=0, r=round)
movel(pose_trans(f_name,p[0.00000,-0.06350,0.01174,-0.00000,-1.57080,0.00000]), a=accel, v=vel, t=0, r=round)
movel(pose_trans(f_name,p[0.00000,-0.06242,0.01282,-0.00000,-1.57080,0.00000]), a=accel, v=vel, t=0, r=round)
movel(pose_trans(f_name,p[0.00000,-0.06077,0.01094,-0.00000,-1.57080,0.00000]), a=accel, v=vel, t=0, r=round)
movel(pose_trans(f_name,p[0.00000,-0.06054,0.01068,-0.00000,-1.57080,0.00000]), a=accel, v=vel, t=0, r=round)
movel(pose_trans(f_name,p[0.00000,-0.05870,0.00900,-0.00000,-1.57080,0.00000]), a=accel, v=vel, t=0, r=round)
movel(pose_trans(f_name,p[0.00000,-0.05807,0.00842,-0.00000,-1.57080,0.00000]), a=accel, v=vel, t=0, r=round)
movel(pose_trans(f_name,p[0.00000,-0.05605,0.00694,-0.00000,-1.57080,0.00000]), a=accel, v=vel, t=0, r=round)
movel(pose_trans(f_name,p[0.00000,-0.05401,0.00549,-0.00000,-1.57080,0.00000]), a=accel, v=vel, t=0, r=round)
movel(pose_trans(f_name,p[0.00000,-0.05192,0.00412,-0.00000,-1.57080,0.00000]), a=accel, v=vel, t=0, r=round)
movel(pose_trans(f_name,p[0.00000,-0.05084,0.00341,-0.00000,-1.57080,0.00000]), a=accel, v=vel, t=0, r=round)
set_digital_out(0, False)
movel(pose_trans(f_name,p[-0.00200,-0.05084,0.00341,-0.00000,-1.57080,0.00000]), a=accel, v=vel, t=0, r=round)
movel(pose_trans(f_name,p[-0.02000,-0.05084,0.00341,-0.00000,-1.57080,0.00000]), a=accel, v=vel, t=0, r=round)
movel(pose_trans(f_name,p[-0.02000,-0.04963,0.00874,-0.00000,-1.57080,0.00000]), a=accel, v=vel, t=0, r=round)
movel(pose_trans(f_name,p[-0.00200,-0.04963,0.00874,-0.00000,-1.57080,0.00000]), a=accel, v=vel, t=0, r=round)
set_digital_out(0, True)
movel(pose_trans(f_name,p[0.00000,-0.04963,0.00874,-0.00000,-1.57080,0.00000]), a=accel, v=vel, t=0, r=round)
movel(pose_trans(f_name,p[0.00000,-0.04831,0.00835,-0.00000,-1.57080,0.00000]), a=accel, v=vel, t=0, r=round)
movel(pose_trans(f_name,p[0.00000,-0.04581,0.00827,-0.00000,-1.57080,0.00000]), a=accel, v=vel, t=0, r=round)
movel(pose_trans(f_name,p[0.00000,-0.04331,0.00821,-0.00000,-1.57080,0.00000]), a=accel, v=vel, t=0, r=round)
movel(pose_trans(f_name,p[0.00000,-0.04082,0.00836,-0.00000,-1.57080,0.00000]), a=accel, v=vel, t=0, r=round)
movel(pose_trans(f_name,p[0.00000,-0.03832,0.00851,-0.00000,-1.57080,0.00000]), a=accel, v=vel, t=0, r=round)
movel(pose_trans(f_name,p[0.00000,-0.03819,0.00851,-0.00000,-1.57080,0.00000]), a=accel, v=vel, t=0, r=round)
movel(pose_trans(f_name,p[0.00000,-0.03572,0.00894,-0.00000,-1.57080,0.00000]), a=accel, v=vel, t=0, r=round)
movel(pose_trans(f_name,p[0.00000,-0.03326,0.00937,-0.00000,-1.57080,0.00000]), a=accel, v=vel, t=0, r=round)
movel(pose_trans(f_name,p[0.00000,-0.03081,0.00985,-0.00000,-1.57080,0.00000]), a=accel, v=vel, t=0, r=round)
movel(pose_trans(f_name,p[0.00000,-0.02836,0.01033,-0.00000,-1.57080,0.00000]), a=accel, v=vel, t=0, r=round)
movel(pose_trans(f_name,p[0.00000,-0.02742,0.01052,-0.00000,-1.57080,0.00000]), a=accel, v=vel, t=0, r=round)
movel(pose_trans(f_name,p[0.00000,-0.02956,0.00922,-0.00000,-1.57080,0.00000]), a=accel, v=vel, t=0, r=round)
movel(pose_trans(f_name,p[0.00000,-0.03134,0.00808,-0.00000,-1.57080,0.00000]), a=accel, v=vel, t=0, r=round)
movel(pose_trans(f_name,p[0.00000,-0.03183,0.00739,-0.00000,-1.57080,0.00000]), a=accel, v=vel, t=0, r=round)
movel(pose_trans(f_name,p[0.00000,-0.03126,0.00706,-0.00000,-1.57080,0.00000]), a=accel, v=vel, t=0, r=round)
movel(pose_trans(f_name,p[0.00000,-0.02876,0.00718,-0.00000,-1.57080,0.00000]), a=accel, v=vel, t=0, r=round)
movel(pose_trans(f_name,p[0.00000,-0.02626,0.00728,-0.00000,-1.57080,0.00000]), a=accel, v=vel, t=0, r=round)
movel(pose_trans(f_name,p[0.00000,-0.02377,0.00738,-0.00000,-1.57080,0.00000]), a=accel, v=vel, t=0, r=round)
movel(pose_trans(f_name,p[0.00000,-0.02142,0.00748,-0.00000,-1.57080,0.00000]), a=accel, v=vel, t=0, r=round)
movel(pose_trans(f_name,p[0.00000,-0.01892,0.00742,-0.00000,-1.57080,0.00000]), a=accel, v=vel, t=0, r=round)
movel(pose_trans(f_name,p[0.00000,-0.01642,0.00737,-0.00000,-1.57080,0.00000]), a=accel, v=vel, t=0, r=round)
movel(pose_trans(f_name,p[0.00000,-0.01392,0.00731,-0.00000,-1.57080,0.00000]), a=accel, v=vel, t=0, r=round)
movel(pose_trans(f_name,p[0.00000,-0.01143,0.00726,-0.00000,-1.57080,0.00000]), a=accel, v=vel, t=0, r=round)
movel(pose_trans(f_name,p[0.00000,-0.00893,0.00720,-0.00000,-1.57080,0.00000]), a=accel, v=vel, t=0, r=round)
movel(pose_trans(f_name,p[0.00000,-0.00643,0.00717,-0.00000,-1.57080,0.00000]), a=accel, v=vel, t=0, r=round)
movel(pose_trans(f_name,p[0.00000,-0.00393,0.00713,-0.00000,-1.57080,0.00000]), a=accel, v=vel, t=0, r=round)
movel(pose_trans(f_name,p[0.00000,-0.00208,0.00711,-0.00000,-1.57080,0.00000]), a=accel, v=vel, t=0, r=round)
movel(pose_trans(f_name,p[0.00000,0.00039,0.00750,-0.00000,-1.57080,0.00000]), a=accel, v=vel, t=0, r=round)
movel(pose_trans(f_name,p[0.00000,0.00286,0.00789,-0.00000,-1.57080,0.00000]), a=accel, v=vel, t=0, r=round)
movel(pose_trans(f_name,p[0.00000,0.00533,0.00826,-0.00000,-1.57080,0.00000]), a=accel, v=vel, t=0, r=round)
movel(pose_trans(f_name,p[0.00000,0.00780,0.00864,-0.00000,-1.57080,0.00000]), a=accel, v=vel, t=0, r=round)
movel(pose_trans(f_name,p[0.00000,0.00868,0.00877,-0.00000,-1.57080,0.00000]), a=accel, v=vel, t=0, r=round)
movel(pose_trans(f_name,p[0.00000,0.01117,0.00887,-0.00000,-1.57080,0.00000]), a=accel, v=vel, t=0, r=round)
movel(pose_trans(f_name,p[0.00000,0.01367,0.00897,-0.00000,-1.57080,0.00000]), a=accel, v=vel, t=0, r=round)
movel(pose_trans(f_name,p[0.00000,0.01617,0.00906,-0.00000,-1.57080,0.00000]), a=accel, v=vel, t=0, r=round)
movel(pose_trans(f_name,p[0.00000,0.01867,0.00915,-0.00000,-1.57080,0.00000]), a=accel, v=vel, t=0, r=round)
movel(pose_trans(f_name,p[0.00000,0.02116,0.00923,-0.00000,-1.57080,0.00000]), a=accel, v=vel, t=0, r=round)
movel(pose_trans(f_name,p[0.00000,0.02366,0.00931,-0.00000,-1.57080,0.00000]), a=accel, v=vel, t=0, r=round)
movel(pose_trans(f_name,p[0.00000,0.02439,0.00933,-0.00000,-1.57080,0.00000]), a=accel, v=vel, t=0, r=round)
movel(pose_trans(f_name,p[0.00000,0.02565,0.00966,-0.00000,-1.57080,0.00000]), a=accel, v=vel, t=0, r=round)
movel(pose_trans(f_name,p[0.00000,0.02668,0.01076,-0.00000,-1.57080,0.00000]), a=accel, v=vel, t=0, r=round)
movel(pose_trans(f_name,p[0.00000,0.02730,0.01107,-0.00000,-1.57080,0.00000]), a=accel, v=vel, t=0, r=round)
movel(pose_trans(f_name,p[0.00000,0.02979,0.01128,-0.00000,-1.57080,0.00000]), a=accel, v=vel, t=0, r=round)
movel(pose_trans(f_name,p[0.00000,0.03229,0.01136,-0.00000,-1.57080,0.00000]), a=accel, v=vel, t=0, r=round)
movel(pose_trans(f_name,p[0.00000,0.03433,0.01148,-0.00000,-1.57080,0.00000]), a=accel, v=vel, t=0, r=round)
movel(pose_trans(f_name,p[0.00000,0.03682,0.01175,-0.00000,-1.57080,0.00000]), a=accel, v=vel, t=0, r=round)
movel(pose_trans(f_name,p[0.00000,0.03810,0.01193,-0.00000,-1.57080,0.00000]), a=accel, v=vel, t=0, r=round)
movel(pose_trans(f_name,p[0.00000,0.04056,0.01239,-0.00000,-1.57080,0.00000]), a=accel, v=vel, t=0, r=round)
movel(pose_trans(f_name,p[0.00000,0.04176,0.01266,-0.00000,-1.57080,0.00000]), a=accel, v=vel, t=0, r=round)
movel(pose_trans(f_name,p[0.00000,0.04417,0.01332,-0.00000,-1.57080,0.00000]), a=accel, v=vel, t=0, r=round)
movel(pose_trans(f_name,p[0.00000,0.04652,0.01414,-0.00000,-1.57080,0.00000]), a=accel, v=vel, t=0, r=round)
movel(pose_trans(f_name,p[0.00000,0.04842,0.01490,-0.00000,-1.57080,0.00000]), a=accel, v=vel, t=0, r=round)
movel(pose_trans(f_name,p[0.00000,0.05067,0.01599,-0.00000,-1.57080,0.00000]), a=accel, v=vel, t=0, r=round)
movel(pose_trans(f_name,p[0.00000,0.05283,0.01726,-0.00000,-1.57080,0.00000]), a=accel, v=vel, t=0, r=round)
movel(pose_trans(f_name,p[0.00000,0.05429,0.01821,-0.00000,-1.57080,0.00000]), a=accel, v=vel, t=0, r=round)
movel(pose_trans(f_name,p[0.00000,0.05629,0.01971,-0.00000,-1.57080,0.00000]), a=accel, v=vel, t=0, r=round)
movel(pose_trans(f_name,p[0.00000,0.05833,0.02115,-0.00000,-1.57080,0.00000]), a=accel, v=vel, t=0, r=round)
movel(pose_trans(f_name,p[0.00000,0.05919,0.02174,-0.00000,-1.57080,0.00000]), a=accel, v=vel, t=0, r=round)
movel(pose_trans(f_name,p[0.00000,0.05880,0.01927,-0.00000,-1.57080,0.00000]), a=accel, v=vel, t=0, r=round)
movel(pose_trans(f_name,p[0.00000,0.05854,0.01795,-0.00000,-1.57080,0.00000]), a=accel, v=vel, t=0, r=round)
movel(pose_trans(f_name,p[0.00000,0.05863,0.01739,-0.00000,-1.57080,0.00000]), a=accel, v=vel, t=0, r=round)
movel(pose_trans(f_name,p[0.00000,0.05896,0.01700,-0.00000,-1.57080,0.00000]), a=accel, v=vel, t=0, r=round)
movel(pose_trans(f_name,p[0.00000,0.06053,0.01662,-0.00000,-1.57080,0.00000]), a=accel, v=vel, t=0, r=round)
movel(pose_trans(f_name,p[0.00000,0.06302,0.01656,-0.00000,-1.57080,0.00000]), a=accel, v=vel, t=0, r=round)
movel(pose_trans(f_name,p[0.00000,0.06552,0.01663,-0.00000,-1.57080,0.00000]), a=accel, v=vel, t=0, r=round)
movel(pose_trans(f_name,p[0.00000,0.06802,0.01675,-0.00000,-1.57080,0.00000]), a=accel, v=vel, t=0, r=round)
movel(pose_trans(f_name,p[0.00000,0.07050,0.01703,-0.00000,-1.57080,0.00000]), a=accel, v=vel, t=0, r=round)
movel(pose_trans(f_name,p[0.00000,0.07298,0.01733,-0.00000,-1.57080,0.00000]), a=accel, v=vel, t=0, r=round)
movel(pose_trans(f_name,p[0.00000,0.07545,0.01775,-0.00000,-1.57080,0.00000]), a=accel, v=vel, t=0, r=round)
movel(pose_trans(f_name,p[0.00000,0.07791,0.01818,-0.00000,-1.57080,0.00000]), a=accel, v=vel, t=0, r=round)
movel(pose_trans(f_name,p[0.00000,0.08035,0.01870,-0.00000,-1.57080,0.00000]), a=accel, v=vel, t=0, r=round)
movel(pose_trans(f_name,p[0.00000,0.08279,0.01925,-0.00000,-1.57080,0.00000]), a=accel, v=vel, t=0, r=round)
movel(pose_trans(f_name,p[0.00000,0.08510,0.01983,-0.00000,-1.57080,0.00000]), a=accel, v=vel, t=0, r=round)
movel(pose_trans(f_name,p[0.00000,0.08751,0.02049,-0.00000,-1.57080,0.00000]), a=accel, v=vel, t=0, r=round)
movel(pose_trans(f_name,p[0.00000,0.08991,0.02116,-0.00000,-1.57080,0.00000]), a=accel, v=vel, t=0, r=round)
movel(pose_trans(f_name,p[0.00000,0.09229,0.02193,-0.00000,-1.57080,0.00000]), a=accel, v=vel, t=0, r=round)
movel(pose_trans(f_name,p[0.00000,0.09467,0.02271,-0.00000,-1.57080,0.00000]), a=accel, v=vel, t=0, r=round)
movel(pose_trans(f_name,p[0.00000,0.09700,0.02359,-0.00000,-1.57080,0.00000]), a=accel, v=vel, t=0, r=round)
movel(pose_trans(f_name,p[0.00000,0.09934,0.02448,-0.00000,-1.57080,0.00000]), a=accel, v=vel, t=0, r=round)
movel(pose_trans(f_name,p[0.00000,0.10162,0.02549,-0.00000,-1.57080,0.00000]), a=accel, v=vel, t=0, r=round)
movel(pose_trans(f_name,p[0.00000,0.10390,0.02653,-0.00000,-1.57080,0.00000]), a=accel, v=vel, t=0, r=round)
movel(pose_trans(f_name,p[0.00000,0.10428,0.02671,-0.00000,-1.57080,0.00000]), a=accel, v=vel, t=0, r=round)
movel(pose_trans(f_name,p[0.00000,0.10643,0.02799,-0.00000,-1.57080,0.00000]), a=accel, v=vel, t=0, r=round)
movel(pose_trans(f_name,p[0.00000,0.10751,0.02863,-0.00000,-1.57080,0.00000]), a=accel, v=vel, t=0, r=round)
movel(pose_trans(f_name,p[0.00000,0.10947,0.03018,-0.00000,-1.57080,0.00000]), a=accel, v=vel, t=0, r=round)
movel(pose_trans(f_name,p[0.00000,0.11129,0.03167,-0.00000,-1.57080,0.00000]), a=accel, v=vel, t=0, r=round)
movel(pose_trans(f_name,p[0.00000,0.11310,0.03340,-0.00000,-1.57080,0.00000]), a=accel, v=vel, t=0, r=round)
movel(pose_trans(f_name,p[0.00000,0.11490,0.03513,-0.00000,-1.57080,0.00000]), a=accel, v=vel, t=0, r=round)
movel(pose_trans(f_name,p[0.00000,0.11661,0.03695,-0.00000,-1.57080,0.00000]), a=accel, v=vel, t=0, r=round)
movel(pose_trans(f_name,p[0.00000,0.11832,0.03878,-0.00000,-1.57080,0.00000]), a=accel, v=vel, t=0, r=round)
movel(pose_trans(f_name,p[0.00000,0.12003,0.04060,-0.00000,-1.57080,0.00000]), a=accel, v=vel, t=0, r=round)
movel(pose_trans(f_name,p[0.00000,0.12173,0.04243,-0.00000,-1.57080,0.00000]), a=accel, v=vel, t=0, r=round)
movel(pose_trans(f_name,p[0.00000,0.12343,0.04426,-0.00000,-1.57080,0.00000]), a=accel, v=vel, t=0, r=round)
movel(pose_trans(f_name,p[0.00000,0.12513,0.04609,-0.00000,-1.57080,0.00000]), a=accel, v=vel, t=0, r=round)
movel(pose_trans(f_name,p[0.00000,0.12683,0.04793,-0.00000,-1.57080,0.00000]), a=accel, v=vel, t=0, r=round)
movel(pose_trans(f_name,p[0.00000,0.12853,0.04976,-0.00000,-1.57080,0.00000]), a=accel, v=vel, t=0, r=round)
movel(pose_trans(f_name,p[0.00000,0.13023,0.05159,-0.00000,-1.57080,0.00000]), a=accel, v=vel, t=0, r=round)
movel(pose_trans(f_name,p[0.00000,0.13193,0.05342,-0.00000,-1.57080,0.00000]), a=accel, v=vel, t=0, r=round)
movel(pose_trans(f_name,p[0.00000,0.13363,0.05525,-0.00000,-1.57080,0.00000]), a=accel, v=vel, t=0, r=round)
movel(pose_trans(f_name,p[0.00000,0.13533,0.05709,-0.00000,-1.57080,0.00000]), a=accel, v=vel, t=0, r=round)
movel(pose_trans(f_name,p[0.00000,0.13703,0.05892,-0.00000,-1.57080,0.00000]), a=accel, v=vel, t=0, r=round)
movel(pose_trans(f_name,p[0.00000,0.13873,0.06075,-0.00000,-1.57080,0.00000]), a=accel, v=vel, t=0, r=round)
movel(pose_trans(f_name,p[0.00000,0.14043,0.06259,-0.00000,-1.57080,0.00000]), a=accel, v=vel, t=0, r=round)
movel(pose_trans(f_name,p[0.00000,0.14206,0.06447,-0.00000,-1.57080,0.00000]), a=accel, v=vel, t=0, r=round)
movel(pose_trans(f_name,p[0.00000,0.14369,0.06638,-0.00000,-1.57080,0.00000]), a=accel, v=vel, t=0, r=round)
movel(pose_trans(f_name,p[0.00000,0.14394,0.06667,-0.00000,-1.57080,0.00000]), a=accel, v=vel, t=0, r=round)
movel(pose_trans(f_name,p[0.00000,0.14461,0.06817,-0.00000,-1.57080,0.00000]), a=accel, v=vel, t=0, r=round)
movel(pose_trans(f_name,p[0.00000,0.14478,0.06957,-0.00000,-1.57080,0.00000]), a=accel, v=vel, t=0, r=round)
movel(pose_trans(f_name,p[0.00000,0.14443,0.07087,-0.00000,-1.57080,0.00000]), a=accel, v=vel, t=0, r=round)
movel(pose_trans(f_name,p[0.00000,0.14358,0.07204,-0.00000,-1.57080,0.00000]), a=accel, v=vel, t=0, r=round)
movel(pose_trans(f_name,p[0.00000,0.14278,0.07275,-0.00000,-1.57080,0.00000]), a=accel, v=vel, t=0, r=round)
movel(pose_trans(f_name,p[0.00000,0.14184,0.07309,-0.00000,-1.57080,0.00000]), a=accel, v=vel, t=0, r=round)
movel(pose_trans(f_name,p[0.00000,0.13934,0.07302,-0.00000,-1.57080,0.00000]), a=accel, v=vel, t=0, r=round)
movel(pose_trans(f_name,p[0.00000,0.13684,0.07295,-0.00000,-1.57080,0.00000]), a=accel, v=vel, t=0, r=round)
movel(pose_trans(f_name,p[0.00000,0.13434,0.07284,-0.00000,-1.57080,0.00000]), a=accel, v=vel, t=0, r=round)
movel(pose_trans(f_name,p[0.00000,0.13184,0.07274,-0.00000,-1.57080,0.00000]), a=accel, v=vel, t=0, r=round)
movel(pose_trans(f_name,p[0.00000,0.12935,0.07263,-0.00000,-1.57080,0.00000]), a=accel, v=vel, t=0, r=round)
movel(pose_trans(f_name,p[0.00000,0.12685,0.07252,-0.00000,-1.57080,0.00000]), a=accel, v=vel, t=0, r=round)
movel(pose_trans(f_name,p[0.00000,0.12435,0.07242,-0.00000,-1.57080,0.00000]), a=accel, v=vel, t=0, r=round)
movel(pose_trans(f_name,p[0.00000,0.12186,0.07231,-0.00000,-1.57080,0.00000]), a=accel, v=vel, t=0, r=round)
movel(pose_trans(f_name,p[0.00000,0.11936,0.07220,-0.00000,-1.57080,0.00000]), a=accel, v=vel, t=0, r=round)
movel(pose_trans(f_name,p[0.00000,0.11686,0.07210,-0.00000,-1.57080,0.00000]), a=accel, v=vel, t=0, r=round)
movel(pose_trans(f_name,p[0.00000,0.11436,0.07203,-0.00000,-1.57080,0.00000]), a=accel, v=vel, t=0, r=round)
movel(pose_trans(f_name,p[0.00000,0.11187,0.07196,-0.00000,-1.57080,0.00000]), a=accel, v=vel, t=0, r=round)
movel(pose_trans(f_name,p[0.00000,0.10937,0.07190,-0.00000,-1.57080,0.00000]), a=accel, v=vel, t=0, r=round)
movel(pose_trans(f_name,p[0.00000,0.10687,0.07183,-0.00000,-1.57080,0.00000]), a=accel, v=vel, t=0, r=round)
movel(pose_trans(f_name,p[0.00000,0.10437,0.07176,-0.00000,-1.57080,0.00000]), a=accel, v=vel, t=0, r=round)
movel(pose_trans(f_name,p[0.00000,0.10187,0.07170,-0.00000,-1.57080,0.00000]), a=accel, v=vel, t=0, r=round)
movel(pose_trans(f_name,p[0.00000,0.09937,0.07163,-0.00000,-1.57080,0.00000]), a=accel, v=vel, t=0, r=round)
movel(pose_trans(f_name,p[0.00000,0.09688,0.07157,-0.00000,-1.57080,0.00000]), a=accel, v=vel, t=0, r=round)
movel(pose_trans(f_name,p[0.00000,0.09438,0.07150,-0.00000,-1.57080,0.00000]), a=accel, v=vel, t=0, r=round)
movel(pose_trans(f_name,p[0.00000,0.09188,0.07144,-0.00000,-1.57080,0.00000]), a=accel, v=vel, t=0, r=round)
movel(pose_trans(f_name,p[0.00000,0.08938,0.07137,-0.00000,-1.57080,0.00000]), a=accel, v=vel, t=0, r=round)
movel(pose_trans(f_name,p[0.00000,0.08688,0.07131,-0.00000,-1.57080,0.00000]), a=accel, v=vel, t=0, r=round)
movel(pose_trans(f_name,p[0.00000,0.08438,0.07124,-0.00000,-1.57080,0.00000]), a=accel, v=vel, t=0, r=round)
movel(pose_trans(f_name,p[0.00000,0.08188,0.07118,-0.00000,-1.57080,0.00000]), a=accel, v=vel, t=0, r=round)
movel(pose_trans(f_name,p[0.00000,0.07939,0.07112,-0.00000,-1.57080,0.00000]), a=accel, v=vel, t=0, r=round)
movel(pose_trans(f_name,p[0.00000,0.07689,0.07107,-0.00000,-1.57080,0.00000]), a=accel, v=vel, t=0, r=round)
movel(pose_trans(f_name,p[0.00000,0.07439,0.07101,-0.00000,-1.57080,0.00000]), a=accel, v=vel, t=0, r=round)
movel(pose_trans(f_name,p[0.00000,0.07189,0.07096,-0.00000,-1.57080,0.00000]), a=accel, v=vel, t=0, r=round)
movel(pose_trans(f_name,p[0.00000,0.06939,0.07090,-0.00000,-1.57080,0.00000]), a=accel, v=vel, t=0, r=round)
movel(pose_trans(f_name,p[0.00000,0.06689,0.07085,-0.00000,-1.57080,0.00000]), a=accel, v=vel, t=0, r=round)
movel(pose_trans(f_name,p[0.00000,0.06439,0.07080,-0.00000,-1.57080,0.00000]), a=accel, v=vel, t=0, r=round)
movel(pose_trans(f_name,p[0.00000,0.06189,0.07074,-0.00000,-1.57080,0.00000]), a=accel, v=vel, t=0, r=round)
movel(pose_trans(f_name,p[0.00000,0.05940,0.07069,-0.00000,-1.57080,0.00000]), a=accel, v=vel, t=0, r=round)
movel(pose_trans(f_name,p[0.00000,0.05690,0.07063,-0.00000,-1.57080,0.00000]), a=accel, v=vel, t=0, r=round)
movel(pose_trans(f_name,p[0.00000,0.05527,0.07060,-0.00000,-1.57080,0.00000]), a=accel, v=vel, t=0, r=round)
movel(pose_trans(f_name,p[0.00000,0.05314,0.07190,-0.00000,-1.57080,0.00000]), a=accel, v=vel, t=0, r=round)
movel(pose_trans(f_name,p[0.00000,0.05101,0.07320,-0.00000,-1.57080,0.00000]), a=accel, v=vel, t=0, r=round)
movel(pose_trans(f_name,p[0.00000,0.04887,0.07450,-0.00000,-1.57080,0.00000]), a=accel, v=vel, t=0, r=round)
movel(pose_trans(f_name,p[0.00000,0.04673,0.07578,-0.00000,-1.57080,0.00000]), a=accel, v=vel, t=0, r=round)
movel(pose_trans(f_name,p[0.00000,0.04457,0.07704,-0.00000,-1.57080,0.00000]), a=accel, v=vel, t=0, r=round)
movel(pose_trans(f_name,p[0.00000,0.04241,0.07830,-0.00000,-1.57080,0.00000]), a=accel, v=vel, t=0, r=round)
movel(pose_trans(f_name,p[0.00000,0.04041,0.07938,-0.00000,-1.57080,0.00000]), a=accel, v=vel, t=0, r=round)
movel(pose_trans(f_name,p[0.00000,0.03818,0.08051,-0.00000,-1.57080,0.00000]), a=accel, v=vel, t=0, r=round)
movel(pose_trans(f_name,p[0.00000,0.03596,0.08164,-0.00000,-1.57080,0.00000]), a=accel, v=vel, t=0, r=round)
movel(pose_trans(f_name,p[0.00000,0.03365,0.08260,-0.00000,-1.57080,0.00000]), a=accel, v=vel, t=0, r=round)
movel(pose_trans(f_name,p[0.00000,0.03134,0.08356,-0.00000,-1.57080,0.00000]), a=accel, v=vel, t=0, r=round)
movel(pose_trans(f_name,p[0.00000,0.02901,0.08447,-0.00000,-1.57080,0.00000]), a=accel, v=vel, t=0, r=round)
movel(pose_trans(f_name,p[0.00000,0.02666,0.08531,-0.00000,-1.57080,0.00000]), a=accel, v=vel, t=0, r=round)
movel(pose_trans(f_name,p[0.00000,0.02430,0.08614,-0.00000,-1.57080,0.00000]), a=accel, v=vel, t=0, r=round)
movel(pose_trans(f_name,p[0.00000,0.02193,0.08694,-0.00000,-1.57080,0.00000]), a=accel, v=vel, t=0, r=round)
movel(pose_trans(f_name,p[0.00000,0.01955,0.08768,-0.00000,-1.57080,0.00000]), a=accel, v=vel, t=0, r=round)
movel(pose_trans(f_name,p[0.00000,0.01716,0.08841,-0.00000,-1.57080,0.00000]), a=accel, v=vel, t=0, r=round)
movel(pose_trans(f_name,p[0.00000,0.01477,0.08914,-0.00000,-1.57080,0.00000]), a=accel, v=vel, t=0, r=round)
movel(pose_trans(f_name,p[0.00000,0.01237,0.08986,-0.00000,-1.57080,0.00000]), a=accel, v=vel, t=0, r=round)
movel(pose_trans(f_name,p[0.00000,0.00993,0.09040,-0.00000,-1.57080,0.00000]), a=accel, v=vel, t=0, r=round)
movel(pose_trans(f_name,p[0.00000,0.00749,0.09093,-0.00000,-1.57080,0.00000]), a=accel, v=vel, t=0, r=round)
movel(pose_trans(f_name,p[0.00000,0.00505,0.09147,-0.00000,-1.57080,0.00000]), a=accel, v=vel, t=0, r=round)
movel(pose_trans(f_name,p[0.00000,0.00258,0.09182,-0.00000,-1.57080,0.00000]), a=accel, v=vel, t=0, r=round)
movel(pose_trans(f_name,p[0.00000,0.00053,0.09202,-0.00000,-1.57080,0.00000]), a=accel, v=vel, t=0, r=round)
movel(pose_trans(f_name,p[0.00000,-0.00197,0.09213,-0.00000,-1.57080,0.00000]), a=accel, v=vel, t=0, r=round)
movel(pose_trans(f_name,p[0.00000,-0.00221,0.09214,-0.00000,-1.57080,0.00000]), a=accel, v=vel, t=0, r=round)
movel(pose_trans(f_name,p[0.00000,-0.00470,0.09196,-0.00000,-1.57080,0.00000]), a=accel, v=vel, t=0, r=round)
movel(pose_trans(f_name,p[0.00000,-0.00720,0.09177,-0.00000,-1.57080,0.00000]), a=accel, v=vel, t=0, r=round)
movel(pose_trans(f_name,p[0.00000,-0.00903,0.09159,-0.00000,-1.57080,0.00000]), a=accel, v=vel, t=0, r=round)
movel(pose_trans(f_name,p[0.00000,-0.01150,0.09114,-0.00000,-1.57080,0.00000]), a=accel, v=vel, t=0, r=round)
movel(pose_trans(f_name,p[0.00000,-0.01395,0.09068,-0.00000,-1.57080,0.00000]), a=accel, v=vel, t=0, r=round)
movel(pose_trans(f_name,p[0.00000,-0.01638,0.09009,-0.00000,-1.57080,0.00000]), a=accel, v=vel, t=0, r=round)
movel(pose_trans(f_name,p[0.00000,-0.01880,0.08949,-0.00000,-1.57080,0.00000]), a=accel, v=vel, t=0, r=round)
movel(pose_trans(f_name,p[0.00000,-0.02120,0.08877,-0.00000,-1.57080,0.00000]), a=accel, v=vel, t=0, r=round)
movel(pose_trans(f_name,p[0.00000,-0.02359,0.08806,-0.00000,-1.57080,0.00000]), a=accel, v=vel, t=0, r=round)
movel(pose_trans(f_name,p[0.00000,-0.02596,0.08725,-0.00000,-1.57080,0.00000]), a=accel, v=vel, t=0, r=round)
movel(pose_trans(f_name,p[0.00000,-0.02832,0.08642,-0.00000,-1.57080,0.00000]), a=accel, v=vel, t=0, r=round)
movel(pose_trans(f_name,p[0.00000,-0.03030,0.08565,-0.00000,-1.57080,0.00000]), a=accel, v=vel, t=0, r=round)
movel(pose_trans(f_name,p[0.00000,-0.03261,0.08468,-0.00000,-1.57080,0.00000]), a=accel, v=vel, t=0, r=round)
movel(pose_trans(f_name,p[0.00000,-0.03491,0.08370,-0.00000,-1.57080,0.00000]), a=accel, v=vel, t=0, r=round)
movel(pose_trans(f_name,p[0.00000,-0.03721,0.08272,-0.00000,-1.57080,0.00000]), a=accel, v=vel, t=0, r=round)
movel(pose_trans(f_name,p[0.00000,-0.03951,0.08175,-0.00000,-1.57080,0.00000]), a=accel, v=vel, t=0, r=round)
movel(pose_trans(f_name,p[0.00000,-0.04125,0.08095,-0.00000,-1.57080,0.00000]), a=accel, v=vel, t=0, r=round)
movel(pose_trans(f_name,p[0.00000,-0.04347,0.07980,-0.00000,-1.57080,0.00000]), a=accel, v=vel, t=0, r=round)
movel(pose_trans(f_name,p[0.00000,-0.04569,0.07865,-0.00000,-1.57080,0.00000]), a=accel, v=vel, t=0, r=round)
movel(pose_trans(f_name,p[0.00000,-0.04791,0.07750,-0.00000,-1.57080,0.00000]), a=accel, v=vel, t=0, r=round)
movel(pose_trans(f_name,p[0.00000,-0.05013,0.07636,-0.00000,-1.57080,0.00000]), a=accel, v=vel, t=0, r=round)
movel(pose_trans(f_name,p[0.00000,-0.05235,0.07520,-0.00000,-1.57080,0.00000]), a=accel, v=vel, t=0, r=round)
movel(pose_trans(f_name,p[0.00000,-0.05456,0.07405,-0.00000,-1.57080,0.00000]), a=accel, v=vel, t=0, r=round)
movel(pose_trans(f_name,p[0.00000,-0.05678,0.07289,-0.00000,-1.57080,0.00000]), a=accel, v=vel, t=0, r=round)
movel(pose_trans(f_name,p[0.00000,-0.05759,0.07247,-0.00000,-1.57080,0.00000]), a=accel, v=vel, t=0, r=round)
movel(pose_trans(f_name,p[0.00000,-0.05995,0.07164,-0.00000,-1.57080,0.00000]), a=accel, v=vel, t=0, r=round)
movel(pose_trans(f_name,p[0.00000,-0.06072,0.07137,-0.00000,-1.57080,0.00000]), a=accel, v=vel, t=0, r=round)
movel(pose_trans(f_name,p[0.00000,-0.06321,0.07158,-0.00000,-1.57080,0.00000]), a=accel, v=vel, t=0, r=round)
movel(pose_trans(f_name,p[0.00000,-0.06390,0.07164,-0.00000,-1.57080,0.00000]), a=accel, v=vel, t=0, r=round)
movel(pose_trans(f_name,p[0.00000,-0.06634,0.07218,-0.00000,-1.57080,0.00000]), a=accel, v=vel, t=0, r=round)
movel(pose_trans(f_name,p[0.00000,-0.06878,0.07271,-0.00000,-1.57080,0.00000]), a=accel, v=vel, t=0, r=round)
movel(pose_trans(f_name,p[0.00000,-0.07122,0.07327,-0.00000,-1.57080,0.00000]), a=accel, v=vel, t=0, r=round)
movel(pose_trans(f_name,p[0.00000,-0.07365,0.07383,-0.00000,-1.57080,0.00000]), a=accel, v=vel, t=0, r=round)
movel(pose_trans(f_name,p[0.00000,-0.07608,0.07440,-0.00000,-1.57080,0.00000]), a=accel, v=vel, t=0, r=round)
movel(pose_trans(f_name,p[0.00000,-0.07852,0.07497,-0.00000,-1.57080,0.00000]), a=accel, v=vel, t=0, r=round)
movel(pose_trans(f_name,p[0.00000,-0.08095,0.07553,-0.00000,-1.57080,0.00000]), a=accel, v=vel, t=0, r=round)
movel(pose_trans(f_name,p[0.00000,-0.08340,0.07605,-0.00000,-1.57080,0.00000]), a=accel, v=vel, t=0, r=round)
movel(pose_trans(f_name,p[0.00000,-0.08585,0.07657,-0.00000,-1.57080,0.00000]), a=accel, v=vel, t=0, r=round)
movel(pose_trans(f_name,p[0.00000,-0.08829,0.07708,-0.00000,-1.57080,0.00000]), a=accel, v=vel, t=0, r=round)
movel(pose_trans(f_name,p[0.00000,-0.09074,0.07759,-0.00000,-1.57080,0.00000]), a=accel, v=vel, t=0, r=round)
movel(pose_trans(f_name,p[0.00000,-0.09318,0.07811,-0.00000,-1.57080,0.00000]), a=accel, v=vel, t=0, r=round)
movel(pose_trans(f_name,p[0.00000,-0.09563,0.07862,-0.00000,-1.57080,0.00000]), a=accel, v=vel, t=0, r=round)
movel(pose_trans(f_name,p[0.00000,-0.09808,0.07910,-0.00000,-1.57080,0.00000]), a=accel, v=vel, t=0, r=round)
movel(pose_trans(f_name,p[0.00000,-0.10054,0.07957,-0.00000,-1.57080,0.00000]), a=accel, v=vel, t=0, r=round)
movel(pose_trans(f_name,p[0.00000,-0.10299,0.08005,-0.00000,-1.57080,0.00000]), a=accel, v=vel, t=0, r=round)
movel(pose_trans(f_name,p[0.00000,-0.10544,0.08052,-0.00000,-1.57080,0.00000]), a=accel, v=vel, t=0, r=round)
movel(pose_trans(f_name,p[0.00000,-0.10790,0.08100,-0.00000,-1.57080,0.00000]), a=accel, v=vel, t=0, r=round)
movel(pose_trans(f_name,p[0.00000,-0.11035,0.08147,-0.00000,-1.57080,0.00000]), a=accel, v=vel, t=0, r=round)
movel(pose_trans(f_name,p[0.00000,-0.11281,0.08191,-0.00000,-1.57080,0.00000]), a=accel, v=vel, t=0, r=round)
movel(pose_trans(f_name,p[0.00000,-0.11527,0.08234,-0.00000,-1.57080,0.00000]), a=accel, v=vel, t=0, r=round)
movel(pose_trans(f_name,p[0.00000,-0.11774,0.08277,-0.00000,-1.57080,0.00000]), a=accel, v=vel, t=0, r=round)
movel(pose_trans(f_name,p[0.00000,-0.12020,0.08320,-0.00000,-1.57080,0.00000]), a=accel, v=vel, t=0, r=round)
movel(pose_trans(f_name,p[0.00000,-0.12266,0.08363,-0.00000,-1.57080,0.00000]), a=accel, v=vel, t=0, r=round)
movel(pose_trans(f_name,p[0.00000,-0.12513,0.08403,-0.00000,-1.57080,0.00000]), a=accel, v=vel, t=0, r=round)
movel(pose_trans(f_name,p[0.00000,-0.12760,0.08436,-0.00000,-1.57080,0.00000]), a=accel, v=vel, t=0, r=round)
movel(pose_trans(f_name,p[0.00000,-0.13009,0.08466,-0.00000,-1.57080,0.00000]), a=accel, v=vel, t=0, r=round)
movel(pose_trans(f_name,p[0.00000,-0.13258,0.08485,-0.00000,-1.57080,0.00000]), a=accel, v=vel, t=0, r=round)
movel(pose_trans(f_name,p[0.00000,-0.13507,0.08502,-0.00000,-1.57080,0.00000]), a=accel, v=vel, t=0, r=round)
movel(pose_trans(f_name,p[0.00000,-0.13757,0.08504,-0.00000,-1.57080,0.00000]), a=accel, v=vel, t=0, r=round)
movel(pose_trans(f_name,p[0.00000,-0.13869,0.08505,-0.00000,-1.57080,0.00000]), a=accel, v=vel, t=0, r=round)
movel(pose_trans(f_name,p[0.00000,-0.14116,0.08473,-0.00000,-1.57080,0.00000]), a=accel, v=vel, t=0, r=round)
movel(pose_trans(f_name,p[0.00000,-0.14120,0.08472,-0.00000,-1.57080,0.00000]), a=accel, v=vel, t=0, r=round)
movel(pose_trans(f_name,p[0.00000,-0.14286,0.08396,-0.00000,-1.57080,0.00000]), a=accel, v=vel, t=0, r=round)
movel(pose_trans(f_name,p[0.00000,-0.14406,0.08294,-0.00000,-1.57080,0.00000]), a=accel, v=vel, t=0, r=round)
movel(pose_trans(f_name,p[0.00000,-0.14472,0.08177,-0.00000,-1.57080,0.00000]), a=accel, v=vel, t=0, r=round)
movel(pose_trans(f_name,p[0.00000,-0.14475,0.08054,-0.00000,-1.57080,0.00000]), a=accel, v=vel, t=0, r=round)
movel(pose_trans(f_name,p[0.00000,-0.14321,0.07858,-0.00000,-1.57080,0.00000]), a=accel, v=vel, t=0, r=round)
movel(pose_trans(f_name,p[0.00000,-0.14163,0.07664,-0.00000,-1.57080,0.00000]), a=accel, v=vel, t=0, r=round)
movel(pose_trans(f_name,p[0.00000,-0.13991,0.07482,-0.00000,-1.57080,0.00000]), a=accel, v=vel, t=0, r=round)
movel(pose_trans(f_name,p[0.00000,-0.13819,0.07301,-0.00000,-1.57080,0.00000]), a=accel, v=vel, t=0, r=round)
movel(pose_trans(f_name,p[0.00000,-0.13647,0.07119,-0.00000,-1.57080,0.00000]), a=accel, v=vel, t=0, r=round)
movel(pose_trans(f_name,p[0.00000,-0.13475,0.06938,-0.00000,-1.57080,0.00000]), a=accel, v=vel, t=0, r=round)
movel(pose_trans(f_name,p[0.00000,-0.13303,0.06757,-0.00000,-1.57080,0.00000]), a=accel, v=vel, t=0, r=round)
movel(pose_trans(f_name,p[0.00000,-0.13132,0.06575,-0.00000,-1.57080,0.00000]), a=accel, v=vel, t=0, r=round)
movel(pose_trans(f_name,p[0.00000,-0.12960,0.06394,-0.00000,-1.57080,0.00000]), a=accel, v=vel, t=0, r=round)
movel(pose_trans(f_name,p[0.00000,-0.12788,0.06212,-0.00000,-1.57080,0.00000]), a=accel, v=vel, t=0, r=round)
movel(pose_trans(f_name,p[0.00000,-0.12625,0.06023,-0.00000,-1.57080,0.00000]), a=accel, v=vel, t=0, r=round)
movel(pose_trans(f_name,p[0.00000,-0.12464,0.05832,-0.00000,-1.57080,0.00000]), a=accel, v=vel, t=0, r=round)
movel(pose_trans(f_name,p[0.00000,-0.12370,0.05722,-0.00000,-1.57080,0.00000]), a=accel, v=vel, t=0, r=round)
movel(pose_trans(f_name,p[0.00000,-0.12248,0.05503,-0.00000,-1.57080,0.00000]), a=accel, v=vel, t=0, r=round)
movel(pose_trans(f_name,p[0.00000,-0.12126,0.05285,-0.00000,-1.57080,0.00000]), a=accel, v=vel, t=0, r=round)
movel(pose_trans(f_name,p[0.00000,-0.12004,0.05067,-0.00000,-1.57080,0.00000]), a=accel, v=vel, t=0, r=round)
movel(pose_trans(f_name,p[0.00000,-0.11882,0.04849,-0.00000,-1.57080,0.00000]), a=accel, v=vel, t=0, r=round)
movel(pose_trans(f_name,p[0.00000,-0.11759,0.04631,-0.00000,-1.57080,0.00000]), a=accel, v=vel, t=0, r=round)
movel(pose_trans(f_name,p[0.00000,-0.11635,0.04414,-0.00000,-1.57080,0.00000]), a=accel, v=vel, t=0, r=round)
movel(pose_trans(f_name,p[0.00000,-0.11512,0.04197,-0.00000,-1.57080,0.00000]), a=accel, v=vel, t=0, r=round)
movel(pose_trans(f_name,p[0.00000,-0.11452,0.04092,-0.00000,-1.57080,0.00000]), a=accel, v=vel, t=0, r=round)
movel(pose_trans(f_name,p[0.00000,-0.11303,0.03892,-0.00000,-1.57080,0.00000]), a=accel, v=vel, t=0, r=round)
movel(pose_trans(f_name,p[0.00000,-0.11138,0.03705,-0.00000,-1.57080,0.00000]), a=accel, v=vel, t=0, r=round)
movel(pose_trans(f_name,p[0.00000,-0.11021,0.03584,-0.00000,-1.57080,0.00000]), a=accel, v=vel, t=0, r=round)
movel(pose_trans(f_name,p[0.00000,-0.10842,0.03410,-0.00000,-1.57080,0.00000]), a=accel, v=vel, t=0, r=round)
movel(pose_trans(f_name,p[0.00000,-0.10660,0.03238,-0.00000,-1.57080,0.00000]), a=accel, v=vel, t=0, r=round)
movel(pose_trans(f_name,p[0.00000,-0.10468,0.03079,-0.00000,-1.57080,0.00000]), a=accel, v=vel, t=0, r=round)
movel(pose_trans(f_name,p[0.00000,-0.10275,0.02920,-0.00000,-1.57080,0.00000]), a=accel, v=vel, t=0, r=round)
movel(pose_trans(f_name,p[0.00000,-0.10069,0.02778,-0.00000,-1.57080,0.00000]), a=accel, v=vel, t=0, r=round)
movel(pose_trans(f_name,p[0.00000,-0.09863,0.02636,-0.00000,-1.57080,0.00000]), a=accel, v=vel, t=0, r=round)
movel(pose_trans(f_name,p[0.00000,-0.09646,0.02512,-0.00000,-1.57080,0.00000]), a=accel, v=vel, t=0, r=round)
movel(pose_trans(f_name,p[0.00000,-0.09429,0.02389,-0.00000,-1.57080,0.00000]), a=accel, v=vel, t=0, r=round)
movel(pose_trans(f_name,p[0.00000,-0.09202,0.02283,-0.00000,-1.57080,0.00000]), a=accel, v=vel, t=0, r=round)
movel(pose_trans(f_name,p[0.00000,-0.08975,0.02180,-0.00000,-1.57080,0.00000]), a=accel, v=vel, t=0, r=round)
movel(pose_trans(f_name,p[0.00000,-0.08851,0.02130,-0.00000,-1.57080,0.00000]), a=accel, v=vel, t=0, r=round)
movel(pose_trans(f_name,p[0.00000,-0.08615,0.02047,-0.00000,-1.57080,0.00000]), a=accel, v=vel, t=0, r=round)
movel(pose_trans(f_name,p[0.00000,-0.08379,0.01964,-0.00000,-1.57080,0.00000]), a=accel, v=vel, t=0, r=round)
movel(pose_trans(f_name,p[0.00000,-0.08137,0.01900,-0.00000,-1.57080,0.00000]), a=accel, v=vel, t=0, r=round)
movel(pose_trans(f_name,p[0.00000,-0.07896,0.01835,-0.00000,-1.57080,0.00000]), a=accel, v=vel, t=0, r=round)
movel(pose_trans(f_name,p[0.00000,-0.07651,0.01783,-0.00000,-1.57080,0.00000]), a=accel, v=vel, t=0, r=round)
movel(pose_trans(f_name,p[0.00000,-0.07406,0.01735,-0.00000,-1.57080,0.00000]), a=accel, v=vel, t=0, r=round)
movel(pose_trans(f_name,p[0.00000,-0.07160,0.01691,-0.00000,-1.57080,0.00000]), a=accel, v=vel, t=0, r=round)
movel(pose_trans(f_name,p[0.00000,-0.06912,0.01658,-0.00000,-1.57080,0.00000]), a=accel, v=vel, t=0, r=round)
movel(pose_trans(f_name,p[0.00000,-0.06664,0.01629,-0.00000,-1.57080,0.00000]), a=accel, v=vel, t=0, r=round)
movel(pose_trans(f_name,p[0.00000,-0.06415,0.01611,-0.00000,-1.57080,0.00000]), a=accel, v=vel, t=0, r=round)
movel(pose_trans(f_name,p[0.00000,-0.06165,0.01606,-0.00000,-1.57080,0.00000]), a=accel, v=vel, t=0, r=round)
movel(pose_trans(f_name,p[0.00000,-0.06040,0.01606,-0.00000,-1.57080,0.00000]), a=accel, v=vel, t=0, r=round)
movel(pose_trans(f_name,p[0.00000,-0.06069,0.01750,-0.00000,-1.57080,0.00000]), a=accel, v=vel, t=0, r=round)
movel(pose_trans(f_name,p[0.00000,-0.06076,0.01853,-0.00000,-1.57080,0.00000]), a=accel, v=vel, t=0, r=round)
movel(pose_trans(f_name,p[0.00000,-0.06051,0.01894,-0.00000,-1.57080,0.00000]), a=accel, v=vel, t=0, r=round)
movel(pose_trans(f_name,p[0.00000,-0.06018,0.01882,-0.00000,-1.57080,0.00000]), a=accel, v=vel, t=0, r=round)
movel(pose_trans(f_name,p[0.00000,-0.06004,0.01851,-0.00000,-1.57080,0.00000]), a=accel, v=vel, t=0, r=round)
movel(pose_trans(f_name,p[0.00000,-0.05893,0.01690,-0.00000,-1.57080,0.00000]), a=accel, v=vel, t=0, r=round)
movel(pose_trans(f_name,p[0.00000,-0.05722,0.01508,-0.00000,-1.57080,0.00000]), a=accel, v=vel, t=0, r=round)
movel(pose_trans(f_name,p[0.00000,-0.05573,0.01356,-0.00000,-1.57080,0.00000]), a=accel, v=vel, t=0, r=round)
movel(pose_trans(f_name,p[0.00000,-0.05391,0.01185,-0.00000,-1.57080,0.00000]), a=accel, v=vel, t=0, r=round)
movel(pose_trans(f_name,p[0.00000,-0.05294,0.01099,-0.00000,-1.57080,0.00000]), a=accel, v=vel, t=0, r=round)
movel(pose_trans(f_name,p[0.00000,-0.05098,0.00945,-0.00000,-1.57080,0.00000]), a=accel, v=vel, t=0, r=round)
movel(pose_trans(f_name,p[0.00000,-0.04963,0.00874,-0.00000,-1.57080,0.00000]), a=accel, v=vel, t=0, r=round)
set_digital_out(0, False)
movel(pose_trans(f_name,p[-0.00200,-0.04963,0.00874,-0.00000,-1.57080,0.00000]), a=accel, v=vel, t=0, r=round)
movel(pose_trans(f_name,p[-0.02000,-0.04963,0.00874,-0.00000,-1.57080,0.00000]), a=accel, v=vel, t=0, r=round)
movel(pose_trans(f_name,p[-0.02000,-0.04491,0.02556,-0.00000,-1.57080,0.00000]), a=accel, v=vel, t=0, r=round)
movel(pose_trans(f_name,p[-0.00200,-0.04491,0.02556,-0.00000,-1.57080,0.00000]), a=accel, v=vel, t=0, r=round)
set_digital_out(0, True)
movel(pose_trans(f_name,p[0.00000,-0.04491,0.02556,-0.00000,-1.57080,0.00000]), a=accel, v=vel, t=0, r=round)
movel(pose_trans(f_name,p[0.00000,-0.04253,0.02480,-0.00000,-1.57080,0.00000]), a=accel, v=vel, t=0, r=round)
movel(pose_trans(f_name,p[0.00000,-0.04088,0.02432,-0.00000,-1.57080,0.00000]), a=accel, v=vel, t=0, r=round)
movel(pose_trans(f_name,p[0.00000,-0.03843,0.02380,-0.00000,-1.57080,0.00000]), a=accel, v=vel, t=0, r=round)
movel(pose_trans(f_name,p[0.00000,-0.03749,0.02359,-0.00000,-1.57080,0.00000]), a=accel, v=vel, t=0, r=round)
movel(pose_trans(f_name,p[0.00000,-0.03500,0.02352,-0.00000,-1.57080,0.00000]), a=accel, v=vel, t=0, r=round)
movel(pose_trans(f_name,p[0.00000,-0.03342,0.02346,-0.00000,-1.57080,0.00000]), a=accel, v=vel, t=0, r=round)
movel(pose_trans(f_name,p[0.00000,-0.03095,0.02384,-0.00000,-1.57080,0.00000]), a=accel, v=vel, t=0, r=round)
movel(pose_trans(f_name,p[0.00000,-0.02877,0.02416,-0.00000,-1.57080,0.00000]), a=accel, v=vel, t=0, r=round)
movel(pose_trans(f_name,p[0.00000,-0.02638,0.02489,-0.00000,-1.57080,0.00000]), a=accel, v=vel, t=0, r=round)
movel(pose_trans(f_name,p[0.00000,-0.02427,0.02553,-0.00000,-1.57080,0.00000]), a=accel, v=vel, t=0, r=round)
movel(pose_trans(f_name,p[0.00000,-0.02204,0.02667,-0.00000,-1.57080,0.00000]), a=accel, v=vel, t=0, r=round)
movel(pose_trans(f_name,p[0.00000,-0.02062,0.02740,-0.00000,-1.57080,0.00000]), a=accel, v=vel, t=0, r=round)
movel(pose_trans(f_name,p[0.00000,-0.01911,0.02878,-0.00000,-1.57080,0.00000]), a=accel, v=vel, t=0, r=round)
movel(pose_trans(f_name,p[0.00000,-0.01829,0.03043,-0.00000,-1.57080,0.00000]), a=accel, v=vel, t=0, r=round)
movel(pose_trans(f_name,p[0.00000,-0.01812,0.03247,-0.00000,-1.57080,0.00000]), a=accel, v=vel, t=0, r=round)
movel(pose_trans(f_name,p[0.00000,-0.01855,0.03493,-0.00000,-1.57080,0.00000]), a=accel, v=vel, t=0, r=round)
movel(pose_trans(f_name,p[0.00000,-0.01856,0.03501,-0.00000,-1.57080,0.00000]), a=accel, v=vel, t=0, r=round)
movel(pose_trans(f_name,p[0.00000,-0.01936,0.03738,-0.00000,-1.57080,0.00000]), a=accel, v=vel, t=0, r=round)
movel(pose_trans(f_name,p[0.00000,-0.01965,0.03825,-0.00000,-1.57080,0.00000]), a=accel, v=vel, t=0, r=round)
movel(pose_trans(f_name,p[0.00000,-0.02079,0.04048,-0.00000,-1.57080,0.00000]), a=accel, v=vel, t=0, r=round)
movel(pose_trans(f_name,p[0.00000,-0.02114,0.04117,-0.00000,-1.57080,0.00000]), a=accel, v=vel, t=0, r=round)
movel(pose_trans(f_name,p[0.00000,-0.02260,0.04319,-0.00000,-1.57080,0.00000]), a=accel, v=vel, t=0, r=round)
movel(pose_trans(f_name,p[0.00000,-0.02299,0.04374,-0.00000,-1.57080,0.00000]), a=accel, v=vel, t=0, r=round)
movel(pose_trans(f_name,p[0.00000,-0.02475,0.04551,-0.00000,-1.57080,0.00000]), a=accel, v=vel, t=0, r=round)
movel(pose_trans(f_name,p[0.00000,-0.02518,0.04593,-0.00000,-1.57080,0.00000]), a=accel, v=vel, t=0, r=round)
movel(pose_trans(f_name,p[0.00000,-0.02721,0.04740,-0.00000,-1.57080,0.00000]), a=accel, v=vel, t=0, r=round)
movel(pose_trans(f_name,p[0.00000,-0.02767,0.04773,-0.00000,-1.57080,0.00000]), a=accel, v=vel, t=0, r=round)
movel(pose_trans(f_name,p[0.00000,-0.02991,0.04884,-0.00000,-1.57080,0.00000]), a=accel, v=vel, t=0, r=round)
movel(pose_trans(f_name,p[0.00000,-0.03044,0.04910,-0.00000,-1.57080,0.00000]), a=accel, v=vel, t=0, r=round)
movel(pose_trans(f_name,p[0.00000,-0.03283,0.04984,-0.00000,-1.57080,0.00000]), a=accel, v=vel, t=0, r=round)
movel(pose_trans(f_name,p[0.00000,-0.03345,0.05003,-0.00000,-1.57080,0.00000]), a=accel, v=vel, t=0, r=round)
movel(pose_trans(f_name,p[0.00000,-0.03592,0.05037,-0.00000,-1.57080,0.00000]), a=accel, v=vel, t=0, r=round)
movel(pose_trans(f_name,p[0.00000,-0.03667,0.05047,-0.00000,-1.57080,0.00000]), a=accel, v=vel, t=0, r=round)
movel(pose_trans(f_name,p[0.00000,-0.03917,0.05041,-0.00000,-1.57080,0.00000]), a=accel, v=vel, t=0, r=round)
movel(pose_trans(f_name,p[0.00000,-0.04064,0.05037,-0.00000,-1.57080,0.00000]), a=accel, v=vel, t=0, r=round)
movel(pose_trans(f_name,p[0.00000,-0.04310,0.04990,-0.00000,-1.57080,0.00000]), a=accel, v=vel, t=0, r=round)
movel(pose_trans(f_name,p[0.00000,-0.04449,0.04963,-0.00000,-1.57080,0.00000]), a=accel, v=vel, t=0, r=round)
movel(pose_trans(f_name,p[0.00000,-0.04685,0.04879,-0.00000,-1.57080,0.00000]), a=accel, v=vel, t=0, r=round)
movel(pose_trans(f_name,p[0.00000,-0.04808,0.04835,-0.00000,-1.57080,0.00000]), a=accel, v=vel, t=0, r=round)
movel(pose_trans(f_name,p[0.00000,-0.05028,0.04717,-0.00000,-1.57080,0.00000]), a=accel, v=vel, t=0, r=round)
movel(pose_trans(f_name,p[0.00000,-0.05126,0.04664,-0.00000,-1.57080,0.00000]), a=accel, v=vel, t=0, r=round)
movel(pose_trans(f_name,p[0.00000,-0.05322,0.04509,-0.00000,-1.57080,0.00000]), a=accel, v=vel, t=0, r=round)
movel(pose_trans(f_name,p[0.00000,-0.05387,0.04458,-0.00000,-1.57080,0.00000]), a=accel, v=vel, t=0, r=round)
movel(pose_trans(f_name,p[0.00000,-0.05547,0.04265,-0.00000,-1.57080,0.00000]), a=accel, v=vel, t=0, r=round)
movel(pose_trans(f_name,p[0.00000,-0.05579,0.04226,-0.00000,-1.57080,0.00000]), a=accel, v=vel, t=0, r=round)
movel(pose_trans(f_name,p[0.00000,-0.05678,0.03997,-0.00000,-1.57080,0.00000]), a=accel, v=vel, t=0, r=round)
movel(pose_trans(f_name,p[0.00000,-0.05686,0.03980,-0.00000,-1.57080,0.00000]), a=accel, v=vel, t=0, r=round)
movel(pose_trans(f_name,p[0.00000,-0.05703,0.03853,-0.00000,-1.57080,0.00000]), a=accel, v=vel, t=0, r=round)
movel(pose_trans(f_name,p[0.00000,-0.05693,0.03727,-0.00000,-1.57080,0.00000]), a=accel, v=vel, t=0, r=round)
movel(pose_trans(f_name,p[0.00000,-0.05619,0.03488,-0.00000,-1.57080,0.00000]), a=accel, v=vel, t=0, r=round)
movel(pose_trans(f_name,p[0.00000,-0.05618,0.03484,-0.00000,-1.57080,0.00000]), a=accel, v=vel, t=0, r=round)
movel(pose_trans(f_name,p[0.00000,-0.05494,0.03267,-0.00000,-1.57080,0.00000]), a=accel, v=vel, t=0, r=round)
movel(pose_trans(f_name,p[0.00000,-0.05488,0.03257,-0.00000,-1.57080,0.00000]), a=accel, v=vel, t=0, r=round)
movel(pose_trans(f_name,p[0.00000,-0.05325,0.03069,-0.00000,-1.57080,0.00000]), a=accel, v=vel, t=0, r=round)
movel(pose_trans(f_name,p[0.00000,-0.05308,0.03049,-0.00000,-1.57080,0.00000]), a=accel, v=vel, t=0, r=round)
movel(pose_trans(f_name,p[0.00000,-0.05115,0.02890,-0.00000,-1.57080,0.00000]), a=accel, v=vel, t=0, r=round)
movel(pose_trans(f_name,p[0.00000,-0.05079,0.02861,-0.00000,-1.57080,0.00000]), a=accel, v=vel, t=0, r=round)
movel(pose_trans(f_name,p[0.00000,-0.04865,0.02732,-0.00000,-1.57080,0.00000]), a=accel, v=vel, t=0, r=round)
movel(pose_trans(f_name,p[0.00000,-0.04806,0.02696,-0.00000,-1.57080,0.00000]), a=accel, v=vel, t=0, r=round)
movel(pose_trans(f_name,p[0.00000,-0.04578,0.02594,-0.00000,-1.57080,0.00000]), a=accel, v=vel, t=0, r=round)
movel(pose_trans(f_name,p[0.00000,-0.04491,0.02556,-0.00000,-1.57080,0.00000]), a=accel, v=vel, t=0, r=round)
movel(pose_trans(f_name,p[0.00000,-0.04420,0.02743,-0.00000,-1.57080,0.00000]), a=accel, v=vel, t=0, r=round)
movel(pose_trans(f_name,p[0.00000,-0.04182,0.02667,-0.00000,-1.57080,0.00000]), a=accel, v=vel, t=0, r=round)
movel(pose_trans(f_name,p[0.00000,-0.04040,0.02626,-0.00000,-1.57080,0.00000]), a=accel, v=vel, t=0, r=round)
movel(pose_trans(f_name,p[0.00000,-0.03796,0.02574,-0.00000,-1.57080,0.00000]), a=accel, v=vel, t=0, r=round)
movel(pose_trans(f_name,p[0.00000,-0.03725,0.02559,-0.00000,-1.57080,0.00000]), a=accel, v=vel, t=0, r=round)
movel(pose_trans(f_name,p[0.00000,-0.03475,0.02551,-0.00000,-1.57080,0.00000]), a=accel, v=vel, t=0, r=round)
movel(pose_trans(f_name,p[0.00000,-0.03354,0.02547,-0.00000,-1.57080,0.00000]), a=accel, v=vel, t=0, r=round)
movel(pose_trans(f_name,p[0.00000,-0.03107,0.02584,-0.00000,-1.57080,0.00000]), a=accel, v=vel, t=0, r=round)
movel(pose_trans(f_name,p[0.00000,-0.02922,0.02612,-0.00000,-1.57080,0.00000]), a=accel, v=vel, t=0, r=round)
movel(pose_trans(f_name,p[0.00000,-0.02682,0.02684,-0.00000,-1.57080,0.00000]), a=accel, v=vel, t=0, r=round)
movel(pose_trans(f_name,p[0.00000,-0.02502,0.02739,-0.00000,-1.57080,0.00000]), a=accel, v=vel, t=0, r=round)
movel(pose_trans(f_name,p[0.00000,-0.02279,0.02853,-0.00000,-1.57080,0.00000]), a=accel, v=vel, t=0, r=round)
movel(pose_trans(f_name,p[0.00000,-0.02177,0.02905,-0.00000,-1.57080,0.00000]), a=accel, v=vel, t=0, r=round)
movel(pose_trans(f_name,p[0.00000,-0.02074,0.03000,-0.00000,-1.57080,0.00000]), a=accel, v=vel, t=0, r=round)
movel(pose_trans(f_name,p[0.00000,-0.02025,0.03098,-0.00000,-1.57080,0.00000]), a=accel, v=vel, t=0, r=round)
movel(pose_trans(f_name,p[0.00000,-0.02013,0.03238,-0.00000,-1.57080,0.00000]), a=accel, v=vel, t=0, r=round)
movel(pose_trans(f_name,p[0.00000,-0.02051,0.03452,-0.00000,-1.57080,0.00000]), a=accel, v=vel, t=0, r=round)
movel(pose_trans(f_name,p[0.00000,-0.02131,0.03689,-0.00000,-1.57080,0.00000]), a=accel, v=vel, t=0, r=round)
movel(pose_trans(f_name,p[0.00000,-0.02150,0.03747,-0.00000,-1.57080,0.00000]), a=accel, v=vel, t=0, r=round)
movel(pose_trans(f_name,p[0.00000,-0.02264,0.03970,-0.00000,-1.57080,0.00000]), a=accel, v=vel, t=0, r=round)
movel(pose_trans(f_name,p[0.00000,-0.02285,0.04012,-0.00000,-1.57080,0.00000]), a=accel, v=vel, t=0, r=round)
movel(pose_trans(f_name,p[0.00000,-0.02431,0.04215,-0.00000,-1.57080,0.00000]), a=accel, v=vel, t=0, r=round)
movel(pose_trans(f_name,p[0.00000,-0.02452,0.04244,-0.00000,-1.57080,0.00000]), a=accel, v=vel, t=0, r=round)
movel(pose_trans(f_name,p[0.00000,-0.02628,0.04421,-0.00000,-1.57080,0.00000]), a=accel, v=vel, t=0, r=round)
movel(pose_trans(f_name,p[0.00000,-0.02648,0.04441,-0.00000,-1.57080,0.00000]), a=accel, v=vel, t=0, r=round)
movel(pose_trans(f_name,p[0.00000,-0.02851,0.04587,-0.00000,-1.57080,0.00000]), a=accel, v=vel, t=0, r=round)
movel(pose_trans(f_name,p[0.00000,-0.02871,0.04601,-0.00000,-1.57080,0.00000]), a=accel, v=vel, t=0, r=round)
movel(pose_trans(f_name,p[0.00000,-0.03095,0.04712,-0.00000,-1.57080,0.00000]), a=accel, v=vel, t=0, r=round)
movel(pose_trans(f_name,p[0.00000,-0.03118,0.04724,-0.00000,-1.57080,0.00000]), a=accel, v=vel, t=0, r=round)
movel(pose_trans(f_name,p[0.00000,-0.03357,0.04797,-0.00000,-1.57080,0.00000]), a=accel, v=vel, t=0, r=round)
movel(pose_trans(f_name,p[0.00000,-0.03388,0.04807,-0.00000,-1.57080,0.00000]), a=accel, v=vel, t=0, r=round)
movel(pose_trans(f_name,p[0.00000,-0.03636,0.04841,-0.00000,-1.57080,0.00000]), a=accel, v=vel, t=0, r=round)
movel(pose_trans(f_name,p[0.00000,-0.03678,0.04847,-0.00000,-1.57080,0.00000]), a=accel, v=vel, t=0, r=round)
movel(pose_trans(f_name,p[0.00000,-0.03928,0.04840,-0.00000,-1.57080,0.00000]), a=accel, v=vel, t=0, r=round)
movel(pose_trans(f_name,p[0.00000,-0.04043,0.04837,-0.00000,-1.57080,0.00000]), a=accel, v=vel, t=0, r=round)
movel(pose_trans(f_name,p[0.00000,-0.04288,0.04790,-0.00000,-1.57080,0.00000]), a=accel, v=vel, t=0, r=round)
movel(pose_trans(f_name,p[0.00000,-0.04397,0.04769,-0.00000,-1.57080,0.00000]), a=accel, v=vel, t=0, r=round)
movel(pose_trans(f_name,p[0.00000,-0.04632,0.04686,-0.00000,-1.57080,0.00000]), a=accel, v=vel, t=0, r=round)
movel(pose_trans(f_name,p[0.00000,-0.04727,0.04652,-0.00000,-1.57080,0.00000]), a=accel, v=vel, t=0, r=round)
movel(pose_trans(f_name,p[0.00000,-0.04947,0.04533,-0.00000,-1.57080,0.00000]), a=accel, v=vel, t=0, r=round)
movel(pose_trans(f_name,p[0.00000,-0.05015,0.04496,-0.00000,-1.57080,0.00000]), a=accel, v=vel, t=0, r=round)
movel(pose_trans(f_name,p[0.00000,-0.05212,0.04342,-0.00000,-1.57080,0.00000]), a=accel, v=vel, t=0, r=round)
movel(pose_trans(f_name,p[0.00000,-0.05247,0.04314,-0.00000,-1.57080,0.00000]), a=accel, v=vel, t=0, r=round)
movel(pose_trans(f_name,p[0.00000,-0.05406,0.04121,-0.00000,-1.57080,0.00000]), a=accel, v=vel, t=0, r=round)
movel(pose_trans(f_name,p[0.00000,-0.05491,0.03926,-0.00000,-1.57080,0.00000]), a=accel, v=vel, t=0, r=round)
movel(pose_trans(f_name,p[0.00000,-0.05502,0.03848,-0.00000,-1.57080,0.00000]), a=accel, v=vel, t=0, r=round)
movel(pose_trans(f_name,p[0.00000,-0.05495,0.03765,-0.00000,-1.57080,0.00000]), a=accel, v=vel, t=0, r=round)
movel(pose_trans(f_name,p[0.00000,-0.05433,0.03564,-0.00000,-1.57080,0.00000]), a=accel, v=vel, t=0, r=round)
movel(pose_trans(f_name,p[0.00000,-0.05324,0.03374,-0.00000,-1.57080,0.00000]), a=accel, v=vel, t=0, r=round)
movel(pose_trans(f_name,p[0.00000,-0.05168,0.03193,-0.00000,-1.57080,0.00000]), a=accel, v=vel, t=0, r=round)
movel(pose_trans(f_name,p[0.00000,-0.04975,0.03034,-0.00000,-1.57080,0.00000]), a=accel, v=vel, t=0, r=round)
movel(pose_trans(f_name,p[0.00000,-0.04963,0.03025,-0.00000,-1.57080,0.00000]), a=accel, v=vel, t=0, r=round)
movel(pose_trans(f_name,p[0.00000,-0.04749,0.02896,-0.00000,-1.57080,0.00000]), a=accel, v=vel, t=0, r=round)
movel(pose_trans(f_name,p[0.00000,-0.04713,0.02874,-0.00000,-1.57080,0.00000]), a=accel, v=vel, t=0, r=round)
movel(pose_trans(f_name,p[0.00000,-0.04485,0.02772,-0.00000,-1.57080,0.00000]), a=accel, v=vel, t=0, r=round)
movel(pose_trans(f_name,p[0.00000,-0.04420,0.02743,-0.00000,-1.57080,0.00000]), a=accel, v=vel, t=0, r=round)
movel(pose_trans(f_name,p[0.00000,-0.04348,0.02930,-0.00000,-1.57080,0.00000]), a=accel, v=vel, t=0, r=round)
movel(pose_trans(f_name,p[0.00000,-0.04110,0.02854,-0.00000,-1.57080,0.00000]), a=accel, v=vel, t=0, r=round)
movel(pose_trans(f_name,p[0.00000,-0.03988,0.02820,-0.00000,-1.57080,0.00000]), a=accel, v=vel, t=0, r=round)
movel(pose_trans(f_name,p[0.00000,-0.03744,0.02767,-0.00000,-1.57080,0.00000]), a=accel, v=vel, t=0, r=round)
movel(pose_trans(f_name,p[0.00000,-0.03701,0.02758,-0.00000,-1.57080,0.00000]), a=accel, v=vel, t=0, r=round)
movel(pose_trans(f_name,p[0.00000,-0.03451,0.02750,-0.00000,-1.57080,0.00000]), a=accel, v=vel, t=0, r=round)
movel(pose_trans(f_name,p[0.00000,-0.03366,0.02748,-0.00000,-1.57080,0.00000]), a=accel, v=vel, t=0, r=round)
movel(pose_trans(f_name,p[0.00000,-0.03119,0.02785,-0.00000,-1.57080,0.00000]), a=accel, v=vel, t=0, r=round)
movel(pose_trans(f_name,p[0.00000,-0.02966,0.02808,-0.00000,-1.57080,0.00000]), a=accel, v=vel, t=0, r=round)
movel(pose_trans(f_name,p[0.00000,-0.02727,0.02880,-0.00000,-1.57080,0.00000]), a=accel, v=vel, t=0, r=round)
movel(pose_trans(f_name,p[0.00000,-0.02577,0.02925,-0.00000,-1.57080,0.00000]), a=accel, v=vel, t=0, r=round)
movel(pose_trans(f_name,p[0.00000,-0.02355,0.03039,-0.00000,-1.57080,0.00000]), a=accel, v=vel, t=0, r=round)
movel(pose_trans(f_name,p[0.00000,-0.02292,0.03071,-0.00000,-1.57080,0.00000]), a=accel, v=vel, t=0, r=round)
movel(pose_trans(f_name,p[0.00000,-0.02236,0.03122,-0.00000,-1.57080,0.00000]), a=accel, v=vel, t=0, r=round)
movel(pose_trans(f_name,p[0.00000,-0.02221,0.03153,-0.00000,-1.57080,0.00000]), a=accel, v=vel, t=0, r=round)
movel(pose_trans(f_name,p[0.00000,-0.02215,0.03229,-0.00000,-1.57080,0.00000]), a=accel, v=vel, t=0, r=round)
movel(pose_trans(f_name,p[0.00000,-0.02245,0.03403,-0.00000,-1.57080,0.00000]), a=accel, v=vel, t=0, r=round)
movel(pose_trans(f_name,p[0.00000,-0.02325,0.03640,-0.00000,-1.57080,0.00000]), a=accel, v=vel, t=0, r=round)
movel(pose_trans(f_name,p[0.00000,-0.02335,0.03670,-0.00000,-1.57080,0.00000]), a=accel, v=vel, t=0, r=round)
movel(pose_trans(f_name,p[0.00000,-0.02448,0.03892,-0.00000,-1.57080,0.00000]), a=accel, v=vel, t=0, r=round)
movel(pose_trans(f_name,p[0.00000,-0.02456,0.03908,-0.00000,-1.57080,0.00000]), a=accel, v=vel, t=0, r=round)
movel(pose_trans(f_name,p[0.00000,-0.02602,0.04110,-0.00000,-1.57080,0.00000]), a=accel, v=vel, t=0, r=round)
movel(pose_trans(f_name,p[0.00000,-0.02605,0.04114,-0.00000,-1.57080,0.00000]), a=accel, v=vel, t=0, r=round)
movel(pose_trans(f_name,p[0.00000,-0.02778,0.04288,-0.00000,-1.57080,0.00000]), a=accel, v=vel, t=0, r=round)
movel(pose_trans(f_name,p[0.00000,-0.02974,0.04429,-0.00000,-1.57080,0.00000]), a=accel, v=vel, t=0, r=round)
movel(pose_trans(f_name,p[0.00000,-0.03192,0.04538,-0.00000,-1.57080,0.00000]), a=accel, v=vel, t=0, r=round)
movel(pose_trans(f_name,p[0.00000,-0.03431,0.04611,-0.00000,-1.57080,0.00000]), a=accel, v=vel, t=0, r=round)
movel(pose_trans(f_name,p[0.00000,-0.03679,0.04645,-0.00000,-1.57080,0.00000]), a=accel, v=vel, t=0, r=round)
movel(pose_trans(f_name,p[0.00000,-0.03690,0.04647,-0.00000,-1.57080,0.00000]), a=accel, v=vel, t=0, r=round)
movel(pose_trans(f_name,p[0.00000,-0.03939,0.04640,-0.00000,-1.57080,0.00000]), a=accel, v=vel, t=0, r=round)
movel(pose_trans(f_name,p[0.00000,-0.04021,0.04638,-0.00000,-1.57080,0.00000]), a=accel, v=vel, t=0, r=round)
movel(pose_trans(f_name,p[0.00000,-0.04267,0.04591,-0.00000,-1.57080,0.00000]), a=accel, v=vel, t=0, r=round)
movel(pose_trans(f_name,p[0.00000,-0.04344,0.04576,-0.00000,-1.57080,0.00000]), a=accel, v=vel, t=0, r=round)
movel(pose_trans(f_name,p[0.00000,-0.04580,0.04492,-0.00000,-1.57080,0.00000]), a=accel, v=vel, t=0, r=round)
movel(pose_trans(f_name,p[0.00000,-0.04645,0.04469,-0.00000,-1.57080,0.00000]), a=accel, v=vel, t=0, r=round)
movel(pose_trans(f_name,p[0.00000,-0.04865,0.04350,-0.00000,-1.57080,0.00000]), a=accel, v=vel, t=0, r=round)
movel(pose_trans(f_name,p[0.00000,-0.04905,0.04328,-0.00000,-1.57080,0.00000]), a=accel, v=vel, t=0, r=round)
movel(pose_trans(f_name,p[0.00000,-0.05102,0.04174,-0.00000,-1.57080,0.00000]), a=accel, v=vel, t=0, r=round)
movel(pose_trans(f_name,p[0.00000,-0.05107,0.04170,-0.00000,-1.57080,0.00000]), a=accel, v=vel, t=0, r=round)
movel(pose_trans(f_name,p[0.00000,-0.05234,0.04015,-0.00000,-1.57080,0.00000]), a=accel, v=vel, t=0, r=round)
movel(pose_trans(f_name,p[0.00000,-0.05297,0.03872,-0.00000,-1.57080,0.00000]), a=accel, v=vel, t=0, r=round)
movel(pose_trans(f_name,p[0.00000,-0.05301,0.03842,-0.00000,-1.57080,0.00000]), a=accel, v=vel, t=0, r=round)
movel(pose_trans(f_name,p[0.00000,-0.05298,0.03802,-0.00000,-1.57080,0.00000]), a=accel, v=vel, t=0, r=round)
movel(pose_trans(f_name,p[0.00000,-0.05249,0.03644,-0.00000,-1.57080,0.00000]), a=accel, v=vel, t=0, r=round)
movel(pose_trans(f_name,p[0.00000,-0.05160,0.03490,-0.00000,-1.57080,0.00000]), a=accel, v=vel, t=0, r=round)
movel(pose_trans(f_name,p[0.00000,-0.05028,0.03337,-0.00000,-1.57080,0.00000]), a=accel, v=vel, t=0, r=round)
movel(pose_trans(f_name,p[0.00000,-0.04848,0.03189,-0.00000,-1.57080,0.00000]), a=accel, v=vel, t=0, r=round)
movel(pose_trans(f_name,p[0.00000,-0.04634,0.03059,-0.00000,-1.57080,0.00000]), a=accel, v=vel, t=0, r=round)
movel(pose_trans(f_name,p[0.00000,-0.04620,0.03051,-0.00000,-1.57080,0.00000]), a=accel, v=vel, t=0, r=round)
movel(pose_trans(f_name,p[0.00000,-0.04392,0.02950,-0.00000,-1.57080,0.00000]), a=accel, v=vel, t=0, r=round)
movel(pose_trans(f_name,p[0.00000,-0.04348,0.02930,-0.00000,-1.57080,0.00000]), a=accel, v=vel, t=0, r=round)
set_digital_out(0, False)
movel(pose_trans(f_name,p[-0.00200,-0.04348,0.02930,-0.00000,-1.57080,0.00000]), a=accel, v=vel, t=0, r=round)
movel(pose_trans(f_name,p[-0.02000,-0.04348,0.02930,-0.00000,-1.57080,0.00000]), a=accel, v=vel, t=0, r=round)
movel(pose_trans(f_name,p[-0.02000,-0.04206,0.03305,-0.00000,-1.57080,0.00000]), a=accel, v=vel, t=0, r=round)
movel(pose_trans(f_name,p[-0.00200,-0.04206,0.03305,-0.00000,-1.57080,0.00000]), a=accel, v=vel, t=0, r=round)
set_digital_out(0, True)
movel(pose_trans(f_name,p[0.00000,-0.04206,0.03305,-0.00000,-1.57080,0.00000]), a=accel, v=vel, t=0, r=round)
movel(pose_trans(f_name,p[0.00000,-0.03968,0.03228,-0.00000,-1.57080,0.00000]), a=accel, v=vel, t=0, r=round)
movel(pose_trans(f_name,p[0.00000,-0.03724,0.03172,-0.00000,-1.57080,0.00000]), a=accel, v=vel, t=0, r=round)
movel(pose_trans(f_name,p[0.00000,-0.03652,0.03157,-0.00000,-1.57080,0.00000]), a=accel, v=vel, t=0, r=round)
movel(pose_trans(f_name,p[0.00000,-0.03402,0.03149,-0.00000,-1.57080,0.00000]), a=accel, v=vel, t=0, r=round)
movel(pose_trans(f_name,p[0.00000,-0.03390,0.03148,-0.00000,-1.57080,0.00000]), a=accel, v=vel, t=0, r=round)
movel(pose_trans(f_name,p[0.00000,-0.03143,0.03186,-0.00000,-1.57080,0.00000]), a=accel, v=vel, t=0, r=round)
movel(pose_trans(f_name,p[0.00000,-0.03054,0.03199,-0.00000,-1.57080,0.00000]), a=accel, v=vel, t=0, r=round)
movel(pose_trans(f_name,p[0.00000,-0.02815,0.03271,-0.00000,-1.57080,0.00000]), a=accel, v=vel, t=0, r=round)
movel(pose_trans(f_name,p[0.00000,-0.02727,0.03298,-0.00000,-1.57080,0.00000]), a=accel, v=vel, t=0, r=round)
movel(pose_trans(f_name,p[0.00000,-0.02646,0.03339,-0.00000,-1.57080,0.00000]), a=accel, v=vel, t=0, r=round)
movel(pose_trans(f_name,p[0.00000,-0.02705,0.03514,-0.00000,-1.57080,0.00000]), a=accel, v=vel, t=0, r=round)
movel(pose_trans(f_name,p[0.00000,-0.02799,0.03699,-0.00000,-1.57080,0.00000]), a=accel, v=vel, t=0, r=round)
movel(pose_trans(f_name,p[0.00000,-0.02911,0.03854,-0.00000,-1.57080,0.00000]), a=accel, v=vel, t=0, r=round)
movel(pose_trans(f_name,p[0.00000,-0.03039,0.03983,-0.00000,-1.57080,0.00000]), a=accel, v=vel, t=0, r=round)
movel(pose_trans(f_name,p[0.00000,-0.03182,0.04086,-0.00000,-1.57080,0.00000]), a=accel, v=vel, t=0, r=round)
movel(pose_trans(f_name,p[0.00000,-0.03341,0.04165,-0.00000,-1.57080,0.00000]), a=accel, v=vel, t=0, r=round)
movel(pose_trans(f_name,p[0.00000,-0.03518,0.04219,-0.00000,-1.57080,0.00000]), a=accel, v=vel, t=0, r=round)
movel(pose_trans(f_name,p[0.00000,-0.03712,0.04246,-0.00000,-1.57080,0.00000]), a=accel, v=vel, t=0, r=round)
movel(pose_trans(f_name,p[0.00000,-0.03962,0.04239,-0.00000,-1.57080,0.00000]), a=accel, v=vel, t=0, r=round)
movel(pose_trans(f_name,p[0.00000,-0.03978,0.04239,-0.00000,-1.57080,0.00000]), a=accel, v=vel, t=0, r=round)
movel(pose_trans(f_name,p[0.00000,-0.04223,0.04192,-0.00000,-1.57080,0.00000]), a=accel, v=vel, t=0, r=round)
movel(pose_trans(f_name,p[0.00000,-0.04239,0.04189,-0.00000,-1.57080,0.00000]), a=accel, v=vel, t=0, r=round)
movel(pose_trans(f_name,p[0.00000,-0.04475,0.04105,-0.00000,-1.57080,0.00000]), a=accel, v=vel, t=0, r=round)
movel(pose_trans(f_name,p[0.00000,-0.04482,0.04102,-0.00000,-1.57080,0.00000]), a=accel, v=vel, t=0, r=round)
movel(pose_trans(f_name,p[0.00000,-0.04685,0.03993,-0.00000,-1.57080,0.00000]), a=accel, v=vel, t=0, r=round)
movel(pose_trans(f_name,p[0.00000,-0.04826,0.03882,-0.00000,-1.57080,0.00000]), a=accel, v=vel, t=0, r=round)
movel(pose_trans(f_name,p[0.00000,-0.04882,0.03813,-0.00000,-1.57080,0.00000]), a=accel, v=vel, t=0, r=round)
movel(pose_trans(f_name,p[0.00000,-0.04880,0.03805,-0.00000,-1.57080,0.00000]), a=accel, v=vel, t=0, r=round)
movel(pose_trans(f_name,p[0.00000,-0.04832,0.03722,-0.00000,-1.57080,0.00000]), a=accel, v=vel, t=0, r=round)
movel(pose_trans(f_name,p[0.00000,-0.04748,0.03624,-0.00000,-1.57080,0.00000]), a=accel, v=vel, t=0, r=round)
movel(pose_trans(f_name,p[0.00000,-0.04616,0.03516,-0.00000,-1.57080,0.00000]), a=accel, v=vel, t=0, r=round)
movel(pose_trans(f_name,p[0.00000,-0.04435,0.03407,-0.00000,-1.57080,0.00000]), a=accel, v=vel, t=0, r=round)
movel(pose_trans(f_name,p[0.00000,-0.04207,0.03305,-0.00000,-1.57080,0.00000]), a=accel, v=vel, t=0, r=round)
movel(pose_trans(f_name,p[0.00000,-0.04134,0.03492,-0.00000,-1.57080,0.00000]), a=accel, v=vel, t=0, r=round)
movel(pose_trans(f_name,p[0.00000,-0.03896,0.03415,-0.00000,-1.57080,0.00000]), a=accel, v=vel, t=0, r=round)
movel(pose_trans(f_name,p[0.00000,-0.03652,0.03361,-0.00000,-1.57080,0.00000]), a=accel, v=vel, t=0, r=round)
movel(pose_trans(f_name,p[0.00000,-0.03628,0.03356,-0.00000,-1.57080,0.00000]), a=accel, v=vel, t=0, r=round)
movel(pose_trans(f_name,p[0.00000,-0.03402,0.03349,-0.00000,-1.57080,0.00000]), a=accel, v=vel, t=0, r=round)
movel(pose_trans(f_name,p[0.00000,-0.03154,0.03386,-0.00000,-1.57080,0.00000]), a=accel, v=vel, t=0, r=round)
movel(pose_trans(f_name,p[0.00000,-0.03098,0.03395,-0.00000,-1.57080,0.00000]), a=accel, v=vel, t=0, r=round)
movel(pose_trans(f_name,p[0.00000,-0.02899,0.03455,-0.00000,-1.57080,0.00000]), a=accel, v=vel, t=0, r=round)
movel(pose_trans(f_name,p[0.00000,-0.02970,0.03594,-0.00000,-1.57080,0.00000]), a=accel, v=vel, t=0, r=round)
movel(pose_trans(f_name,p[0.00000,-0.03064,0.03724,-0.00000,-1.57080,0.00000]), a=accel, v=vel, t=0, r=round)
movel(pose_trans(f_name,p[0.00000,-0.03169,0.03830,-0.00000,-1.57080,0.00000]), a=accel, v=vel, t=0, r=round)
movel(pose_trans(f_name,p[0.00000,-0.03285,0.03914,-0.00000,-1.57080,0.00000]), a=accel, v=vel, t=0, r=round)
movel(pose_trans(f_name,p[0.00000,-0.03415,0.03978,-0.00000,-1.57080,0.00000]), a=accel, v=vel, t=0, r=round)
movel(pose_trans(f_name,p[0.00000,-0.03562,0.04023,-0.00000,-1.57080,0.00000]), a=accel, v=vel, t=0, r=round)
movel(pose_trans(f_name,p[0.00000,-0.03723,0.04046,-0.00000,-1.57080,0.00000]), a=accel, v=vel, t=0, r=round)
movel(pose_trans(f_name,p[0.00000,-0.03956,0.04039,-0.00000,-1.57080,0.00000]), a=accel, v=vel, t=0, r=round)
movel(pose_trans(f_name,p[0.00000,-0.04186,0.03995,-0.00000,-1.57080,0.00000]), a=accel, v=vel, t=0, r=round)
movel(pose_trans(f_name,p[0.00000,-0.04401,0.03919,-0.00000,-1.57080,0.00000]), a=accel, v=vel, t=0, r=round)
movel(pose_trans(f_name,p[0.00000,-0.04574,0.03825,-0.00000,-1.57080,0.00000]), a=accel, v=vel, t=0, r=round)
movel(pose_trans(f_name,p[0.00000,-0.04623,0.03787,-0.00000,-1.57080,0.00000]), a=accel, v=vel, t=0, r=round)
movel(pose_trans(f_name,p[0.00000,-0.04607,0.03768,-0.00000,-1.57080,0.00000]), a=accel, v=vel, t=0, r=round)
movel(pose_trans(f_name,p[0.00000,-0.04500,0.03680,-0.00000,-1.57080,0.00000]), a=accel, v=vel, t=0, r=round)
movel(pose_trans(f_name,p[0.00000,-0.04342,0.03584,-0.00000,-1.57080,0.00000]), a=accel, v=vel, t=0, r=round)
movel(pose_trans(f_name,p[0.00000,-0.04134,0.03492,-0.00000,-1.57080,0.00000]), a=accel, v=vel, t=0, r=round)
movel(pose_trans(f_name,p[0.00000,-0.04063,0.03679,-0.00000,-1.57080,0.00000]), a=accel, v=vel, t=0, r=round)
movel(pose_trans(f_name,p[0.00000,-0.03825,0.03603,-0.00000,-1.57080,0.00000]), a=accel, v=vel, t=0, r=round)
movel(pose_trans(f_name,p[0.00000,-0.03603,0.03555,-0.00000,-1.57080,0.00000]), a=accel, v=vel, t=0, r=round)
movel(pose_trans(f_name,p[0.00000,-0.03413,0.03549,-0.00000,-1.57080,0.00000]), a=accel, v=vel, t=0, r=round)
movel(pose_trans(f_name,p[0.00000,-0.03207,0.03580,-0.00000,-1.57080,0.00000]), a=accel, v=vel, t=0, r=round)
movel(pose_trans(f_name,p[0.00000,-0.03217,0.03594,-0.00000,-1.57080,0.00000]), a=accel, v=vel, t=0, r=round)
movel(pose_trans(f_name,p[0.00000,-0.03299,0.03677,-0.00000,-1.57080,0.00000]), a=accel, v=vel, t=0, r=round)
movel(pose_trans(f_name,p[0.00000,-0.03389,0.03742,-0.00000,-1.57080,0.00000]), a=accel, v=vel, t=0, r=round)
movel(pose_trans(f_name,p[0.00000,-0.03489,0.03792,-0.00000,-1.57080,0.00000]), a=accel, v=vel, t=0, r=round)
movel(pose_trans(f_name,p[0.00000,-0.03605,0.03827,-0.00000,-1.57080,0.00000]), a=accel, v=vel, t=0, r=round)
movel(pose_trans(f_name,p[0.00000,-0.03734,0.03845,-0.00000,-1.57080,0.00000]), a=accel, v=vel, t=0, r=round)
movel(pose_trans(f_name,p[0.00000,-0.03934,0.03840,-0.00000,-1.57080,0.00000]), a=accel, v=vel, t=0, r=round)
movel(pose_trans(f_name,p[0.00000,-0.04134,0.03802,-0.00000,-1.57080,0.00000]), a=accel, v=vel, t=0, r=round)
movel(pose_trans(f_name,p[0.00000,-0.04248,0.03761,-0.00000,-1.57080,0.00000]), a=accel, v=vel, t=0, r=round)
movel(pose_trans(f_name,p[0.00000,-0.04063,0.03679,-0.00000,-1.57080,0.00000]), a=accel, v=vel, t=0, r=round)
set_digital_out(0, False)
movel(pose_trans(f_name,p[-0.00200,-0.04063,0.03679,-0.00000,-1.57080,0.00000]), a=accel, v=vel, t=0, r=round)
movel(pose_trans(f_name,p[-0.02000,-0.04063,0.03679,-0.00000,-1.57080,0.00000]), a=accel, v=vel, t=0, r=round)
movel(pose_trans(f_name,p[-0.02000,-0.04401,0.04169,-0.00000,-1.57080,0.00000]), a=accel, v=vel, t=0, r=round)
movel(pose_trans(f_name,p[-0.00200,-0.04401,0.04169,-0.00000,-1.57080,0.00000]), a=accel, v=vel, t=0, r=round)
set_digital_out(0, True)
movel(pose_trans(f_name,p[0.00000,-0.04401,0.04169,-0.00000,-1.57080,0.00000]), a=accel, v=vel, t=0, r=round)
movel(pose_trans(f_name,p[0.00000,-0.04522,0.04150,-0.00000,-1.57080,0.00000]), a=accel, v=vel, t=0, r=round)
movel(pose_trans(f_name,p[0.00000,-0.04631,0.04170,-0.00000,-1.57080,0.00000]), a=accel, v=vel, t=0, r=round)
movel(pose_trans(f_name,p[0.00000,-0.04694,0.04229,-0.00000,-1.57080,0.00000]), a=accel, v=vel, t=0, r=round)
movel(pose_trans(f_name,p[0.00000,-0.04685,0.04316,-0.00000,-1.57080,0.00000]), a=accel, v=vel, t=0, r=round)
movel(pose_trans(f_name,p[0.00000,-0.04611,0.04400,-0.00000,-1.57080,0.00000]), a=accel, v=vel, t=0, r=round)
movel(pose_trans(f_name,p[0.00000,-0.04499,0.04460,-0.00000,-1.57080,0.00000]), a=accel, v=vel, t=0, r=round)
movel(pose_trans(f_name,p[0.00000,-0.04377,0.04476,-0.00000,-1.57080,0.00000]), a=accel, v=vel, t=0, r=round)
movel(pose_trans(f_name,p[0.00000,-0.04288,0.04445,-0.00000,-1.57080,0.00000]), a=accel, v=vel, t=0, r=round)
movel(pose_trans(f_name,p[0.00000,-0.04244,0.04386,-0.00000,-1.57080,0.00000]), a=accel, v=vel, t=0, r=round)
movel(pose_trans(f_name,p[0.00000,-0.04247,0.04309,-0.00000,-1.57080,0.00000]), a=accel, v=vel, t=0, r=round)
movel(pose_trans(f_name,p[0.00000,-0.04302,0.04227,-0.00000,-1.57080,0.00000]), a=accel, v=vel, t=0, r=round)
movel(pose_trans(f_name,p[0.00000,-0.04401,0.04169,-0.00000,-1.57080,0.00000]), a=accel, v=vel, t=0, r=round)
movel(pose_trans(f_name,p[0.00000,-0.04292,0.04382,-0.00000,-1.57080,0.00000]), a=accel, v=vel, t=0, r=round)
movel(pose_trans(f_name,p[0.00000,-0.04046,0.04429,-0.00000,-1.57080,0.00000]), a=accel, v=vel, t=0, r=round)
movel(pose_trans(f_name,p[0.00000,-0.03999,0.04438,-0.00000,-1.57080,0.00000]), a=accel, v=vel, t=0, r=round)
movel(pose_trans(f_name,p[0.00000,-0.03750,0.04445,-0.00000,-1.57080,0.00000]), a=accel, v=vel, t=0, r=round)
movel(pose_trans(f_name,p[0.00000,-0.03701,0.04446,-0.00000,-1.57080,0.00000]), a=accel, v=vel, t=0, r=round)
movel(pose_trans(f_name,p[0.00000,-0.03475,0.04415,-0.00000,-1.57080,0.00000]), a=accel, v=vel, t=0, r=round)
movel(pose_trans(f_name,p[0.00000,-0.03267,0.04351,-0.00000,-1.57080,0.00000]), a=accel, v=vel, t=0, r=round)
movel(pose_trans(f_name,p[0.00000,-0.03078,0.04258,-0.00000,-1.57080,0.00000]), a=accel, v=vel, t=0, r=round)
movel(pose_trans(f_name,p[0.00000,-0.02908,0.04135,-0.00000,-1.57080,0.00000]), a=accel, v=vel, t=0, r=round)
movel(pose_trans(f_name,p[0.00000,-0.02758,0.03984,-0.00000,-1.57080,0.00000]), a=accel, v=vel, t=0, r=round)
movel(pose_trans(f_name,p[0.00000,-0.02628,0.03803,-0.00000,-1.57080,0.00000]), a=accel, v=vel, t=0, r=round)
movel(pose_trans(f_name,p[0.00000,-0.02520,0.03592,-0.00000,-1.57080,0.00000]), a=accel, v=vel, t=0, r=round)
movel(pose_trans(f_name,p[0.00000,-0.02440,0.03355,-0.00000,-1.57080,0.00000]), a=accel, v=vel, t=0, r=round)
movel(pose_trans(f_name,p[0.00000,-0.02418,0.03231,-0.00000,-1.57080,0.00000]), a=accel, v=vel, t=0, r=round)
movel(pose_trans(f_name,p[0.00000,-0.02641,0.03117,-0.00000,-1.57080,0.00000]), a=accel, v=vel, t=0, r=round)
movel(pose_trans(f_name,p[0.00000,-0.02652,0.03112,-0.00000,-1.57080,0.00000]), a=accel, v=vel, t=0, r=round)
movel(pose_trans(f_name,p[0.00000,-0.02891,0.03039,-0.00000,-1.57080,0.00000]), a=accel, v=vel, t=0, r=round)
movel(pose_trans(f_name,p[0.00000,-0.03010,0.03003,-0.00000,-1.57080,0.00000]), a=accel, v=vel, t=0, r=round)
movel(pose_trans(f_name,p[0.00000,-0.03257,0.02966,-0.00000,-1.57080,0.00000]), a=accel, v=vel, t=0, r=round)
movel(pose_trans(f_name,p[0.00000,-0.03378,0.02948,-0.00000,-1.57080,0.00000]), a=accel, v=vel, t=0, r=round)
movel(pose_trans(f_name,p[0.00000,-0.03628,0.02956,-0.00000,-1.57080,0.00000]), a=accel, v=vel, t=0, r=round)
movel(pose_trans(f_name,p[0.00000,-0.03676,0.02957,-0.00000,-1.57080,0.00000]), a=accel, v=vel, t=0, r=round)
movel(pose_trans(f_name,p[0.00000,-0.03921,0.03010,-0.00000,-1.57080,0.00000]), a=accel, v=vel, t=0, r=round)
movel(pose_trans(f_name,p[0.00000,-0.04028,0.03038,-0.00000,-1.57080,0.00000]), a=accel, v=vel, t=0, r=round)
movel(pose_trans(f_name,p[0.00000,-0.04266,0.03114,-0.00000,-1.57080,0.00000]), a=accel, v=vel, t=0, r=round)
movel(pose_trans(f_name,p[0.00000,-0.04277,0.03117,-0.00000,-1.57080,0.00000]), a=accel, v=vel, t=0, r=round)
movel(pose_trans(f_name,p[0.00000,-0.04505,0.03219,-0.00000,-1.57080,0.00000]), a=accel, v=vel, t=0, r=round)
movel(pose_trans(f_name,p[0.00000,-0.04528,0.03229,-0.00000,-1.57080,0.00000]), a=accel, v=vel, t=0, r=round)
movel(pose_trans(f_name,p[0.00000,-0.04732,0.03352,-0.00000,-1.57080,0.00000]), a=accel, v=vel, t=0, r=round)
movel(pose_trans(f_name,p[0.00000,-0.04888,0.03480,-0.00000,-1.57080,0.00000]), a=accel, v=vel, t=0, r=round)
movel(pose_trans(f_name,p[0.00000,-0.04997,0.03606,-0.00000,-1.57080,0.00000]), a=accel, v=vel, t=0, r=round)
movel(pose_trans(f_name,p[0.00000,-0.05064,0.03725,-0.00000,-1.57080,0.00000]), a=accel, v=vel, t=0, r=round)
movel(pose_trans(f_name,p[0.00000,-0.05097,0.03830,-0.00000,-1.57080,0.00000]), a=accel, v=vel, t=0, r=round)
movel(pose_trans(f_name,p[0.00000,-0.05062,0.03910,-0.00000,-1.57080,0.00000]), a=accel, v=vel, t=0, r=round)
movel(pose_trans(f_name,p[0.00000,-0.04966,0.04026,-0.00000,-1.57080,0.00000]), a=accel, v=vel, t=0, r=round)
movel(pose_trans(f_name,p[0.00000,-0.04795,0.04161,-0.00000,-1.57080,0.00000]), a=accel, v=vel, t=0, r=round)
set_digital_out(0, False)
movel(pose_trans(f_name,p[-0.00200,-0.04795,0.04161,-0.00000,-1.57080,0.00000]), a=accel, v=vel, t=0, r=round)
movel(pose_trans(f_name,p[-0.02000,-0.04795,0.04161,-0.00000,-1.57080,0.00000]), a=accel, v=vel, t=0, r=round)
movel(pose_trans(f_name,p[-0.02000,-0.05571,0.04752,-0.00000,-1.57080,0.00000]), a=accel, v=vel, t=0, r=round)
movel(pose_trans(f_name,p[-0.00200,-0.05571,0.04752,-0.00000,-1.57080,0.00000]), a=accel, v=vel, t=0, r=round)
set_digital_out(0, True)
movel(pose_trans(f_name,p[0.00000,-0.05571,0.04752,-0.00000,-1.57080,0.00000]), a=accel, v=vel, t=0, r=round)
movel(pose_trans(f_name,p[0.00000,-0.05753,0.04581,-0.00000,-1.57080,0.00000]), a=accel, v=vel, t=0, r=round)
movel(pose_trans(f_name,p[0.00000,-0.05911,0.04431,-0.00000,-1.57080,0.00000]), a=accel, v=vel, t=0, r=round)
movel(pose_trans(f_name,p[0.00000,-0.05983,0.04390,-0.00000,-1.57080,0.00000]), a=accel, v=vel, t=0, r=round)
movel(pose_trans(f_name,p[0.00000,-0.06004,0.04419,-0.00000,-1.57080,0.00000]), a=accel, v=vel, t=0, r=round)
movel(pose_trans(f_name,p[0.00000,-0.05851,0.04616,-0.00000,-1.57080,0.00000]), a=accel, v=vel, t=0, r=round)
movel(pose_trans(f_name,p[0.00000,-0.05828,0.04646,-0.00000,-1.57080,0.00000]), a=accel, v=vel, t=0, r=round)
movel(pose_trans(f_name,p[0.00000,-0.05648,0.04820,-0.00000,-1.57080,0.00000]), a=accel, v=vel, t=0, r=round)
movel(pose_trans(f_name,p[0.00000,-0.05469,0.04995,-0.00000,-1.57080,0.00000]), a=accel, v=vel, t=0, r=round)
movel(pose_trans(f_name,p[0.00000,-0.05374,0.05082,-0.00000,-1.57080,0.00000]), a=accel, v=vel, t=0, r=round)
movel(pose_trans(f_name,p[0.00000,-0.05180,0.05238,-0.00000,-1.57080,0.00000]), a=accel, v=vel, t=0, r=round)
movel(pose_trans(f_name,p[0.00000,-0.05154,0.05259,-0.00000,-1.57080,0.00000]), a=accel, v=vel, t=0, r=round)
movel(pose_trans(f_name,p[0.00000,-0.04934,0.05376,-0.00000,-1.57080,0.00000]), a=accel, v=vel, t=0, r=round)
movel(pose_trans(f_name,p[0.00000,-0.04885,0.05402,-0.00000,-1.57080,0.00000]), a=accel, v=vel, t=0, r=round)
movel(pose_trans(f_name,p[0.00000,-0.04647,0.05478,-0.00000,-1.57080,0.00000]), a=accel, v=vel, t=0, r=round)
movel(pose_trans(f_name,p[0.00000,-0.04461,0.05531,-0.00000,-1.57080,0.00000]), a=accel, v=vel, t=0, r=round)
movel(pose_trans(f_name,p[0.00000,-0.04217,0.05586,-0.00000,-1.57080,0.00000]), a=accel, v=vel, t=0, r=round)
movel(pose_trans(f_name,p[0.00000,-0.03973,0.05640,-0.00000,-1.57080,0.00000]), a=accel, v=vel, t=0, r=round)
movel(pose_trans(f_name,p[0.00000,-0.03729,0.05690,-0.00000,-1.57080,0.00000]), a=accel, v=vel, t=0, r=round)
movel(pose_trans(f_name,p[0.00000,-0.03523,0.05731,-0.00000,-1.57080,0.00000]), a=accel, v=vel, t=0, r=round)
movel(pose_trans(f_name,p[0.00000,-0.03287,0.05651,-0.00000,-1.57080,0.00000]), a=accel, v=vel, t=0, r=round)
movel(pose_trans(f_name,p[0.00000,-0.03052,0.05567,-0.00000,-1.57080,0.00000]), a=accel, v=vel, t=0, r=round)
movel(pose_trans(f_name,p[0.00000,-0.02838,0.05483,-0.00000,-1.57080,0.00000]), a=accel, v=vel, t=0, r=round)
movel(pose_trans(f_name,p[0.00000,-0.02638,0.05387,-0.00000,-1.57080,0.00000]), a=accel, v=vel, t=0, r=round)
movel(pose_trans(f_name,p[0.00000,-0.02451,0.05261,-0.00000,-1.57080,0.00000]), a=accel, v=vel, t=0, r=round)
movel(pose_trans(f_name,p[0.00000,-0.02295,0.05112,-0.00000,-1.57080,0.00000]), a=accel, v=vel, t=0, r=round)
movel(pose_trans(f_name,p[0.00000,-0.02146,0.04923,-0.00000,-1.57080,0.00000]), a=accel, v=vel, t=0, r=round)
movel(pose_trans(f_name,p[0.00000,-0.02117,0.04830,-0.00000,-1.57080,0.00000]), a=accel, v=vel, t=0, r=round)
movel(pose_trans(f_name,p[0.00000,-0.02199,0.04841,-0.00000,-1.57080,0.00000]), a=accel, v=vel, t=0, r=round)
movel(pose_trans(f_name,p[0.00000,-0.02406,0.04982,-0.00000,-1.57080,0.00000]), a=accel, v=vel, t=0, r=round)
movel(pose_trans(f_name,p[0.00000,-0.02614,0.05121,-0.00000,-1.57080,0.00000]), a=accel, v=vel, t=0, r=round)
movel(pose_trans(f_name,p[0.00000,-0.02732,0.05201,-0.00000,-1.57080,0.00000]), a=accel, v=vel, t=0, r=round)
movel(pose_trans(f_name,p[0.00000,-0.02957,0.05308,-0.00000,-1.57080,0.00000]), a=accel, v=vel, t=0, r=round)
movel(pose_trans(f_name,p[0.00000,-0.03110,0.05381,-0.00000,-1.57080,0.00000]), a=accel, v=vel, t=0, r=round)
movel(pose_trans(f_name,p[0.00000,-0.03349,0.05455,-0.00000,-1.57080,0.00000]), a=accel, v=vel, t=0, r=round)
movel(pose_trans(f_name,p[0.00000,-0.03491,0.05499,-0.00000,-1.57080,0.00000]), a=accel, v=vel, t=0, r=round)
movel(pose_trans(f_name,p[0.00000,-0.03739,0.05528,-0.00000,-1.57080,0.00000]), a=accel, v=vel, t=0, r=round)
movel(pose_trans(f_name,p[0.00000,-0.03843,0.05541,-0.00000,-1.57080,0.00000]), a=accel, v=vel, t=0, r=round)
movel(pose_trans(f_name,p[0.00000,-0.04091,0.05516,-0.00000,-1.57080,0.00000]), a=accel, v=vel, t=0, r=round)
movel(pose_trans(f_name,p[0.00000,-0.04121,0.05513,-0.00000,-1.57080,0.00000]), a=accel, v=vel, t=0, r=round)
movel(pose_trans(f_name,p[0.00000,-0.04365,0.05459,-0.00000,-1.57080,0.00000]), a=accel, v=vel, t=0, r=round)
movel(pose_trans(f_name,p[0.00000,-0.04503,0.05425,-0.00000,-1.57080,0.00000]), a=accel, v=vel, t=0, r=round)
movel(pose_trans(f_name,p[0.00000,-0.04742,0.05351,-0.00000,-1.57080,0.00000]), a=accel, v=vel, t=0, r=round)
movel(pose_trans(f_name,p[0.00000,-0.04774,0.05341,-0.00000,-1.57080,0.00000]), a=accel, v=vel, t=0, r=round)
movel(pose_trans(f_name,p[0.00000,-0.05002,0.05239,-0.00000,-1.57080,0.00000]), a=accel, v=vel, t=0, r=round)
movel(pose_trans(f_name,p[0.00000,-0.05017,0.05232,-0.00000,-1.57080,0.00000]), a=accel, v=vel, t=0, r=round)
movel(pose_trans(f_name,p[0.00000,-0.05214,0.05079,-0.00000,-1.57080,0.00000]), a=accel, v=vel, t=0, r=round)
movel(pose_trans(f_name,p[0.00000,-0.05304,0.05003,-0.00000,-1.57080,0.00000]), a=accel, v=vel, t=0, r=round)
movel(pose_trans(f_name,p[0.00000,-0.05486,0.04832,-0.00000,-1.57080,0.00000]), a=accel, v=vel, t=0, r=round)
movel(pose_trans(f_name,p[0.00000,-0.05571,0.04752,-0.00000,-1.57080,0.00000]), a=accel, v=vel, t=0, r=round)
set_digital_out(0, False)
movel(pose_trans(f_name,p[-0.00200,-0.05571,0.04752,-0.00000,-1.57080,0.00000]), a=accel, v=vel, t=0, r=round)
movel(pose_trans(f_name,p[-0.02000,-0.05571,0.04752,-0.00000,-1.57080,0.00000]), a=accel, v=vel, t=0, r=round)
movel(pose_trans(f_name,p[-0.02000,-0.06445,0.04662,-0.00000,-1.57080,0.00000]), a=accel, v=vel, t=0, r=round)
movel(pose_trans(f_name,p[-0.00200,-0.06445,0.04662,-0.00000,-1.57080,0.00000]), a=accel, v=vel, t=0, r=round)
set_digital_out(0, True)
movel(pose_trans(f_name,p[0.00000,-0.06445,0.04662,-0.00000,-1.57080,0.00000]), a=accel, v=vel, t=0, r=round)
movel(pose_trans(f_name,p[0.00000,-0.06481,0.04865,-0.00000,-1.57080,0.00000]), a=accel, v=vel, t=0, r=round)
movel(pose_trans(f_name,p[0.00000,-0.06572,0.05076,-0.00000,-1.57080,0.00000]), a=accel, v=vel, t=0, r=round)
movel(pose_trans(f_name,p[0.00000,-0.06706,0.05287,-0.00000,-1.57080,0.00000]), a=accel, v=vel, t=0, r=round)
movel(pose_trans(f_name,p[0.00000,-0.06762,0.05376,-0.00000,-1.57080,0.00000]), a=accel, v=vel, t=0, r=round)
movel(pose_trans(f_name,p[0.00000,-0.06929,0.05562,-0.00000,-1.57080,0.00000]), a=accel, v=vel, t=0, r=round)
movel(pose_trans(f_name,p[0.00000,-0.07024,0.05667,-0.00000,-1.57080,0.00000]), a=accel, v=vel, t=0, r=round)
movel(pose_trans(f_name,p[0.00000,-0.07216,0.05828,-0.00000,-1.57080,0.00000]), a=accel, v=vel, t=0, r=round)
movel(pose_trans(f_name,p[0.00000,-0.07335,0.05928,-0.00000,-1.57080,0.00000]), a=accel, v=vel, t=0, r=round)
movel(pose_trans(f_name,p[0.00000,-0.07548,0.06058,-0.00000,-1.57080,0.00000]), a=accel, v=vel, t=0, r=round)
movel(pose_trans(f_name,p[0.00000,-0.07670,0.06134,-0.00000,-1.57080,0.00000]), a=accel, v=vel, t=0, r=round)
movel(pose_trans(f_name,p[0.00000,-0.07901,0.06228,-0.00000,-1.57080,0.00000]), a=accel, v=vel, t=0, r=round)
movel(pose_trans(f_name,p[0.00000,-0.08133,0.06322,-0.00000,-1.57080,0.00000]), a=accel, v=vel, t=0, r=round)
movel(pose_trans(f_name,p[0.00000,-0.08370,0.06402,-0.00000,-1.57080,0.00000]), a=accel, v=vel, t=0, r=round)
movel(pose_trans(f_name,p[0.00000,-0.08607,0.06482,-0.00000,-1.57080,0.00000]), a=accel, v=vel, t=0, r=round)
movel(pose_trans(f_name,p[0.00000,-0.08844,0.06560,-0.00000,-1.57080,0.00000]), a=accel, v=vel, t=0, r=round)
movel(pose_trans(f_name,p[0.00000,-0.09081,0.06638,-0.00000,-1.57080,0.00000]), a=accel, v=vel, t=0, r=round)
movel(pose_trans(f_name,p[0.00000,-0.09319,0.06716,-0.00000,-1.57080,0.00000]), a=accel, v=vel, t=0, r=round)
movel(pose_trans(f_name,p[0.00000,-0.09556,0.06794,-0.00000,-1.57080,0.00000]), a=accel, v=vel, t=0, r=round)
movel(pose_trans(f_name,p[0.00000,-0.09794,0.06872,-0.00000,-1.57080,0.00000]), a=accel, v=vel, t=0, r=round)
movel(pose_trans(f_name,p[0.00000,-0.10031,0.06950,-0.00000,-1.57080,0.00000]), a=accel, v=vel, t=0, r=round)
movel(pose_trans(f_name,p[0.00000,-0.10269,0.07028,-0.00000,-1.57080,0.00000]), a=accel, v=vel, t=0, r=round)
movel(pose_trans(f_name,p[0.00000,-0.10506,0.07106,-0.00000,-1.57080,0.00000]), a=accel, v=vel, t=0, r=round)
movel(pose_trans(f_name,p[0.00000,-0.10744,0.07181,-0.00000,-1.57080,0.00000]), a=accel, v=vel, t=0, r=round)
movel(pose_trans(f_name,p[0.00000,-0.10983,0.07257,-0.00000,-1.57080,0.00000]), a=accel, v=vel, t=0, r=round)
movel(pose_trans(f_name,p[0.00000,-0.11221,0.07333,-0.00000,-1.57080,0.00000]), a=accel, v=vel, t=0, r=round)
movel(pose_trans(f_name,p[0.00000,-0.11459,0.07409,-0.00000,-1.57080,0.00000]), a=accel, v=vel, t=0, r=round)
movel(pose_trans(f_name,p[0.00000,-0.11581,0.07448,-0.00000,-1.57080,0.00000]), a=accel, v=vel, t=0, r=round)
movel(pose_trans(f_name,p[0.00000,-0.11359,0.07334,-0.00000,-1.57080,0.00000]), a=accel, v=vel, t=0, r=round)
movel(pose_trans(f_name,p[0.00000,-0.11165,0.07243,-0.00000,-1.57080,0.00000]), a=accel, v=vel, t=0, r=round)
movel(pose_trans(f_name,p[0.00000,-0.10937,0.07141,-0.00000,-1.57080,0.00000]), a=accel, v=vel, t=0, r=round)
movel(pose_trans(f_name,p[0.00000,-0.10709,0.07039,-0.00000,-1.57080,0.00000]), a=accel, v=vel, t=0, r=round)
movel(pose_trans(f_name,p[0.00000,-0.10480,0.06937,-0.00000,-1.57080,0.00000]), a=accel, v=vel, t=0, r=round)
movel(pose_trans(f_name,p[0.00000,-0.10253,0.06834,-0.00000,-1.57080,0.00000]), a=accel, v=vel, t=0, r=round)
movel(pose_trans(f_name,p[0.00000,-0.10025,0.06731,-0.00000,-1.57080,0.00000]), a=accel, v=vel, t=0, r=round)
movel(pose_trans(f_name,p[0.00000,-0.09797,0.06628,-0.00000,-1.57080,0.00000]), a=accel, v=vel, t=0, r=round)
movel(pose_trans(f_name,p[0.00000,-0.09569,0.06525,-0.00000,-1.57080,0.00000]), a=accel, v=vel, t=0, r=round)
movel(pose_trans(f_name,p[0.00000,-0.09342,0.06422,-0.00000,-1.57080,0.00000]), a=accel, v=vel, t=0, r=round)
movel(pose_trans(f_name,p[0.00000,-0.09114,0.06319,-0.00000,-1.57080,0.00000]), a=accel, v=vel, t=0, r=round)
movel(pose_trans(f_name,p[0.00000,-0.08886,0.06216,-0.00000,-1.57080,0.00000]), a=accel, v=vel, t=0, r=round)
movel(pose_trans(f_name,p[0.00000,-0.08659,0.06111,-0.00000,-1.57080,0.00000]), a=accel, v=vel, t=0, r=round)
movel(pose_trans(f_name,p[0.00000,-0.08435,0.06001,-0.00000,-1.57080,0.00000]), a=accel, v=vel, t=0, r=round)
movel(pose_trans(f_name,p[0.00000,-0.08253,0.05907,-0.00000,-1.57080,0.00000]), a=accel, v=vel, t=0, r=round)
movel(pose_trans(f_name,p[0.00000,-0.08041,0.05784,-0.00000,-1.57080,0.00000]), a=accel, v=vel, t=0, r=round)
movel(pose_trans(f_name,p[0.00000,-0.07847,0.05627,-0.00000,-1.57080,0.00000]), a=accel, v=vel, t=0, r=round)
movel(pose_trans(f_name,p[0.00000,-0.07838,0.05620,-0.00000,-1.57080,0.00000]), a=accel, v=vel, t=0, r=round)
movel(pose_trans(f_name,p[0.00000,-0.07662,0.05443,-0.00000,-1.57080,0.00000]), a=accel, v=vel, t=0, r=round)
movel(pose_trans(f_name,p[0.00000,-0.07542,0.05315,-0.00000,-1.57080,0.00000]), a=accel, v=vel, t=0, r=round)
movel(pose_trans(f_name,p[0.00000,-0.07377,0.05128,-0.00000,-1.57080,0.00000]), a=accel, v=vel, t=0, r=round)
movel(pose_trans(f_name,p[0.00000,-0.07298,0.05038,-0.00000,-1.57080,0.00000]), a=accel, v=vel, t=0, r=round)
movel(pose_trans(f_name,p[0.00000,-0.07162,0.04828,-0.00000,-1.57080,0.00000]), a=accel, v=vel, t=0, r=round)
movel(pose_trans(f_name,p[0.00000,-0.07092,0.04721,-0.00000,-1.57080,0.00000]), a=accel, v=vel, t=0, r=round)
movel(pose_trans(f_name,p[0.00000,-0.07000,0.04489,-0.00000,-1.57080,0.00000]), a=accel, v=vel, t=0, r=round)
movel(pose_trans(f_name,p[0.00000,-0.06952,0.04365,-0.00000,-1.57080,0.00000]), a=accel, v=vel, t=0, r=round)
movel(pose_trans(f_name,p[0.00000,-0.06893,0.04122,-0.00000,-1.57080,0.00000]), a=accel, v=vel, t=0, r=round)
movel(pose_trans(f_name,p[0.00000,-0.06835,0.03879,-0.00000,-1.57080,0.00000]), a=accel, v=vel, t=0, r=round)
movel(pose_trans(f_name,p[0.00000,-0.06780,0.03636,-0.00000,-1.57080,0.00000]), a=accel, v=vel, t=0, r=round)
movel(pose_trans(f_name,p[0.00000,-0.06724,0.03392,-0.00000,-1.57080,0.00000]), a=accel, v=vel, t=0, r=round)
movel(pose_trans(f_name,p[0.00000,-0.06668,0.03148,-0.00000,-1.57080,0.00000]), a=accel, v=vel, t=0, r=round)
movel(pose_trans(f_name,p[0.00000,-0.06651,0.03073,-0.00000,-1.57080,0.00000]), a=accel, v=vel, t=0, r=round)
movel(pose_trans(f_name,p[0.00000,-0.06559,0.02840,-0.00000,-1.57080,0.00000]), a=accel, v=vel, t=0, r=round)
movel(pose_trans(f_name,p[0.00000,-0.06546,0.02806,-0.00000,-1.57080,0.00000]), a=accel, v=vel, t=0, r=round)
movel(pose_trans(f_name,p[0.00000,-0.06546,0.03056,-0.00000,-1.57080,0.00000]), a=accel, v=vel, t=0, r=round)
movel(pose_trans(f_name,p[0.00000,-0.06548,0.03306,-0.00000,-1.57080,0.00000]), a=accel, v=vel, t=0, r=round)
movel(pose_trans(f_name,p[0.00000,-0.06552,0.03556,-0.00000,-1.57080,0.00000]), a=accel, v=vel, t=0, r=round)
movel(pose_trans(f_name,p[0.00000,-0.06536,0.03805,-0.00000,-1.57080,0.00000]), a=accel, v=vel, t=0, r=round)
movel(pose_trans(f_name,p[0.00000,-0.06517,0.03988,-0.00000,-1.57080,0.00000]), a=accel, v=vel, t=0, r=round)
movel(pose_trans(f_name,p[0.00000,-0.06482,0.04235,-0.00000,-1.57080,0.00000]), a=accel, v=vel, t=0, r=round)
movel(pose_trans(f_name,p[0.00000,-0.06459,0.04425,-0.00000,-1.57080,0.00000]), a=accel, v=vel, t=0, r=round)
movel(pose_trans(f_name,p[0.00000,-0.06445,0.04662,-0.00000,-1.57080,0.00000]), a=accel, v=vel, t=0, r=round)
set_digital_out(0, False)
movel(pose_trans(f_name,p[-0.00200,-0.06445,0.04662,-0.00000,-1.57080,0.00000]), a=accel, v=vel, t=0, r=round)
movel(pose_trans(f_name,p[-0.02000,-0.06445,0.04662,-0.00000,-1.57080,0.00000]), a=accel, v=vel, t=0, r=round)
movel(pose_trans(f_name,p[-0.02000,-0.06244,0.07692,-0.00000,-1.57080,0.00000]), a=accel, v=vel, t=0, r=round)
movel(pose_trans(f_name,p[-0.00200,-0.06244,0.07692,-0.00000,-1.57080,0.00000]), a=accel, v=vel, t=0, r=round)
set_digital_out(0, True)
movel(pose_trans(f_name,p[0.00000,-0.06244,0.07692,-0.00000,-1.57080,0.00000]), a=accel, v=vel, t=0, r=round)
movel(pose_trans(f_name,p[0.00000,-0.06489,0.07742,-0.00000,-1.57080,0.00000]), a=accel, v=vel, t=0, r=round)
movel(pose_trans(f_name,p[0.00000,-0.06734,0.07791,-0.00000,-1.57080,0.00000]), a=accel, v=vel, t=0, r=round)
movel(pose_trans(f_name,p[0.00000,-0.06979,0.07840,-0.00000,-1.57080,0.00000]), a=accel, v=vel, t=0, r=round)
movel(pose_trans(f_name,p[0.00000,-0.07224,0.07890,-0.00000,-1.57080,0.00000]), a=accel, v=vel, t=0, r=round)
movel(pose_trans(f_name,p[0.00000,-0.07469,0.07939,-0.00000,-1.57080,0.00000]), a=accel, v=vel, t=0, r=round)
movel(pose_trans(f_name,p[0.00000,-0.07714,0.07989,-0.00000,-1.57080,0.00000]), a=accel, v=vel, t=0, r=round)
movel(pose_trans(f_name,p[0.00000,-0.07959,0.08040,-0.00000,-1.57080,0.00000]), a=accel, v=vel, t=0, r=round)
movel(pose_trans(f_name,p[0.00000,-0.08203,0.08092,-0.00000,-1.57080,0.00000]), a=accel, v=vel, t=0, r=round)
movel(pose_trans(f_name,p[0.00000,-0.08448,0.08143,-0.00000,-1.57080,0.00000]), a=accel, v=vel, t=0, r=round)
movel(pose_trans(f_name,p[0.00000,-0.08693,0.08195,-0.00000,-1.57080,0.00000]), a=accel, v=vel, t=0, r=round)
movel(pose_trans(f_name,p[0.00000,-0.08937,0.08246,-0.00000,-1.57080,0.00000]), a=accel, v=vel, t=0, r=round)
movel(pose_trans(f_name,p[0.00000,-0.09182,0.08297,-0.00000,-1.57080,0.00000]), a=accel, v=vel, t=0, r=round)
movel(pose_trans(f_name,p[0.00000,-0.09426,0.08349,-0.00000,-1.57080,0.00000]), a=accel, v=vel, t=0, r=round)
movel(pose_trans(f_name,p[0.00000,-0.09671,0.08400,-0.00000,-1.57080,0.00000]), a=accel, v=vel, t=0, r=round)
movel(pose_trans(f_name,p[0.00000,-0.09916,0.08451,-0.00000,-1.57080,0.00000]), a=accel, v=vel, t=0, r=round)
movel(pose_trans(f_name,p[0.00000,-0.10161,0.08496,-0.00000,-1.57080,0.00000]), a=accel, v=vel, t=0, r=round)
movel(pose_trans(f_name,p[0.00000,-0.10407,0.08542,-0.00000,-1.57080,0.00000]), a=accel, v=vel, t=0, r=round)
movel(pose_trans(f_name,p[0.00000,-0.10653,0.08587,-0.00000,-1.57080,0.00000]), a=accel, v=vel, t=0, r=round)
movel(pose_trans(f_name,p[0.00000,-0.10899,0.08632,-0.00000,-1.57080,0.00000]), a=accel, v=vel, t=0, r=round)
movel(pose_trans(f_name,p[0.00000,-0.11144,0.08677,-0.00000,-1.57080,0.00000]), a=accel, v=vel, t=0, r=round)
movel(pose_trans(f_name,p[0.00000,-0.11390,0.08723,-0.00000,-1.57080,0.00000]), a=accel, v=vel, t=0, r=round)
movel(pose_trans(f_name,p[0.00000,-0.11636,0.08766,-0.00000,-1.57080,0.00000]), a=accel, v=vel, t=0, r=round)
movel(pose_trans(f_name,p[0.00000,-0.11884,0.08800,-0.00000,-1.57080,0.00000]), a=accel, v=vel, t=0, r=round)
movel(pose_trans(f_name,p[0.00000,-0.12132,0.08835,-0.00000,-1.57080,0.00000]), a=accel, v=vel, t=0, r=round)
movel(pose_trans(f_name,p[0.00000,-0.12379,0.08869,-0.00000,-1.57080,0.00000]), a=accel, v=vel, t=0, r=round)
movel(pose_trans(f_name,p[0.00000,-0.12627,0.08903,-0.00000,-1.57080,0.00000]), a=accel, v=vel, t=0, r=round)
movel(pose_trans(f_name,p[0.00000,-0.12874,0.08938,-0.00000,-1.57080,0.00000]), a=accel, v=vel, t=0, r=round)
movel(pose_trans(f_name,p[0.00000,-0.13124,0.08953,-0.00000,-1.57080,0.00000]), a=accel, v=vel, t=0, r=round)
movel(pose_trans(f_name,p[0.00000,-0.13373,0.08967,-0.00000,-1.57080,0.00000]), a=accel, v=vel, t=0, r=round)
movel(pose_trans(f_name,p[0.00000,-0.13623,0.08982,-0.00000,-1.57080,0.00000]), a=accel, v=vel, t=0, r=round)
movel(pose_trans(f_name,p[0.00000,-0.13824,0.08994,-0.00000,-1.57080,0.00000]), a=accel, v=vel, t=0, r=round)
movel(pose_trans(f_name,p[0.00000,-0.14074,0.08982,-0.00000,-1.57080,0.00000]), a=accel, v=vel, t=0, r=round)
movel(pose_trans(f_name,p[0.00000,-0.14163,0.08977,-0.00000,-1.57080,0.00000]), a=accel, v=vel, t=0, r=round)
movel(pose_trans(f_name,p[0.00000,-0.14408,0.08926,-0.00000,-1.57080,0.00000]), a=accel, v=vel, t=0, r=round)
movel(pose_trans(f_name,p[0.00000,-0.14421,0.08923,-0.00000,-1.57080,0.00000]), a=accel, v=vel, t=0, r=round)
movel(pose_trans(f_name,p[0.00000,-0.14627,0.08821,-0.00000,-1.57080,0.00000]), a=accel, v=vel, t=0, r=round)
movel(pose_trans(f_name,p[0.00000,-0.14808,0.08662,-0.00000,-1.57080,0.00000]), a=accel, v=vel, t=0, r=round)
movel(pose_trans(f_name,p[0.00000,-0.14888,0.08568,-0.00000,-1.57080,0.00000]), a=accel, v=vel, t=0, r=round)
movel(pose_trans(f_name,p[0.00000,-0.14933,0.08469,-0.00000,-1.57080,0.00000]), a=accel, v=vel, t=0, r=round)
movel(pose_trans(f_name,p[0.00000,-0.14956,0.08220,-0.00000,-1.57080,0.00000]), a=accel, v=vel, t=0, r=round)
movel(pose_trans(f_name,p[0.00000,-0.14972,0.08008,-0.00000,-1.57080,0.00000]), a=accel, v=vel, t=0, r=round)
movel(pose_trans(f_name,p[0.00000,-0.14982,0.07758,-0.00000,-1.57080,0.00000]), a=accel, v=vel, t=0, r=round)
movel(pose_trans(f_name,p[0.00000,-0.14985,0.07673,-0.00000,-1.57080,0.00000]), a=accel, v=vel, t=0, r=round)
movel(pose_trans(f_name,p[0.00000,-0.14802,0.07503,-0.00000,-1.57080,0.00000]), a=accel, v=vel, t=0, r=round)
movel(pose_trans(f_name,p[0.00000,-0.14618,0.07333,-0.00000,-1.57080,0.00000]), a=accel, v=vel, t=0, r=round)
movel(pose_trans(f_name,p[0.00000,-0.14435,0.07163,-0.00000,-1.57080,0.00000]), a=accel, v=vel, t=0, r=round)
movel(pose_trans(f_name,p[0.00000,-0.14252,0.06993,-0.00000,-1.57080,0.00000]), a=accel, v=vel, t=0, r=round)
movel(pose_trans(f_name,p[0.00000,-0.14071,0.06821,-0.00000,-1.57080,0.00000]), a=accel, v=vel, t=0, r=round)
movel(pose_trans(f_name,p[0.00000,-0.13890,0.06648,-0.00000,-1.57080,0.00000]), a=accel, v=vel, t=0, r=round)
movel(pose_trans(f_name,p[0.00000,-0.13710,0.06475,-0.00000,-1.57080,0.00000]), a=accel, v=vel, t=0, r=round)
movel(pose_trans(f_name,p[0.00000,-0.13554,0.06320,-0.00000,-1.57080,0.00000]), a=accel, v=vel, t=0, r=round)
movel(pose_trans(f_name,p[0.00000,-0.13386,0.06136,-0.00000,-1.57080,0.00000]), a=accel, v=vel, t=0, r=round)
movel(pose_trans(f_name,p[0.00000,-0.13217,0.05951,-0.00000,-1.57080,0.00000]), a=accel, v=vel, t=0, r=round)
movel(pose_trans(f_name,p[0.00000,-0.13131,0.05856,-0.00000,-1.57080,0.00000]), a=accel, v=vel, t=0, r=round)
movel(pose_trans(f_name,p[0.00000,-0.12982,0.05655,-0.00000,-1.57080,0.00000]), a=accel, v=vel, t=0, r=round)
movel(pose_trans(f_name,p[0.00000,-0.12834,0.05454,-0.00000,-1.57080,0.00000]), a=accel, v=vel, t=0, r=round)
movel(pose_trans(f_name,p[0.00000,-0.12707,0.05272,-0.00000,-1.57080,0.00000]), a=accel, v=vel, t=0, r=round)
movel(pose_trans(f_name,p[0.00000,-0.12575,0.05060,-0.00000,-1.57080,0.00000]), a=accel, v=vel, t=0, r=round)
movel(pose_trans(f_name,p[0.00000,-0.12444,0.04847,-0.00000,-1.57080,0.00000]), a=accel, v=vel, t=0, r=round)
movel(pose_trans(f_name,p[0.00000,-0.12312,0.04634,-0.00000,-1.57080,0.00000]), a=accel, v=vel, t=0, r=round)
movel(pose_trans(f_name,p[0.00000,-0.12181,0.04422,-0.00000,-1.57080,0.00000]), a=accel, v=vel, t=0, r=round)
movel(pose_trans(f_name,p[0.00000,-0.12049,0.04209,-0.00000,-1.57080,0.00000]), a=accel, v=vel, t=0, r=round)
movel(pose_trans(f_name,p[0.00000,-0.11918,0.03997,-0.00000,-1.57080,0.00000]), a=accel, v=vel, t=0, r=round)
movel(pose_trans(f_name,p[0.00000,-0.11782,0.03787,-0.00000,-1.57080,0.00000]), a=accel, v=vel, t=0, r=round)
movel(pose_trans(f_name,p[0.00000,-0.11641,0.03581,-0.00000,-1.57080,0.00000]), a=accel, v=vel, t=0, r=round)
movel(pose_trans(f_name,p[0.00000,-0.11519,0.03402,-0.00000,-1.57080,0.00000]), a=accel, v=vel, t=0, r=round)
movel(pose_trans(f_name,p[0.00000,-0.11352,0.03215,-0.00000,-1.57080,0.00000]), a=accel, v=vel, t=0, r=round)
movel(pose_trans(f_name,p[0.00000,-0.11192,0.03041,-0.00000,-1.57080,0.00000]), a=accel, v=vel, t=0, r=round)
movel(pose_trans(f_name,p[0.00000,-0.11007,0.02873,-0.00000,-1.57080,0.00000]), a=accel, v=vel, t=0, r=round)
movel(pose_trans(f_name,p[0.00000,-0.10829,0.02717,-0.00000,-1.57080,0.00000]), a=accel, v=vel, t=0, r=round)
movel(pose_trans(f_name,p[0.00000,-0.10630,0.02566,-0.00000,-1.57080,0.00000]), a=accel, v=vel, t=0, r=round)
movel(pose_trans(f_name,p[0.00000,-0.10428,0.02418,-0.00000,-1.57080,0.00000]), a=accel, v=vel, t=0, r=round)
movel(pose_trans(f_name,p[0.00000,-0.10217,0.02283,-0.00000,-1.57080,0.00000]), a=accel, v=vel, t=0, r=round)
movel(pose_trans(f_name,p[0.00000,-0.10005,0.02151,-0.00000,-1.57080,0.00000]), a=accel, v=vel, t=0, r=round)
movel(pose_trans(f_name,p[0.00000,-0.09785,0.02033,-0.00000,-1.57080,0.00000]), a=accel, v=vel, t=0, r=round)
movel(pose_trans(f_name,p[0.00000,-0.09565,0.01914,-0.00000,-1.57080,0.00000]), a=accel, v=vel, t=0, r=round)
movel(pose_trans(f_name,p[0.00000,-0.09337,0.01812,-0.00000,-1.57080,0.00000]), a=accel, v=vel, t=0, r=round)
movel(pose_trans(f_name,p[0.00000,-0.09109,0.01710,-0.00000,-1.57080,0.00000]), a=accel, v=vel, t=0, r=round)
movel(pose_trans(f_name,p[0.00000,-0.08876,0.01620,-0.00000,-1.57080,0.00000]), a=accel, v=vel, t=0, r=round)
movel(pose_trans(f_name,p[0.00000,-0.08641,0.01534,-0.00000,-1.57080,0.00000]), a=accel, v=vel, t=0, r=round)
movel(pose_trans(f_name,p[0.00000,-0.08476,0.01478,-0.00000,-1.57080,0.00000]), a=accel, v=vel, t=0, r=round)
movel(pose_trans(f_name,p[0.00000,-0.08236,0.01409,-0.00000,-1.57080,0.00000]), a=accel, v=vel, t=0, r=round)
movel(pose_trans(f_name,p[0.00000,-0.07995,0.01340,-0.00000,-1.57080,0.00000]), a=accel, v=vel, t=0, r=round)
movel(pose_trans(f_name,p[0.00000,-0.07753,0.01279,-0.00000,-1.57080,0.00000]), a=accel, v=vel, t=0, r=round)
movel(pose_trans(f_name,p[0.00000,-0.07511,0.01218,-0.00000,-1.57080,0.00000]), a=accel, v=vel, t=0, r=round)
movel(pose_trans(f_name,p[0.00000,-0.07281,0.01132,-0.00000,-1.57080,0.00000]), a=accel, v=vel, t=0, r=round)
